;FLAVOR:Marlin
;TIME:10836
;Filament used: 21.2398m
;Layer height: 0.3
;MINX:29.05
;MINY:34.981
;MINZ:0.3
;MAXX:180.95
;MAXY:160.72
;MAXZ:6.3
;TARGET_MACHINE.NAME:Anycubic i3 Mega
;Generated with Cura_SteamEngine 5.10.0
M140 S60
M105
M190 S60
M104 S220
M105
M109 S220
G21 ;metric values
G90 ;absolute positioning
M82 ;set extruder to absolute mode
M107 ;start with the fan off
G28 X0 Y0 ;move X/Y to min endstops
G28 Z0 ;move Z to min endstops
G1 Z15.0 F100 ;move the platform down 15mm
G92 E0 ;zero the extruded length
G1 F200 E3 ;extrude 3mm of feed stock
G92 E0 ;zero the extruded length again
G1 F100
G0 Y20 F100
M117 Printing...
G5
M82 ;absolute extrusion mode
G92 E0
G92 E0
G1 F2400 E-6
;LAYER_COUNT:21
;LAYER:0
M107
M204 S3000
M205 X10 Y10
G1 F600 Z0.375
G0 F3000 X31.421 Y36.427 Z0.375
M204 S1800
M205 X8 Y8
;TYPE:SKIRT
G1 F600 Z0.3
G1 F2400 E0
G1 X31.945 Y36.043 E0.04537
G1 X32.755 Y35.592 E0.11013
G1 X33.484 Y35.304 E0.16488
G1 X34.192 Y35.12 E0.21597
G1 X35.407 Y34.981 E0.30139
G1 X173.859 Y34.981 E9.97174
G1 X174.633 Y34.992 E10.02581
G1 X175.419 Y35.054 E10.08088
G1 X176.257 Y35.227 E10.14065
G1 X176.873 Y35.433 E10.18601
G1 X177.709 Y35.832 E10.25071
G1 X178.365 Y36.26 E10.30542
G1 X178.915 Y36.72 E10.3555
G1 X179.411 Y37.241 E10.40575
G1 X179.92 Y37.927 E10.46541
G1 X180.305 Y38.614 E10.52042
G1 X180.603 Y39.343 E10.57542
G1 X180.794 Y40.035 E10.62557
G1 X180.95 Y41.339 E10.71729
G1 X180.949 Y43.973 E10.90127
G1 X180.926 Y45.65 E11.01841
G1 X180.901 Y46.535 E11.08025
G1 X180.901 Y49.173 E11.26451
G1 X180.949 Y51.224 E11.4078
G1 X180.95 Y58.199 E11.89498
G1 X180.926 Y59.949 E12.01722
G1 X180.901 Y60.834 E12.07906
G1 X180.901 Y63.472 E12.26331
G1 X180.949 Y65.523 E12.40661
G1 X180.95 Y74.079 E13.00421
G1 X180.94 Y74.777 E13.05297
G1 X180.94 Y77.517 E13.24435
G1 X180.95 Y78.246 E13.29527
G1 X180.949 Y88.455 E14.00833
G1 X180.94 Y89.077 E14.05178
G1 X180.94 Y91.817 E14.24316
G1 X180.95 Y92.546 E14.29408
G1 X180.949 Y102.755 E15.00714
G1 X180.94 Y103.377 E15.05059
G1 X180.94 Y106.117 E15.24197
G1 X180.95 Y106.846 E15.29289
G1 X180.949 Y117.055 E16.00595
G1 X180.94 Y117.677 E16.0494
G1 X180.94 Y120.417 E16.24078
G1 X180.95 Y121.146 E16.2917
G1 X180.949 Y131.355 E17.00477
G1 X180.94 Y131.977 E17.04821
G1 X180.94 Y134.717 E17.23959
G1 X180.95 Y135.446 E17.29052
G1 X180.949 Y145.655 E18.00358
G1 X180.94 Y146.277 E18.04703
G1 X180.94 Y149.017 E18.2384
G1 X180.95 Y149.73 E18.28821
G1 X180.95 Y153.663 E18.56292
G1 X180.941 Y154.39 E18.6137
G1 X180.87 Y155.247 E18.67376
G1 X180.709 Y156.013 E18.72843
G1 X180.48 Y156.692 E18.77848
G1 X180.143 Y157.402 E18.83338
G1 X179.762 Y158.01 E18.88349
G1 X179.171 Y158.728 E18.94844
G1 X178.649 Y159.217 E18.9984
G1 X178.073 Y159.646 E19.04857
G1 X177.266 Y160.1 E19.11324
G1 X176.596 Y160.37 E19.16369
G1 X175.822 Y160.578 E19.21967
G1 X174.595 Y160.72 E19.30595
G1 X36.075 Y160.72 E28.98105
G1 X35.377 Y160.711 E29.02981
G1 X34.521 Y160.64 E29.08981
G1 X33.816 Y160.495 E29.14008
G1 X33.01 Y160.222 E29.19952
G1 X32.365 Y159.911 E29.24953
G1 X31.698 Y159.486 E29.30477
G1 X31.04 Y158.939 E29.36454
G1 X30.551 Y158.417 E29.41449
G1 X30.084 Y157.783 E29.46949
G1 X29.729 Y157.158 E29.5197
G1 X29.4 Y156.368 E29.57947
G1 X29.197 Y155.636 E29.63253
G1 X29.05 Y154.357 E29.72245
G1 X29.051 Y151.727 E29.90614
G1 X29.075 Y149.993 E30.02727
G1 X29.099 Y149.161 E30.08541
G1 X29.099 Y146.527 E30.26938
G1 X29.051 Y144.477 E30.41261
G1 X29.05 Y137.501 E30.89985
G1 X29.075 Y135.693 E31.02615
G1 X29.099 Y134.861 E31.08428
G1 X29.099 Y132.227 E31.26826
G1 X29.051 Y130.177 E31.41148
G1 X29.05 Y123.201 E31.89873
G1 X29.075 Y121.393 E32.02502
G1 X29.099 Y120.561 E32.08316
G1 X29.099 Y117.927 E32.26714
G1 X29.051 Y115.877 E32.41036
G1 X29.05 Y108.901 E32.89761
G1 X29.075 Y107.093 E33.0239
G1 X29.099 Y106.261 E33.08204
G1 X29.099 Y103.627 E33.26601
G1 X29.051 Y101.577 E33.40924
G1 X29.05 Y94.601 E33.89648
G1 X29.075 Y92.793 E34.02278
G1 X29.099 Y91.961 E34.08092
G1 X29.099 Y89.327 E34.26489
G1 X29.051 Y87.277 E34.40811
G1 X29.05 Y80.301 E34.89536
G1 X29.075 Y78.493 E35.02166
G1 X29.099 Y77.661 E35.07979
G1 X29.099 Y75.027 E35.26377
G1 X29.051 Y72.977 E35.40699
G1 X29.05 Y64.422 E36.00453
G1 X29.06 Y63.723 E36.05335
G1 X29.06 Y60.983 E36.24473
G1 X29.05 Y60.254 E36.29566
G1 X29.051 Y50.047 E37.00858
G1 X29.06 Y49.424 E37.0521
G1 X29.06 Y46.684 E37.24347
G1 X29.05 Y45.955 E37.2944
G1 X29.051 Y41.96 E37.57343
G1 X29.061 Y41.295 E37.61989
G1 X29.123 Y40.507 E37.6751
G1 X29.297 Y39.67 E37.73481
G1 X29.503 Y39.054 E37.78017
G1 X29.903 Y38.217 E37.84497
G1 X30.333 Y37.561 E37.89975
G1 X30.795 Y37.011 E37.94992
G1 X31.421 Y36.427 E38.00972
M204 S3000
M205 X10 Y10
G0 F3000 X31.752 Y36.879
M204 S1800
M205 X8 Y8
G1 F2400 X32.276 Y36.495 E38.05509
G1 X32.963 Y36.112 E38.11003
G1 X33.63 Y35.845 E38.16021
G1 X34.257 Y35.676 E38.20557
G1 X35.407 Y35.541 E38.28644
G1 X173.851 Y35.541 E47.95624
G1 X174.625 Y35.552 E48.01031
G1 X175.374 Y35.612 E48.06279
G1 X176.079 Y35.758 E48.11308
G1 X176.695 Y35.964 E48.15845
G1 X177.405 Y36.303 E48.2134
G1 X178.008 Y36.692 E48.26352
G1 X178.509 Y37.106 E48.30892
G1 X179.005 Y37.627 E48.35916
G1 X179.433 Y38.203 E48.40928
G1 X179.788 Y38.829 E48.45955
G1 X180.063 Y39.492 E48.50968
G1 X180.254 Y40.184 E48.55982
G1 X180.39 Y41.339 E48.64105
G1 X180.389 Y43.965 E48.82447
G1 X180.366 Y45.634 E48.94105
G1 X180.341 Y46.519 E49.00289
G1 X180.341 Y49.173 E49.18826
G1 X180.389 Y51.224 E49.33156
G1 X180.39 Y58.191 E49.81818
G1 X180.366 Y59.933 E49.93986
G1 X180.341 Y60.818 E50.0017
G1 X180.341 Y63.472 E50.18707
G1 X180.389 Y65.523 E50.33036
G1 X180.39 Y74.071 E50.92741
G1 X180.38 Y74.769 E50.97617
G1 X180.38 Y77.517 E51.1681
G1 X180.39 Y78.246 E51.21903
G1 X180.389 Y88.447 E51.93153
G1 X180.38 Y89.069 E51.97498
G1 X180.38 Y91.817 E52.16692
G1 X180.39 Y92.546 E52.21784
G1 X180.389 Y102.747 E52.93034
G1 X180.38 Y103.369 E52.97379
G1 X180.38 Y106.117 E53.16573
G1 X180.39 Y106.846 E53.21665
G1 X180.389 Y117.047 E53.92915
G1 X180.38 Y117.669 E53.9726
G1 X180.38 Y120.417 E54.16454
G1 X180.39 Y121.146 E54.21546
G1 X180.389 Y131.347 E54.92796
G1 X180.38 Y131.969 E54.97141
G1 X180.38 Y134.717 E55.16335
G1 X180.39 Y135.446 E55.21427
G1 X180.389 Y145.647 E55.92677
G1 X180.38 Y146.269 E55.97022
G1 X180.38 Y149.017 E56.16216
G1 X180.39 Y149.738 E56.21252
G1 X180.39 Y153.656 E56.48618
G1 X180.381 Y154.383 E56.53696
G1 X180.322 Y155.134 E56.58958
G1 X180.177 Y155.837 E56.63972
G1 X179.973 Y156.454 E56.68511
G1 X179.668 Y157.105 E56.73532
G1 X179.287 Y157.713 E56.78543
G1 X178.786 Y158.321 E56.84046
G1 X178.314 Y158.768 E56.88587
G1 X177.738 Y159.197 E56.93603
G1 X177.053 Y159.582 E56.99091
G1 X176.451 Y159.829 E57.03636
G1 X175.677 Y160.037 E57.09234
G1 X174.595 Y160.16 E57.1684
G1 X36.082 Y160.16 E66.84302
G1 X35.384 Y160.151 E66.89178
G1 X34.634 Y160.091 E66.94433
G1 X33.929 Y159.946 E66.9946
G1 X33.25 Y159.716 E67.04467
G1 X32.663 Y159.437 E67.09007
G1 X32.054 Y159.054 E67.14032
G1 X31.447 Y158.554 E67.19525
G1 X31 Y158.082 E67.24065
G1 X30.571 Y157.506 E67.29082
G1 X30.216 Y156.881 E67.34102
G1 X29.94 Y156.218 E67.39118
G1 X29.737 Y155.486 E67.44424
G1 X29.61 Y154.357 E67.52359
G1 X29.611 Y151.735 E67.70673
G1 X29.635 Y150.009 E67.8273
G1 X29.659 Y149.177 E67.88543
G1 X29.659 Y146.527 E68.07052
G1 X29.611 Y144.477 E68.21375
G1 X29.61 Y137.509 E68.70044
G1 X29.635 Y135.709 E68.82617
G1 X29.659 Y134.877 E68.88431
G1 X29.659 Y132.227 E69.0694
G1 X29.611 Y130.177 E69.21263
G1 X29.61 Y123.209 E69.69931
G1 X29.635 Y121.409 E69.82505
G1 X29.659 Y120.577 E69.88319
G1 X29.659 Y117.927 E70.06828
G1 X29.611 Y115.877 E70.2115
G1 X29.61 Y108.909 E70.69819
G1 X29.635 Y107.109 E70.82393
G1 X29.659 Y106.277 E70.88206
G1 X29.659 Y103.627 E71.06716
G1 X29.611 Y101.577 E71.21038
G1 X29.61 Y94.609 E71.69707
G1 X29.635 Y92.809 E71.8228
G1 X29.659 Y91.977 E71.88094
G1 X29.659 Y89.327 E72.06603
G1 X29.611 Y87.277 E72.20926
G1 X29.61 Y80.309 E72.69595
G1 X29.635 Y78.509 E72.82168
G1 X29.659 Y77.677 E72.87982
G1 X29.659 Y75.027 E73.06491
G1 X29.611 Y72.977 E73.20814
G1 X29.61 Y64.43 E73.80511
G1 X29.62 Y63.731 E73.85394
G1 X29.62 Y60.983 E74.04588
G1 X29.61 Y60.254 E74.0968
G1 X29.611 Y50.055 E74.80916
G1 X29.62 Y49.432 E74.85268
G1 X29.62 Y46.684 E75.04462
G1 X29.61 Y45.955 E75.09554
G1 X29.611 Y41.968 E75.37402
G1 X29.621 Y41.303 E75.42047
G1 X29.681 Y40.552 E75.47309
G1 X29.828 Y39.848 E75.52332
G1 X30.034 Y39.232 E75.56869
G1 X30.373 Y38.522 E75.62365
G1 X30.764 Y37.919 E75.67384
G1 X31.179 Y37.419 E75.71923
G1 X31.752 Y36.879 E75.77422
M204 S3000
M205 X10 Y10
G0 F3000 X32.083 Y37.331
M204 S1800
M205 X8 Y8
G1 F2400 X31.61 Y37.777 E75.81963
G1 X31.195 Y38.277 E75.86501
G1 X30.845 Y38.824 E75.91037
G1 X30.565 Y39.41 E75.95573
G1 X30.359 Y40.026 E76.0011
G1 X30.23 Y40.663 E76.0465
G1 X30.181 Y41.311 E76.09189
G1 X30.171 Y41.976 E76.13834
G1 X30.17 Y45.955 E76.41626
G1 X30.18 Y46.684 E76.46718
G1 X30.18 Y49.44 E76.65968
G1 X30.171 Y50.063 E76.7032
G1 X30.17 Y60.254 E77.415
G1 X30.18 Y60.983 E77.46592
G1 X30.18 Y63.739 E77.65842
G1 X30.17 Y64.438 E77.70725
G1 X30.171 Y72.977 E78.30366
G1 X30.219 Y75.027 E78.44689
G1 X30.219 Y77.693 E78.6331
G1 X30.195 Y78.525 E78.69123
G1 X30.17 Y80.317 E78.81641
G1 X30.171 Y87.277 E79.30254
G1 X30.219 Y89.327 E79.44577
G1 X30.219 Y91.993 E79.63198
G1 X30.195 Y92.825 E79.69011
G1 X30.17 Y94.617 E79.81529
G1 X30.171 Y101.577 E80.30142
G1 X30.219 Y103.627 E80.44464
G1 X30.219 Y106.293 E80.63085
G1 X30.195 Y107.125 E80.68899
G1 X30.17 Y108.917 E80.81417
G1 X30.171 Y115.877 E81.3003
G1 X30.219 Y117.927 E81.44352
G1 X30.219 Y120.593 E81.62973
G1 X30.195 Y121.425 E81.68787
G1 X30.17 Y123.217 E81.81304
G1 X30.171 Y130.177 E82.29917
G1 X30.219 Y132.227 E82.4424
G1 X30.219 Y134.893 E82.62861
G1 X30.195 Y135.725 E82.68674
G1 X30.17 Y137.517 E82.81192
G1 X30.171 Y144.477 E83.29805
G1 X30.219 Y146.527 E83.44127
G1 X30.219 Y149.193 E83.62749
G1 X30.195 Y150.025 E83.68562
G1 X30.171 Y151.743 E83.80563
G1 X30.17 Y154.357 E83.98821
G1 X30.288 Y155.379 E84.06006
G1 X30.458 Y156.006 E84.10544
G1 X30.704 Y156.607 E84.1508
G1 X31.022 Y157.174 E84.1962
G1 X31.407 Y157.697 E84.24156
G1 X31.854 Y158.169 E84.28697
G1 X32.355 Y158.582 E84.33232
G1 X32.903 Y158.931 E84.3777
G1 X33.49 Y159.21 E84.42309
G1 X34.106 Y159.415 E84.46844
G1 X34.743 Y159.542 E84.51381
G1 X35.391 Y159.591 E84.5592
G1 X36.089 Y159.6 E84.60795
G1 X174.595 Y159.6 E94.28208
G1 X175.612 Y159.481 E94.3536
G1 X176.238 Y159.311 E94.39891
G1 X176.84 Y159.064 E94.44436
G1 X177.406 Y158.746 E94.4897
G1 X177.929 Y158.361 E94.53506
G1 X178.401 Y157.914 E94.58047
G1 X178.814 Y157.413 E94.62582
G1 X179.162 Y156.865 E94.67116
G1 X179.441 Y156.278 E94.71655
G1 X179.645 Y155.661 E94.76194
G1 X179.773 Y155.024 E94.80732
G1 X179.821 Y154.376 E94.85271
G1 X179.83 Y153.649 E94.90349
G1 X179.83 Y149.746 E95.1761
G1 X179.82 Y149.017 E95.22702
G1 X179.82 Y146.261 E95.41952
G1 X179.829 Y145.639 E95.46297
G1 X179.83 Y135.446 E96.17491
G1 X179.82 Y134.717 E96.22583
G1 X179.82 Y131.961 E96.41833
G1 X179.829 Y131.339 E96.46178
G1 X179.83 Y121.146 E97.17372
G1 X179.82 Y120.417 E97.22465
G1 X179.82 Y117.661 E97.41714
G1 X179.829 Y117.039 E97.46059
G1 X179.83 Y106.846 E98.17253
G1 X179.82 Y106.117 E98.22346
G1 X179.82 Y103.361 E98.41595
G1 X179.829 Y102.739 E98.4594
G1 X179.83 Y92.546 E99.17135
G1 X179.82 Y91.817 E99.22227
G1 X179.82 Y89.061 E99.41476
G1 X179.829 Y88.439 E99.45821
G1 X179.83 Y78.246 E100.17016
G1 X179.82 Y77.517 E100.22108
G1 X179.82 Y74.761 E100.41358
G1 X179.83 Y74.063 E100.46233
G1 X179.829 Y65.523 E101.05882
G1 X179.781 Y63.472 E101.20211
G1 X179.781 Y60.802 E101.3886
G1 X179.806 Y59.917 E101.45044
G1 X179.83 Y58.183 E101.57157
G1 X179.829 Y51.224 E102.05763
G1 X179.781 Y49.173 E102.20092
G1 X179.781 Y46.503 E102.38741
G1 X179.806 Y45.618 E102.44925
G1 X179.829 Y43.957 E102.56528
G1 X179.83 Y41.339 E102.74813
G1 X179.713 Y40.33 E102.81908
G1 X179.544 Y39.703 E102.86444
G1 X179.299 Y39.102 E102.90977
G1 X178.982 Y38.535 E102.95514
G1 X178.597 Y38.011 E103.00056
G1 X178.152 Y37.538 E103.04592
G1 X177.651 Y37.124 E103.09131
G1 X177.104 Y36.775 E103.13663
G1 X176.517 Y36.495 E103.18206
G1 X175.901 Y36.289 E103.22742
G1 X175.264 Y36.161 E103.27281
G1 X174.617 Y36.112 E103.31813
G1 X173.843 Y36.101 E103.37219
G1 X35.407 Y36.101 E113.04143
G1 X34.403 Y36.217 E113.11202
G1 X33.776 Y36.386 E113.15738
G1 X33.174 Y36.631 E113.20278
G1 X32.607 Y36.947 E113.24812
G1 X32.083 Y37.331 E113.29349
M204 S3000
M205 X10 Y10
G1 F2400 E107.29349
;MESH:LayerSupport130.stl(7)
G0 F3000 X35.874 Y40.716
G0 X35.874 Y41.805
G0 X104.341 Y52.244
M204 S1800
M205 X8 Y8
;TYPE:WALL-INNER
G1 F2400 E113.29349
G1 F1800 X103.88 Y51.849 E113.33589
G1 X103.655 Y51.401 E113.37091
G1 X103.6 Y51.008 E113.39863
G1 X103.6 Y44.588 E113.84704
G1 X103.655 Y44.195 E113.87476
G1 X103.88 Y43.748 E113.90971
G1 X104.341 Y43.352 E113.95216
G1 F1920 X104.816 Y43.226 E113.98434
G1 F2061.3 X127.606 Y43.226 E115.37432
G1 F2069.8 X150.396 Y43.226 E116.75861
G1 F2078.4 X173.186 Y43.226 E118.13722
G1 F2082.6 X173.186 Y42.742 E118.16644
G1 F2078.4 X159.493 Y42.743 E118.99475
G1 F2065.6 X145.8 Y42.744 E119.82819
G1 F2057.1 X132.107 Y42.746 E120.66505
G1 F2048.8 X118.414 Y42.747 E121.50532
G1 F2036.4 X104.721 Y42.748 E122.35071
G1 F1909.1 X104.198 Y42.78 E122.38522
G1 F1800 X44.46 Y42.78 E126.55769
G1 F1711.4 X43.74 Y42.809 E126.61063
G1 F1615.4 X40.766 Y42.815 E126.84209
G1 F1691.3 X40.349 Y42.78 E126.8732
G1 F1800 X36.848 Y42.78 E127.11773
G1 X36.848 Y44.796 E127.25854
G1 X39.682 Y44.796 E127.45649
G1 X39.813 Y44.235 E127.49673
G1 X40.079 Y43.865 E127.52855
G1 X40.512 Y43.571 E127.56511
G1 F1702.7 X40.856 Y43.427 E127.59265
G1 F1623.2 X43.74 Y43.427 E127.81602
G1 F1711.4 X44.296 Y43.571 E127.85822
G1 F1800 X44.73 Y43.865 E127.89483
G1 X44.995 Y44.235 E127.92662
G1 X45.126 Y44.796 E127.96686
G1 X49.36 Y44.796 E128.26259
G1 X49.815 Y44.871 E128.2948
G1 X50.201 Y45.075 E128.32529
G1 X50.48 Y45.356 E128.35295
G1 X50.653 Y45.657 E128.3772
G1 X50.76 Y46.017 E128.40343
G1 X50.76 Y49.583 E128.6525
G1 X50.653 Y49.943 E128.67873
G1 X50.48 Y50.244 E128.70298
G1 X50.2 Y50.525 E128.73069
G1 X49.814 Y50.729 E128.76118
G1 X49.525 Y50.804 E128.78204
G1 X45.126 Y50.804 E129.08929
G1 X44.995 Y51.365 E129.12953
G1 X44.729 Y51.735 E129.16136
G1 X44.296 Y52.029 E129.19791
G1 F1702.7 X43.952 Y52.173 E129.22545
G1 F1623.2 X41.068 Y52.173 E129.44883
G1 F1711.4 X40.512 Y52.029 E129.49102
G1 F1800 X40.078 Y51.735 E129.52763
G1 X39.813 Y51.365 E129.55942
G1 X39.682 Y50.804 E129.59966
G1 X36.848 Y50.804 E129.7976
G1 X36.848 Y52.82 E129.93841
G1 X40.348 Y52.82 E130.18288
G1 F1711.4 X41.068 Y52.791 E130.23581
G1 F1615.4 X44.042 Y52.785 E130.46728
G1 F1691.3 X44.459 Y52.82 E130.49838
G1 F1800 X104.197 Y52.82 E134.67086
G1 F1927.3 X105 Y52.857 E134.7233
G1 F2074.1 X173.185 Y52.857 E138.85644
G1 X173.185 Y52.371 E138.8859
G1 X105 Y52.371 E143.01904
G1 F1927.3 X104.341 Y52.244 E143.06282
M204 S3000
M205 X10 Y10
G0 F3000 X104.604 Y51.75
M204 S1800
M205 X8 Y8
G1 F1800 X104.328 Y51.513 E143.08823
G1 X104.193 Y51.244 E143.10925
G1 X104.16 Y51.008 E143.1259
G1 X104.16 Y44.588 E143.57431
G1 X104.193 Y44.352 E143.59095
G1 X104.328 Y44.084 E143.61191
G1 X104.604 Y43.846 E143.63737
G1 X104.889 Y43.748 E143.65842
G1 X173.708 Y43.748 E148.46517
G1 X173.708 Y42.22 E148.57189
G1 X36.288 Y42.22 E158.17017
G1 X36.288 Y45.356 E158.38921
G1 X40.228 Y45.356 E158.6644
G1 X40.228 Y44.856 E158.69933
G1 X40.315 Y44.483 E158.72608
G1 X40.474 Y44.261 E158.74515
G1 X40.734 Y44.085 E158.76708
G1 X40.963 Y44.016 E158.78379
G1 X43.74 Y44.016 E158.97775
G1 X44.074 Y44.085 E159.00157
G1 X44.334 Y44.261 E159.0235
G1 X44.493 Y44.483 E159.04257
G1 X44.58 Y44.856 E159.06932
G1 X44.58 Y45.356 E159.10425
G1 X49.36 Y45.356 E159.43811
G1 X49.633 Y45.401 E159.45744
G1 X49.865 Y45.523 E159.47575
G1 X50.032 Y45.692 E159.49234
G1 X50.2 Y46.088 E159.52239
G1 X50.2 Y49.512 E159.76154
G1 X50.032 Y49.908 E159.79159
G1 X49.864 Y50.077 E159.80823
G1 X49.633 Y50.199 E159.82648
G1 X49.36 Y50.244 E159.8458
G1 X44.58 Y50.244 E160.17967
G1 X44.58 Y50.744 E160.21459
G1 X44.493 Y51.117 E160.24134
