;FLAVOR:Marlin
;TIME:3523
;Filament used: 3.19823m
;Layer height: 0.2
;MINX:66.919
;MINY:73.855
;MINZ:0.2
;MAXX:134.418
;MAXY:136.145
;MAXZ:13
;TARGET_MACHINE.NAME:Anycubic i3 Mega
;Generated with Cura_SteamEngine 5.10.0
M140 S60
M105
M190 S60
M104 S220
M105
M109 S220
G21 ;metric values
G90 ;absolute positioning
M82 ;set extruder to absolute mode
M107 ;start with the fan off
G28 X0 Y0 ;move X/Y to min endstops
G28 Z0 ;move Z to min endstops
G1 Z15.0 F100 ;move the platform down 15mm
G92 E0 ;zero the extruded length
G1 F200 E3 ;extrude 3mm of feed stock
G92 E0 ;zero the extruded length again
G1 F100
G0 Y20 F100
M117 Printing...
G5
M82 ;absolute extrusion mode
G92 E0
G92 E0
G1 F2400 E-6
;LAYER_COUNT:65
;LAYER:0
M107
M204 S3000
M205 X10 Y10
G1 F600 Z0.275
G0 F3000 X78.615 Y85.598 Z0.275
M204 S1800
M205 X8 Y8
;TYPE:SKIRT
G1 F600 Z0.2
G1 F2400 E0
G1 X79.41 Y84.941 E0.04802
G1 X79.822 Y84.654 E0.0714
G1 X80.74 Y84.122 E0.12081
G1 X81.288 Y83.867 E0.14895
G1 X82.169 Y83.539 E0.19273
G1 X82.694 Y83.39 E0.21814
G1 X83.79 Y83.184 E0.27007
G1 X85.342 Y83.029 E0.34269
G1 X85.516 Y83.004 E0.35088
G1 X86.854 Y82.868 E0.4135
G1 X89.426 Y82.535 E0.53427
G1 X92.123 Y82.106 E0.66143
G1 X94.665 Y81.629 E0.78186
G1 X97.256 Y81.065 E0.90533
G1 X99.777 Y80.444 E1.02623
G1 X102.407 Y79.714 E1.15333
G1 X104.934 Y78.936 E1.27644
G1 X107.418 Y78.092 E1.3986
G1 X109.915 Y77.166 E1.52261
G1 X112.365 Y76.176 E1.64566
G1 X114.69 Y75.163 E1.76375
G1 X115.752 Y74.686 E1.81796
G1 X116.707 Y74.342 E1.86522
G1 X117.602 Y74.112 E1.90825
G1 X118.31 Y73.98 E1.94179
G1 X119.111 Y73.888 E1.97933
G1 X119.805 Y73.855 E2.01168
G1 X120.572 Y73.869 E2.0474
G1 X121.48 Y73.947 E2.08984
G1 X122.666 Y74.181 E2.14613
G1 X123.317 Y74.366 E2.17764
G1 X124.015 Y74.611 E2.21209
G1 X124.653 Y74.881 E2.24435
G1 X125.367 Y75.24 E2.28156
G1 X126.139 Y75.705 E2.32353
G1 X126.618 Y76.043 E2.35082
G1 X127.216 Y76.522 E2.3865
G1 X127.73 Y76.989 E2.41884
G1 X128.241 Y77.516 E2.45302
G1 X128.766 Y78.137 E2.49088
G1 X129.273 Y78.837 E2.53113
G1 X129.572 Y79.318 E2.5575
G1 X129.905 Y79.926 E2.58978
G1 X130.204 Y80.567 E2.62272
G1 X130.697 Y81.767 E2.68313
G1 X133.737 Y89.598 E3.07428
G1 X133.993 Y90.29 E3.10864
G1 X134.223 Y91.076 E3.14677
G1 X134.373 Y91.954 E3.18825
G1 X134.392 Y93.238 E3.24804
G1 X134.407 Y115.785 E4.29793
G1 X134.418 Y117.575 E4.38128
G1 X134.371 Y118.39 E4.41929
G1 X134.294 Y118.985 E4.44723
G1 X134.092 Y119.929 E4.49218
G1 X133.903 Y120.542 E4.52205
G1 X133.544 Y121.44 E4.56708
G1 X133.296 Y121.935 E4.59286
G1 X132.645 Y123.017 E4.65166
G1 X131.84 Y123.953 E4.70915
G1 X131.345 Y124.439 E4.74145
G1 X130.631 Y125.029 E4.78458
G1 X130.144 Y125.368 E4.81221
G1 X129.262 Y125.877 E4.85962
G1 X128.712 Y126.133 E4.88787
G1 X127.831 Y126.461 E4.93165
G1 X127.306 Y126.61 E4.95706
G1 X126.21 Y126.816 E5.00899
G1 X124.658 Y126.971 E5.08161
G1 X124.484 Y126.996 E5.0898
G1 X123.146 Y127.132 E5.15242
G1 X120.574 Y127.465 E5.27319
G1 X117.877 Y127.894 E5.40035
G1 X115.335 Y128.371 E5.52078
G1 X112.744 Y128.935 E5.64425
G1 X110.227 Y129.556 E5.76497
G1 X107.593 Y130.286 E5.89224
G1 X105.066 Y131.064 E6.01536
G1 X102.582 Y131.908 E6.13752
G1 X100.085 Y132.834 E6.26153
G1 X97.635 Y133.824 E6.38457
G1 X95.316 Y134.835 E6.50237
G1 X94.286 Y135.299 E6.55497
G1 X93.292 Y135.658 E6.60419
G1 X92.399 Y135.887 E6.64711
G1 X91.693 Y136.019 E6.68056
G1 X90.89 Y136.112 E6.7182
G1 X90.197 Y136.145 E6.7505
G1 X89.508 Y136.135 E6.78259
G1 X88.818 Y136.081 E6.81482
G1 X88.202 Y136.005 E6.84372
G1 X87.264 Y135.804 E6.88839
G1 X86.491 Y135.577 E6.9259
G1 X85.926 Y135.369 E6.95394
G1 X85.268 Y135.082 E6.98736
G1 X84.584 Y134.733 E7.02312
G1 X83.92 Y134.333 E7.05921
G1 X83.325 Y133.913 E7.09313
G1 X82.782 Y133.477 E7.12555
G1 X82.267 Y133.009 E7.15796
G1 X81.778 Y132.504 E7.19069
G1 X81.231 Y131.857 E7.23014
G1 X80.731 Y131.167 E7.26982
G1 X80.357 Y130.563 E7.3029
G1 X80.005 Y129.9 E7.33785
G1 X79.576 Y128.945 E7.3866
G1 X79.075 Y127.77 E7.44608
G1 X77.977 Y125.387 E7.56825
G1 X76.798 Y123.005 E7.69201
G1 X75.545 Y120.644 E7.81647
G1 X74.243 Y118.35 E7.9393
G1 X72.893 Y116.123 E8.06056
G1 X71.439 Y113.867 E8.18554
G1 X69.941 Y111.683 E8.30886
G1 X68.608 Y109.836 E8.41492
G1 X68.154 Y109.105 E8.45499
G1 X67.762 Y108.244 E8.49904
G1 X67.335 Y106.83 E8.56782
G1 X67.149 Y106.158 E8.60029
G1 X66.979 Y105.318 E8.64019
G1 X66.919 Y104.534 E8.67681
G1 X66.953 Y103.806 E8.71074
G1 X67.14 Y102.786 E8.75903
G1 X67.43 Y101.737 E8.80971
G1 X67.676 Y100.931 E8.84895
G1 X67.986 Y100.126 E8.88912
G1 X68.366 Y99.423 E8.92633
G1 X68.88 Y98.707 E8.96737
G1 X69.372 Y98.117 E9.00314
G1 X71.034 Y96.064 E9.12613
G1 X72.629 Y93.973 E9.24859
G1 X74.186 Y91.809 E9.37273
G1 X75.69 Y89.589 E9.49759
G1 X77.082 Y87.413 E9.61787
G1 X77.625 Y86.663 E9.66099
G1 X78.219 Y85.985 E9.70296
G1 X78.615 Y85.598 E9.72874
M204 S3000
M205 X10 Y10
G0 F3000 X78.973 Y86.029
M204 S1800
M205 X8 Y8
G1 F2400 X79.73 Y85.401 E9.77454
G1 X80.142 Y85.114 E9.79792
G1 X80.978 Y84.629 E9.84293
G1 X81.483 Y84.392 E9.8689
G1 X82.364 Y84.064 E9.91268
G1 X82.845 Y83.929 E9.93594
G1 X83.846 Y83.741 E9.98337
G1 X85.422 Y83.584 E10.05711
G1 X85.573 Y83.561 E10.06423
G1 X86.911 Y83.425 E10.12685
G1 X89.514 Y83.088 E10.24907
G1 X92.211 Y82.659 E10.37623
G1 X94.784 Y82.176 E10.49813
G1 X97.39 Y81.609 E10.62232
G1 X99.925 Y80.984 E10.74389
G1 X102.557 Y80.254 E10.87108
G1 X105.099 Y79.471 E10.99493
G1 X107.613 Y78.617 E11.11856
G1 X110.11 Y77.691 E11.24257
G1 X112.575 Y76.695 E11.36637
G1 X114.914 Y75.676 E11.48517
G1 X115.943 Y75.212 E11.53773
G1 X116.847 Y74.884 E11.58251
G1 X117.706 Y74.662 E11.62382
G1 X118.375 Y74.536 E11.65552
G1 X119.138 Y74.447 E11.69129
G1 X119.796 Y74.415 E11.72197
G1 X120.524 Y74.427 E11.75587
G1 X121.432 Y74.505 E11.79831
G1 X122.513 Y74.72 E11.84963
G1 X123.164 Y74.905 E11.88114
G1 X123.797 Y75.127 E11.91238
G1 X124.435 Y75.397 E11.94463
G1 X125.115 Y75.74 E11.9801
G1 X125.816 Y76.163 E12.01822
G1 X126.295 Y76.501 E12.04552
G1 X126.84 Y76.937 E12.07802
G1 X127.328 Y77.379 E12.10868
G1 X127.839 Y77.906 E12.14286
G1 X128.313 Y78.466 E12.17702
G1 X128.797 Y79.133 E12.2154
G1 X129.096 Y79.614 E12.24177
G1 X129.397 Y80.163 E12.27092
G1 X129.696 Y80.804 E12.30386
G1 X130.175 Y81.97 E12.36255
G1 X133.212 Y89.793 E12.75331
G1 X133.456 Y90.45 E12.78595
G1 X133.671 Y91.171 E12.82098
G1 X133.814 Y92.006 E12.86043
G1 X133.832 Y93.238 E12.9178
G1 X133.847 Y115.785 E13.96768
G1 X133.858 Y117.578 E14.05117
G1 X133.815 Y118.32 E14.08578
G1 X133.746 Y118.868 E14.1115
G1 X133.544 Y119.812 E14.15645
G1 X133.383 Y120.335 E14.18193
G1 X133.042 Y121.191 E14.22484
G1 X132.816 Y121.646 E14.2485
G1 X132.189 Y122.688 E14.30512
G1 X131.415 Y123.588 E14.3604
G1 X130.987 Y124.008 E14.38832
G1 X130.311 Y124.569 E14.42922
G1 X129.824 Y124.908 E14.45685
G1 X129.024 Y125.37 E14.49987
G1 X128.517 Y125.608 E14.52595
G1 X127.636 Y125.936 E14.56972
G1 X127.155 Y126.071 E14.59299
G1 X126.154 Y126.259 E14.64041
G1 X124.578 Y126.416 E14.71416
G1 X124.427 Y126.439 E14.72127
G1 X123.089 Y126.575 E14.7839
G1 X120.486 Y126.912 E14.90611
G1 X117.789 Y127.341 E15.03328
G1 X115.216 Y127.824 E15.15518
G1 X112.61 Y128.391 E15.27936
G1 X110.077 Y129.016 E15.40085
G1 X107.443 Y129.746 E15.52812
G1 X104.901 Y130.529 E15.65198
G1 X102.387 Y131.383 E15.77561
G1 X99.89 Y132.309 E15.89962
G1 X97.425 Y133.305 E16.02341
G1 X95.086 Y134.324 E16.14221
G1 X94.056 Y134.788 E16.19482
G1 X93.152 Y135.116 E16.2396
G1 X92.295 Y135.337 E16.28081
G1 X91.628 Y135.463 E16.31242
G1 X90.863 Y135.553 E16.34828
G1 X90.205 Y135.585 E16.37896
G1 X89.516 Y135.575 E16.41104
G1 X88.887 Y135.525 E16.44043
G1 X88.271 Y135.449 E16.46933
G1 X87.421 Y135.266 E16.50981
G1 X86.684 Y135.051 E16.54556
G1 X86.119 Y134.843 E16.5736
G1 X85.522 Y134.583 E16.60392
G1 X84.873 Y134.253 E16.63782
G1 X84.209 Y133.853 E16.67391
G1 X83.675 Y133.476 E16.70435
G1 X83.158 Y133.062 E16.73519
G1 X82.669 Y132.619 E16.76592
G1 X82.18 Y132.114 E16.79865
G1 X81.684 Y131.528 E16.8344
G1 X81.207 Y130.872 E16.87217
G1 X80.852 Y130.3 E16.90351
G1 X80.5 Y129.637 E16.93847
G1 X80.091 Y128.725 E16.98501
G1 X79.59 Y127.55 E17.04449
G1 X78.486 Y125.153 E17.16737
G1 X77.3 Y122.757 E17.29186
G1 X76.04 Y120.382 E17.41705
G1 X74.73 Y118.074 E17.54062
G1 X73.372 Y115.833 E17.66264
G1 X71.901 Y113.55 E17.7891
G1 X70.403 Y111.366 E17.91242
G1 X69.062 Y109.508 E18.01912
G1 X68.662 Y108.87 E18.05418
G1 X68.298 Y108.082 E18.0946
G1 X67.875 Y106.681 E18.16274
G1 X67.689 Y106.009 E18.19521
G1 X67.537 Y105.273 E18.2302
G1 X67.479 Y104.556 E18.2637
G1 X67.504 Y103.907 E18.29394
G1 X67.691 Y102.887 E18.34223
G1 X67.966 Y101.9 E18.38994
G1 X68.212 Y101.094 E18.42918
G1 X68.48 Y100.389 E18.4643
G1 X68.821 Y99.749 E18.49807
G1 X69.31 Y99.066 E18.53718
G1 X69.802 Y98.476 E18.57295
G1 X71.479 Y96.404 E18.69707
G1 X73.084 Y94.3 E18.8203
G1 X74.641 Y92.136 E18.94443
G1 X76.154 Y89.903 E19.07003
G1 X77.554 Y87.715 E19.19098
G1 X78.047 Y87.031 E19.23025
G1 X78.612 Y86.384 E19.27024
G1 X78.973 Y86.029 E19.29382
M204 S3000
M205 X10 Y10
G0 F3000 X79.366 Y86.428
M204 S1800
M205 X8 Y8
G1 F2400 X80.05 Y85.861 E19.33519
G1 X80.462 Y85.574 E19.35857
G1 X81.218 Y85.135 E19.39928
G1 X81.68 Y84.916 E19.42308
G1 X82.515 Y84.603 E19.46461
G1 X82.996 Y84.468 E19.48787
G1 X83.901 Y84.298 E19.53075
G1 X85.498 Y84.139 E19.60548
G1 X85.63 Y84.118 E19.6117
G1 X86.968 Y83.982 E19.67432
G1 X89.602 Y83.641 E19.798
G1 X92.299 Y83.212 E19.92516
G1 X94.903 Y82.723 E20.04853
G1 X97.524 Y82.153 E20.17343
G1 X100.073 Y81.524 E20.29568
G1 X102.707 Y80.794 E20.42296
G1 X105.264 Y80.006 E20.54755
G1 X107.808 Y79.142 E20.67265
G1 X110.305 Y78.216 E20.79666
G1 X112.785 Y77.214 E20.92121
G1 X115.138 Y76.189 E21.04072
G1 X116.136 Y75.738 E21.09171
G1 X116.988 Y75.426 E21.13396
G1 X117.811 Y75.212 E21.17356
G1 X118.441 Y75.092 E21.20342
G1 X119.166 Y75.006 E21.23742
G1 X119.788 Y74.975 E21.26642
G1 X120.478 Y74.985 E21.29855
G1 X121.323 Y75.054 E21.33803
G1 X122.361 Y75.259 E21.3873
G1 X122.98 Y75.434 E21.41725
G1 X123.579 Y75.643 E21.44679
G1 X124.217 Y75.913 E21.47905
G1 X124.826 Y76.22 E21.5108
G1 X125.493 Y76.621 E21.54704
G1 X125.972 Y76.959 E21.57434
G1 X126.465 Y77.353 E21.60373
G1 X126.926 Y77.769 E21.63264
G1 X127.412 Y78.269 E21.66511
G1 X127.86 Y78.796 E21.69732
G1 X128.321 Y79.429 E21.73378
G1 X128.62 Y79.91 E21.76015
G1 X128.89 Y80.4 E21.7862
G1 X129.178 Y81.017 E21.81791
G1 X129.653 Y82.173 E21.87611
G1 X132.687 Y89.988 E22.26647
G1 X132.931 Y90.645 E22.2991
G1 X133.119 Y91.266 E22.32931
G1 X133.255 Y92.058 E22.36673
G1 X133.272 Y93.238 E22.42168
G1 X133.287 Y115.785 E23.47157
G1 X133.298 Y117.581 E23.5552
G1 X133.259 Y118.252 E23.58649
G1 X133.198 Y118.752 E23.60995
G1 X133.008 Y119.649 E23.65264
G1 X132.862 Y120.129 E23.67601
G1 X132.54 Y120.942 E23.71672
G1 X132.314 Y121.397 E23.74038
G1 X131.736 Y122.355 E23.79248
G1 X130.99 Y123.223 E23.84577
G1 X130.629 Y123.577 E23.86932
G1 X129.953 Y124.138 E23.91022
G1 X129.543 Y124.424 E23.9335
G1 X128.784 Y124.864 E23.97435
G1 X128.32 Y125.084 E23.99826
G1 X127.485 Y125.397 E24.03978
G1 X127.004 Y125.532 E24.06305
G1 X126.099 Y125.702 E24.10592
G1 X124.502 Y125.861 E24.18065
G1 X124.37 Y125.882 E24.18688
G1 X123.032 Y126.018 E24.2495
G1 X120.398 Y126.359 E24.37318
G1 X117.701 Y126.788 E24.50034
G1 X115.097 Y127.277 E24.62371
G1 X112.476 Y127.847 E24.74861
G1 X109.927 Y128.476 E24.87086
G1 X107.293 Y129.206 E24.99813
G1 X104.736 Y129.994 E25.12272
G1 X102.192 Y130.858 E25.24783
G1 X99.695 Y131.784 E25.37184
G1 X97.215 Y132.786 E25.49639
G1 X94.862 Y133.811 E25.6159
G1 X93.864 Y134.262 E25.66689
G1 X93.011 Y134.574 E25.70918
G1 X92.19 Y134.787 E25.74868
G1 X91.561 Y134.907 E25.7785
G1 X90.835 Y134.994 E25.81254
G1 X90.213 Y135.025 E25.84154
G1 X89.524 Y135.015 E25.87363
G1 X88.956 Y134.969 E25.90016
G1 X88.34 Y134.893 E25.92907
G1 X87.577 Y134.728 E25.96542
G1 X86.877 Y134.525 E25.99935
G1 X86.342 Y134.329 E26.02588
G1 X85.775 Y134.083 E26.05466
G1 X85.162 Y133.773 E26.08665
G1 X84.498 Y133.373 E26.12275
G1 X84.024 Y133.038 E26.14977
G1 X83.533 Y132.646 E26.17903
G1 X83.071 Y132.229 E26.20801
G1 X82.582 Y131.724 E26.24074
G1 X82.136 Y131.198 E26.27285
G1 X81.682 Y130.576 E26.30871
G1 X81.346 Y130.037 E26.33829
G1 X81.011 Y129.408 E26.37147
G1 X80.606 Y128.505 E26.41755
G1 X80.105 Y127.33 E26.47703
G1 X78.995 Y124.919 E26.60062
G1 X77.802 Y122.509 E26.72584
G1 X76.535 Y120.12 E26.85176
G1 X75.217 Y117.798 E26.97608
G1 X73.851 Y115.543 E27.09885
G1 X72.363 Y113.233 E27.2268
G1 X70.865 Y111.049 E27.35012
G1 X69.516 Y109.18 E27.45745
G1 X69.169 Y108.631 E27.48769
G1 X68.834 Y107.92 E27.52429
G1 X68.415 Y106.532 E27.5918
G1 X68.229 Y105.86 E27.62427
G1 X68.095 Y105.225 E27.65448
G1 X68.039 Y104.578 E27.68472
G1 X68.064 Y103.929 E27.71497
G1 X68.231 Y103.037 E27.75722
G1 X68.502 Y102.063 E27.8043
G1 X68.748 Y101.257 E27.84354
G1 X68.976 Y100.649 E27.87378
G1 X69.277 Y100.074 E27.904
G1 X69.74 Y99.425 E27.94112
G1 X70.232 Y98.835 E27.97689
G1 X71.924 Y96.744 E28.10214
G1 X73.539 Y94.627 E28.22613
G1 X75.096 Y92.463 E28.35026
G1 X76.618 Y90.217 E28.4766
G1 X78.026 Y88.017 E28.59822
G1 X78.469 Y87.399 E28.63363
G1 X79.005 Y86.783 E28.67165
G1 X79.366 Y86.428 E28.69523
M204 S3000
M205 X10 Y10
G1 F2400 E22.69523
G0 F3000 X75.171 Y101.746
M204 S1800
M205 X8 Y8
G1 F2400 E28.69523
G1 X76.738 Y101.306 E28.77101
G1 X78.305 Y101.746 E28.8468
G1 X79.439 Y102.944 E28.92361
G1 X79.879 Y104.45 E28.99667
G1 X79.441 Y106.015 E29.07234
G1 X78.305 Y107.151 E29.14715
G1 X76.741 Y107.588 E29.22277
G1 X75.238 Y107.149 E29.29568
G1 X74.037 Y105.948 E29.37477
G1 X73.598 Y104.448 E29.44754
G1 X74.038 Y102.944 E29.52051
G1 X75.171 Y101.746 E29.59729
M204 S3000
M205 X10 Y10
G0 F3000 X75.472 Y102.243
M204 S1800
M205 X8 Y8
G1 F2400 X76.738 Y101.888 E29.65851
G1 X78.004 Y102.243 E29.71974
G1 X78.94 Y103.232 E29.78314
G1 X79.297 Y104.453 E29.84238
G1 X78.941 Y105.723 E29.9038
G1 X78.013 Y106.651 E29.96491
G1 X76.744 Y107.006 E30.02626
G1 X75.533 Y106.652 E30.08501
G1 X74.534 Y105.653 E30.1508
G1 X74.181 Y104.448 E30.20927
G1 X74.536 Y103.232 E30.26825
G1 X75.472 Y102.243 E30.33166
M204 S3000
M205 X10 Y10
G0 F3000 X75.774 Y102.74
M204 S1800
M205 X8 Y8
G1 F2400 X76.738 Y102.469 E30.37829
G1 X77.702 Y102.74 E30.42492
G1 X78.44 Y103.519 E30.47488
G1 X78.714 Y104.458 E30.52043
G1 X78.442 Y105.43 E30.56743
G1 X77.72 Y106.152 E30.61497
G1 X76.749 Y106.424 E30.66193
G1 X75.827 Y106.154 E30.70666
G1 X75.031 Y105.358 E30.75908
G1 X74.765 Y104.448 E30.80323
G1 X75.037 Y103.518 E30.84835
G1 X75.774 Y102.74 E30.89825
M204 S3000
M205 X10 Y10
G0 F3000 X76.032 Y103.162
M204 S1800
M205 X8 Y8
;TYPE:SUPPORT
G1 F2100 X76.736 Y102.964 E30.92257
G1 X77.44 Y103.162 E30.94689
G1 X78.009 Y103.766 E30.97449
G1 X78.212 Y104.462 E30.99861
G1 X78.013 Y105.175 E31.02323
G1 X77.467 Y105.721 E31.04891
G1 X76.75 Y105.923 E31.07369
G1 X76.082 Y105.726 E31.09685
G1 X75.454 Y105.102 E31.1263
G1 X75.265 Y104.449 E31.14891
G1 X75.463 Y103.767 E31.17253
G1 X76.032 Y103.162 E31.20015
M204 S3000
M205 X10 Y10
G1 F2400 E25.20015
;MESH:Charger_module_base.stl
G0 F3000 X81.335 Y103.16
G0 X82.41 Y103.159
G0 X86.772 Y125.547
M204 S1800
M205 X8 Y8
;TYPE:WALL-INNER
G1 F2400 E31.20015
G1 F1038.3 X86.868 Y125.867 E31.22262
G1 F1095.2 X87.067 Y126.375 E31.25742
G1 F1114.1 X87.401 Y126.94 E31.29857
G1 F1108.2 X88.004 Y127.561 E31.35312
G1 F1103.8 X88.361 Y127.803 E31.38042
G1 F1106.7 X89.164 Y128.144 E31.43547
G1 F1109.6 X90 Y128.253 E31.48854
G1 F1106.7 X90.448 Y128.227 E31.51686
G1 F1108.2 X91.283 Y127.997 E31.57145
G1 F1102.4 X91.665 Y127.8 E31.59868
G1 F1096.6 X92.019 Y127.556 E31.62607
G1 F1105.3 X92.343 Y127.268 E31.65346
G1 F1108.2 X92.852 Y126.578 E31.7075
G1 F1106.7 X93.072 Y126.104 E31.74048
G1 F1056.6 X93.255 Y125.523 E31.78075
M204 S3000
M205 X10 Y10
G0 F3000 X93.117 Y124.501
M204 S1800
M205 X8 Y8
G1 F1443.3 X93.174 Y125.196 E31.8145
G1 F1169.9 X93.255 Y125.523 E31.83461
G1 F1186.4 X93.524 Y125.205 E31.85913
G1 F1473.7 X96.46 Y117.614 E32.24488
G1 F1500 X96.729 Y117.122 E32.27099
G1 X97.065 Y116.739 E32.29472
G1 X97.635 Y116.347 E32.32693
G1 X98.05 Y116.19 E32.34759
G1 X98.588 Y116.106 E32.37295
