;FLAVOR:Marlin
;TIME:7829
;Filament used: 14.8528m
;Layer height: 0.3
;MINX:37.881
;MINY:34.98
;MINZ:0.3
;MAXX:172.119
;MAXY:160.72
;MAXZ:6.3
;TARGET_MACHINE.NAME:Anycubic i3 Mega
;Generated with Cura_SteamEngine 5.10.0
M140 S60
M105
M190 S60
M104 S220
M105
M109 S220
G21 ;metric values
G90 ;absolute positioning
M82 ;set extruder to absolute mode
M107 ;start with the fan off
G28 X0 Y0 ;move X/Y to min endstops
G28 Z0 ;move Z to min endstops
G1 Z15.0 F100 ;move the platform down 15mm
G92 E0 ;zero the extruded length
G1 F200 E3 ;extrude 3mm of feed stock
G92 E0 ;zero the extruded length again
G1 F100
G0 Y20 F100
M117 Printing...
G5
M82 ;absolute extrusion mode
G92 E0
G92 E0
G1 F2400 E-6
;LAYER_COUNT:21
;LAYER:0
M107
M204 S3000
M205 X10 Y10
G1 F600 Z0.375
G0 F3000 X65.995 Y40.487 Z0.375
M204 S1800
M205 X8 Y8
;TYPE:SKIRT
G1 F600 Z0.3
G1 F2400 E0
G1 X67.429 Y38.082 E0.19557
G1 X67.856 Y37.463 E0.2481
G1 X68.423 Y36.825 E0.30771
G1 X68.909 Y36.394 E0.35309
G1 X69.67 Y35.87 E0.41762
G1 X70.307 Y35.543 E0.46763
G1 X71.049 Y35.268 E0.5229
G1 X71.893 Y35.074 E0.58339
G1 X72.872 Y34.98 E0.65209
G1 X136.409 Y34.98 E5.08991
G1 X137.185 Y34.991 E5.14411
G1 X137.972 Y35.053 E5.19925
G1 X138.812 Y35.227 E5.25917
G1 X139.552 Y35.482 E5.31384
G1 X140.138 Y35.761 E5.35917
G1 X140.86 Y36.218 E5.41885
G1 X141.469 Y36.723 E5.47411
G1 X142.065 Y37.364 E5.53525
G1 X142.599 Y38.124 E5.60012
G1 X143.36 Y39.408 E5.70437
G1 X144.795 Y41.733 E5.89521
G1 X146.215 Y43.901 E6.07622
G1 X147.76 Y46.114 E6.26474
G1 X149.31 Y48.209 E6.44676
G1 X150.968 Y50.321 E6.6343
G1 X152.629 Y52.317 E6.81567
G1 X154.376 Y54.298 E7.00015
G1 X156.222 Y56.279 E7.18928
G1 X158.082 Y58.164 E7.37425
G1 X159.971 Y59.973 E7.55693
G1 X161.915 Y61.732 E7.74005
G1 X163.949 Y63.47 E7.92691
G1 X166.019 Y65.139 E8.11264
G1 X168.132 Y66.748 E8.29814
G1 X169.543 Y67.783 E8.42036
G1 X170.043 Y68.198 E8.46575
G1 X170.63 Y68.818 E8.52538
G1 X171.096 Y69.456 E8.58057
G1 X171.51 Y70.209 E8.64059
G1 X171.798 Y70.943 E8.69566
G1 X171.995 Y71.727 E8.75212
G1 X172.119 Y72.855 E8.83138
G1 X172.119 Y136.452 E13.27339
G1 X172.109 Y137.181 E13.32432
G1 X172.047 Y137.968 E13.37946
G1 X171.873 Y138.809 E13.43944
G1 X171.618 Y139.546 E13.49391
G1 X171.307 Y140.191 E13.54393
G1 X170.883 Y140.857 E13.59907
G1 X170.428 Y141.413 E13.64925
G1 X169.752 Y142.051 E13.71418
G1 X169.112 Y142.511 E13.76923
G1 X168.346 Y142.93 E13.83021
G1 X166.056 Y143.86 E14.00284
G1 X163.615 Y144.924 E14.18883
G1 X161.243 Y146.04 E14.37193
G1 X158.826 Y147.261 E14.56106
G1 X156.506 Y148.516 E14.7453
G1 X154.243 Y149.825 E14.9279
G1 X151.979 Y151.221 E15.11368
G1 X149.79 Y152.658 E15.29657
G1 X147.573 Y154.206 E15.48543
G1 X145.461 Y155.768 E15.66891
G1 X143.369 Y157.412 E15.85475
G1 X141.136 Y159.271 E16.05769
G1 X140.557 Y159.69 E16.10761
G1 X139.871 Y160.074 E16.16252
G1 X139.143 Y160.372 E16.21746
G1 X138.45 Y160.564 E16.26769
G1 X137.154 Y160.72 E16.35886
G1 X73.516 Y160.719 E20.80374
G1 X72.813 Y160.709 E20.85285
G1 X72.026 Y160.647 E20.90799
G1 X71.186 Y160.473 E20.9679
G1 X70.446 Y160.218 E21.02257
G1 X69.86 Y159.939 E21.0679
G1 X68.996 Y159.385 E21.13959
G1 X67.624 Y158.236 E21.26459
G1 X65.524 Y156.538 E21.45321
G1 X63.426 Y154.941 E21.63737
G1 X61.27 Y153.392 E21.8228
G1 X59.104 Y151.929 E22.00536
G1 X56.834 Y150.485 E22.19327
G1 X54.554 Y149.124 E22.37874
G1 X52.27 Y147.847 E22.56151
G1 X49.917 Y146.619 E22.74689
G1 X47.528 Y145.456 E22.93248
G1 X45.14 Y144.375 E23.11556
G1 X42.602 Y143.312 E23.30775
G1 X41.872 Y143.018 E23.36272
G1 X41.137 Y142.66 E23.41982
G1 X40.589 Y142.312 E23.46517
G1 X39.874 Y141.723 E23.52987
G1 X39.385 Y141.201 E23.57983
G1 X38.956 Y140.625 E23.62999
G1 X38.502 Y139.818 E23.69466
G1 X38.232 Y139.149 E23.74505
G1 X38.024 Y138.376 E23.80097
G1 X37.881 Y137.146 E23.88745
G1 X37.882 Y73.516 E28.33177
G1 X37.892 Y72.815 E28.38074
G1 X37.954 Y72.028 E28.43588
G1 X38.128 Y71.188 E28.4958
G1 X38.383 Y70.448 E28.55047
G1 X38.662 Y69.862 E28.5958
G1 X39.121 Y69.137 E28.65573
G1 X39.694 Y68.458 E28.71779
G1 X40.412 Y67.82 E28.78488
G1 X43.031 Y65.883 E29.0124
G1 X45.098 Y64.257 E29.19609
G1 X47.147 Y62.553 E29.38222
G1 X49.121 Y60.812 E29.56606
G1 X51.086 Y58.98 E29.75371
G1 X52.943 Y57.149 E29.93586
G1 X54.797 Y55.211 E30.12319
G1 X56.543 Y53.28 E30.30502
G1 X58.276 Y51.252 E30.49134
G1 X59.957 Y49.168 E30.67835
G1 X61.557 Y47.064 E30.86297
G1 X63.08 Y44.94 E31.04552
G1 X64.555 Y42.755 E31.22966
G1 X65.995 Y40.487 E31.4173
M204 S3000
M205 X10 Y10
G0 F3000 X66.468 Y40.787
M204 S1800
M205 X8 Y8
G1 F2400 X67.89 Y38.4 E31.61137
G1 X68.317 Y37.781 E31.66389
G1 X68.795 Y37.244 E31.7141
G1 X69.281 Y36.813 E31.75947
G1 X69.929 Y36.367 E31.81442
G1 X70.505 Y36.067 E31.85978
G1 X71.178 Y35.813 E31.91002
G1 X71.948 Y35.631 E31.96529
G1 X72.872 Y35.54 E32.03014
G1 X136.401 Y35.54 E36.4674
G1 X137.177 Y35.551 E36.52161
G1 X137.927 Y35.611 E36.57416
G1 X138.632 Y35.757 E36.62445
G1 X139.311 Y35.988 E36.67454
G1 X139.897 Y36.267 E36.71987
G1 X140.505 Y36.651 E36.7701
G1 X141.061 Y37.106 E36.82028
G1 X141.607 Y37.687 E36.87597
G1 X142.117 Y38.41 E36.93777
G1 X142.883 Y39.702 E37.04268
G1 X144.318 Y42.027 E37.23351
G1 X145.756 Y44.222 E37.41679
G1 X147.301 Y46.435 E37.60531
G1 X148.87 Y48.555 E37.78952
G1 X150.528 Y50.667 E37.97706
G1 X152.209 Y52.687 E38.16062
G1 X153.966 Y54.68 E38.34619
G1 X155.812 Y56.661 E38.53532
G1 X157.683 Y58.557 E38.72137
G1 X159.595 Y60.388 E38.90628
G1 X161.551 Y62.158 E39.09053
G1 X163.585 Y63.896 E39.27739
G1 X165.68 Y65.585 E39.46535
G1 X167.801 Y67.2 E39.65156
G1 X169.185 Y68.214 E39.77139
G1 X169.685 Y68.629 E39.81678
G1 X170.18 Y69.151 E39.86702
G1 X170.607 Y69.728 E39.91716
G1 X170.99 Y70.416 E39.97216
G1 X171.256 Y71.083 E40.02231
G1 X171.439 Y71.79 E40.07332
G1 X171.559 Y72.855 E40.14818
G1 X171.559 Y136.444 E44.58963
G1 X171.549 Y137.173 E44.64056
G1 X171.489 Y137.923 E44.69311
G1 X171.343 Y138.628 E44.7434
G1 X171.112 Y139.306 E44.79343
G1 X170.833 Y139.893 E44.83882
G1 X170.45 Y140.502 E44.88907
G1 X169.995 Y141.058 E44.93925
G1 X169.423 Y141.598 E44.99419
G1 X168.841 Y142.021 E45.04445
G1 X168.135 Y142.411 E45.10078
G1 X165.845 Y143.341 E45.27342
G1 X163.377 Y144.417 E45.46147
G1 X160.99 Y145.54 E45.64572
G1 X158.573 Y146.761 E45.83486
G1 X156.24 Y148.023 E46.02012
G1 X153.949 Y149.348 E46.20497
G1 X151.685 Y150.744 E46.39075
G1 X149.469 Y152.199 E46.57591
G1 X147.252 Y153.747 E46.76477
G1 X145.128 Y155.318 E46.9493
G1 X143.023 Y156.972 E47.13628
G1 X140.805 Y158.819 E47.33788
G1 X140.281 Y159.203 E47.38326
G1 X139.656 Y159.557 E47.43343
G1 X138.993 Y159.832 E47.48356
G1 X138.3 Y160.024 E47.53379
G1 X137.154 Y160.16 E47.61439
G1 X73.524 Y160.159 E52.05871
G1 X72.821 Y160.149 E52.10782
G1 X72.071 Y160.089 E52.16037
G1 X71.366 Y159.943 E52.21066
G1 X70.687 Y159.712 E52.26075
G1 X70.101 Y159.433 E52.30608
G1 X69.356 Y158.956 E52.36787
G1 X67.976 Y157.8 E52.49361
G1 X65.876 Y156.103 E52.68219
G1 X63.753 Y154.486 E52.86859
G1 X61.597 Y152.937 E53.05401
G1 X59.405 Y151.456 E53.23878
G1 X57.135 Y150.012 E53.4267
G1 X54.841 Y148.643 E53.61329
G1 X52.543 Y147.358 E53.79718
G1 X50.162 Y146.115 E53.98479
G1 X47.773 Y144.952 E54.17037
G1 X45.356 Y143.858 E54.35568
G1 X42.818 Y142.795 E54.54787
G1 X42.115 Y142.513 E54.60077
G1 X41.437 Y142.187 E54.65332
G1 X40.889 Y141.839 E54.69866
G1 X40.281 Y141.338 E54.75369
G1 X39.834 Y140.866 E54.79909
G1 X39.405 Y140.29 E54.84925
G1 X39.02 Y139.605 E54.90414
G1 X38.773 Y139.003 E54.94959
G1 X38.565 Y138.23 E55.0055
G1 X38.441 Y137.146 E55.08171
G1 X38.442 Y73.524 E59.52547
G1 X38.452 Y72.823 E59.57443
G1 X38.512 Y72.073 E59.62699
G1 X38.658 Y71.368 E59.67727
G1 X38.889 Y70.689 E59.72737
G1 X39.168 Y70.103 E59.7727
G1 X39.552 Y69.495 E59.82293
G1 X40.066 Y68.877 E59.87907
G1 X40.784 Y68.239 E59.94616
G1 X43.364 Y66.333 E60.1702
G1 X45.456 Y64.688 E60.35608
G1 X47.505 Y62.984 E60.54222
G1 X49.503 Y61.222 E60.72829
G1 X51.468 Y59.39 E60.91593
G1 X53.345 Y57.539 E61.10006
G1 X55.202 Y55.598 E61.28768
G1 X56.969 Y53.644 E61.47169
G1 X58.702 Y51.616 E61.65801
G1 X60.393 Y49.52 E61.84611
G1 X62.003 Y47.403 E62.03188
G1 X63.535 Y45.266 E62.21554
G1 X65.028 Y43.055 E62.40188
G1 X66.468 Y40.787 E62.58952
M204 S3000
M205 X10 Y10
G0 F3000 X66.941 Y41.087
M204 S1800
M205 X8 Y8
G1 F2400 X68.371 Y38.687 E62.78465
G1 X68.737 Y38.151 E62.82999
G1 X69.167 Y37.663 E62.87542
G1 X69.653 Y37.232 E62.92079
G1 X70.188 Y36.864 E62.96614
G1 X70.764 Y36.564 E63.0115
G1 X71.373 Y36.338 E63.05687
G1 X72.005 Y36.188 E63.10224
G1 X72.872 Y36.1 E63.16311
G1 X136.393 Y36.1 E67.59982
G1 X137.169 Y36.111 E67.65402
G1 X137.817 Y36.16 E67.69941
G1 X138.454 Y36.288 E67.74479
G1 X139.07 Y36.494 E67.79016
G1 X139.656 Y36.773 E67.83549
G1 X140.204 Y37.123 E67.88091
G1 X140.704 Y37.537 E67.92625
G1 X141.15 Y38.01 E67.97166
G1 X141.635 Y38.696 E68.03034
G1 X142.406 Y39.996 E68.13591
G1 X143.841 Y42.321 E68.32674
G1 X145.297 Y44.543 E68.51229
G1 X146.842 Y46.756 E68.7008
G1 X148.43 Y48.901 E68.88721
G1 X150.088 Y51.013 E69.07475
G1 X151.789 Y53.057 E69.26049
G1 X153.556 Y55.062 E69.44715
G1 X155.402 Y57.043 E69.63628
G1 X157.284 Y58.95 E69.82342
G1 X159.219 Y60.803 E70.01055
G1 X161.187 Y62.584 E70.19594
G1 X163.233 Y64.332 E70.38389
G1 X165.33 Y66.023 E70.57205
G1 X167.47 Y67.652 E70.7599
G1 X168.827 Y68.645 E70.87735
G1 X169.327 Y69.06 E70.92273
G1 X169.772 Y69.534 E70.96814
G1 X170.155 Y70.058 E71.01348
G1 X170.471 Y70.626 E71.05888
G1 X170.715 Y71.228 E71.10425
G1 X170.883 Y71.855 E71.14958
G1 X170.999 Y72.855 E71.2199
G1 X170.999 Y136.436 E75.66079
G1 X170.989 Y137.165 E75.71172
G1 X170.94 Y137.813 E75.75711
G1 X170.812 Y138.45 E75.80249
G1 X170.606 Y139.066 E75.84786
G1 X170.327 Y139.653 E75.89325
G1 X169.978 Y140.201 E75.93863
G1 X169.564 Y140.701 E75.98397
G1 X169.091 Y141.147 E76.02938
G1 X168.568 Y141.532 E76.07474
G1 X167.924 Y141.892 E76.12627
G1 X165.634 Y142.822 E76.29891
G1 X163.139 Y143.91 E76.48902
G1 X160.737 Y145.04 E76.67443
G1 X158.32 Y146.261 E76.86357
G1 X155.974 Y147.53 E77.04986
G1 X153.655 Y148.871 E77.23697
G1 X151.391 Y150.267 E77.42274
G1 X149.148 Y151.74 E77.61017
G1 X146.931 Y153.288 E77.79903
G1 X144.795 Y154.868 E77.9846
G1 X142.677 Y156.532 E78.17273
G1 X140.474 Y158.367 E78.37299
G1 X139.95 Y158.751 E78.41837
G1 X139.383 Y159.068 E78.46374
G1 X138.782 Y159.313 E78.50907
G1 X138.154 Y159.483 E78.55451
G1 X137.154 Y159.6 E78.62484
G1 X73.532 Y159.599 E83.0686
G1 X72.829 Y159.589 E83.1177
G1 X72.181 Y159.54 E83.16309
G1 X71.544 Y159.412 E83.20847
G1 X70.928 Y159.206 E83.25384
G1 X70.342 Y158.927 E83.29917
G1 X69.716 Y158.527 E83.35106
G1 X68.328 Y157.364 E83.47754
G1 X66.228 Y155.668 E83.66608
G1 X64.08 Y154.031 E83.85471
G1 X61.924 Y152.482 E84.04014
G1 X59.706 Y150.983 E84.22712
G1 X57.436 Y149.539 E84.41503
G1 X55.128 Y148.162 E84.60275
G1 X52.816 Y146.869 E84.78777
G1 X50.407 Y145.611 E84.97759
G1 X48.018 Y144.448 E85.16317
G1 X45.572 Y143.341 E85.3507
G1 X43.034 Y142.278 E85.54289
G1 X42.324 Y141.993 E85.59633
G1 X41.737 Y141.714 E85.64172
G1 X41.189 Y141.366 E85.68706
G1 X40.688 Y140.953 E85.73241
G1 X40.241 Y140.481 E85.77782
G1 X39.856 Y139.958 E85.82318
G1 X39.538 Y139.392 E85.86852
G1 X39.291 Y138.79 E85.91397
G1 X39.121 Y138.164 E85.95928
G1 X39.001 Y137.146 E86.03088
G1 X39.002 Y73.532 E90.47408
G1 X39.012 Y72.831 E90.52305
G1 X39.061 Y72.183 E90.56844
G1 X39.189 Y71.546 E90.61382
G1 X39.395 Y70.93 E90.65918
G1 X39.674 Y70.344 E90.70452
G1 X40.024 Y69.796 E90.74993
G1 X40.438 Y69.296 E90.79527
G1 X41.156 Y68.658 E90.86236
G1 X43.696 Y66.784 E91.08283
G1 X45.814 Y65.119 E91.271
G1 X47.863 Y63.415 E91.45714
G1 X49.885 Y61.632 E91.64544
G1 X51.85 Y59.8 E91.83308
G1 X53.747 Y57.929 E92.01918
G1 X55.607 Y55.985 E92.2071
G1 X57.395 Y54.008 E92.39328
G1 X59.128 Y51.98 E92.57961
G1 X60.829 Y49.872 E92.7688
G1 X62.449 Y47.742 E92.95571
G1 X63.99 Y45.592 E93.14047
G1 X65.501 Y43.355 E93.32902
G1 X66.941 Y41.087 E93.51666
M204 S3000
M205 X10 Y10
G1 F2400 E87.51666
;MESH:LayerSupport65.stl(11)
G0 F3000 X72.235 Y41.804
G0 X73.324 Y41.804
G0 X105.438 Y44.152
G0 X105.444 Y46.055
G0 X131.692 Y52.17
M204 S1800
M205 X8 Y8
;TYPE:WALL-INNER
G1 F2400 E93.51666
G1 F1618 X128.804 Y52.17 E93.74107
G1 F1708.5 X128.249 Y52.026 E93.78327
G1 F1800 X127.815 Y51.732 E93.81988
G1 X127.55 Y51.364 E93.85156
G1 X127.419 Y50.804 E93.89173
G1 X123.188 Y50.804 E94.18724
G1 X122.733 Y50.729 E94.21945
G1 X122.347 Y50.525 E94.24995
G1 X122.068 Y50.244 E94.27761
G1 X121.895 Y49.943 E94.30185
G1 X121.788 Y49.583 E94.32809
G1 X121.788 Y46.017 E94.57716
G1 X121.895 Y45.653 E94.60366
G1 X122.068 Y45.351 E94.62797
G1 X122.348 Y45.072 E94.65558
G1 X122.734 Y44.867 E94.6861
G1 X123.023 Y44.792 E94.70696
G1 X127.419 Y44.792 E95.014
G1 X127.55 Y44.233 E95.0541
G1 X127.816 Y43.863 E95.08593
G1 X128.249 Y43.57 E95.12245
G1 F1702.7 X128.592 Y43.427 E95.14989
G1 F1623.2 X131.48 Y43.427 E95.37358
G1 F1711.4 X132.036 Y43.571 E95.41577
G1 F1800 X132.469 Y43.864 E95.45229
G1 X132.734 Y44.233 E95.48402
G1 X132.865 Y44.792 E95.52412
G1 X135.7 Y44.792 E95.72213
G1 X135.7 Y42.78 E95.86266
G1 X132.199 Y42.78 E96.1072
G1 F1711.4 X131.48 Y42.809 E96.16006
G1 F1615.4 X128.502 Y42.815 E96.39183
G1 F1691.3 X128.086 Y42.78 E96.42287
G1 F1800 X105.802 Y42.78 E97.97932
G1 F1931 X105 Y42.742 E98.0316
G1 F2082.6 X74.262 Y42.742 E99.88716
G1 X74.262 Y43.226 E99.91638
G1 X105 Y43.226 E101.77194
G1 F1931 X105.659 Y43.352 E101.81563
G1 F1800 X106.12 Y43.748 E101.85807
G1 X106.345 Y44.195 E101.89303
G1 X106.4 Y44.588 E101.92074
G1 X106.4 Y51.008 E102.36916
G1 X106.345 Y51.401 E102.39687
G1 X106.12 Y51.849 E102.43189
G1 X105.659 Y52.244 E102.47429
G1 F1916.3 X105.185 Y52.371 E102.50649
G1 F2061.3 X74.263 Y52.371 E104.39244
G1 F2074.1 X74.263 Y52.857 E104.4219
G1 F2061.3 X89.771 Y52.854 E105.36775
G1 F2036.4 X105.279 Y52.851 E106.3252
G1 F1905.5 X105.803 Y52.82 E106.35983
G1 F1800 X128.085 Y52.82 E107.91615
G1 F1708.5 X128.804 Y52.79 E107.9691
G1 F1610.2 X131.782 Y52.784 E108.20162
G1 F1691.3 X132.198 Y52.82 E108.23266
G1 F1800 X135.7 Y52.82 E108.47726
G1 X135.7 Y50.804 E108.61807
G1 X132.865 Y50.804 E108.81609
G1 X132.734 Y51.364 E108.85626
G1 X132.468 Y51.733 E108.88803
G1 X132.035 Y52.026 E108.92454
G1 F1699.8 X131.692 Y52.17 E108.95206
M204 S3000
M205 X10 Y10
G0 F3000 X131.585 Y51.58
M204 S1800
M205 X8 Y8
G1 F1800 X128.804 Y51.58 E109.1463
G1 X128.471 Y51.512 E109.17004
G1 X128.211 Y51.336 E109.19197
G1 X128.051 Y51.114 E109.21108
G1 X127.964 Y50.74 E109.2379
G1 X127.964 Y50.244 E109.27255
G1 X123.188 Y50.244 E109.60613
G1 X122.915 Y50.199 E109.62546
G1 X122.683 Y50.077 E109.64377
G1 X122.516 Y49.908 E109.66036
G1 X122.348 Y49.512 E109.69041
G1 X122.348 Y46.084 E109.92984
G1 X122.516 Y45.687 E109.95995
G1 X122.684 Y45.52 E109.97649
G1 X122.915 Y45.397 E109.99477
G1 X123.188 Y45.352 E110.0141
G1 X127.964 Y45.352 E110.34768
G1 X127.964 Y44.856 E110.38233
G1 X128.051 Y44.482 E110.40915
G1 X128.211 Y44.26 E110.42826
G1 X128.471 Y44.084 E110.45019
G1 X128.699 Y44.016 E110.46681
G1 X131.48 Y44.016 E110.66105
G1 X131.814 Y44.085 E110.68487
G1 X132.074 Y44.261 E110.7068
G1 X132.233 Y44.482 E110.72582
G1 X132.32 Y44.856 E110.75264
G1 X132.32 Y45.352 E110.78728
G1 X136.26 Y45.352 E111.06248
G1 X136.26 Y42.22 E111.28123
G1 X73.74 Y42.22 E115.64802
G1 X73.74 Y43.748 E115.75475
G1 X105 Y43.748 E117.93814
G1 X105.396 Y43.846 E117.96664
G1 X105.672 Y44.084 E117.99209
G1 X105.807 Y44.352 E118.01305
G1 X105.84 Y44.588 E118.0297
G1 X105.84 Y51.008 E118.47811
G1 X105.807 Y51.244 E118.49475
G1 X105.672 Y51.513 E118.51578
G1 X105.396 Y51.75 E118.54119
G1 X105.11 Y51.848 E118.5623
G1 X73.74 Y51.848 E120.75338
G1 X73.74 Y53.38 E120.86038
G1 X136.26 Y53.38 E125.22717
G1 X136.26 Y50.244 E125.44621
G1 X132.32 Y50.244 E125.72141
G1 X132.32 Y50.74 E125.75605
G1 X132.233 Y51.114 E125.78287
G1 X132.073 Y51.336 E125.80198
G1 X131.813 Y51.512 E125.82391
G1 X131.585 Y51.58 E125.84053
M204 S3000
M205 X10 Y10
G0 F3000 X131.585 Y51.653
G0 X105.91 Y51.065
G0 X105.28 Y51.065
M204 S1800
M205 X8 Y8
;TYPE:WALL-OUTER
G1 F1800 X105.224 Y51.177 E125.84928
G1 X105.049 Y51.284 E125.8636
G1 X73.18 Y51.288 E128.08954
