;FLAVOR:Marlin
;TIME:3766
;Filament used: 3.57922m
;Layer height: 0.2
;MINX:63.908
;MINY:84.616
;MINZ:0.2
;MAXX:146.165
;MAXY:125.384
;MAXZ:13
;TARGET_MACHINE.NAME:Anycubic i3 Mega
;Generated with Cura_SteamEngine 5.10.0
M140 S60
M105
M190 S60
M104 S220
M105
M109 S220
G21 ;metric values
G90 ;absolute positioning
M82 ;set extruder to absolute mode
M107 ;start with the fan off
G28 X0 Y0 ;move X/Y to min endstops
G28 Z0 ;move Z to min endstops
G1 Z15.0 F100 ;move the platform down 15mm
G92 E0 ;zero the extruded length
G1 F200 E3 ;extrude 3mm of feed stock
G92 E0 ;zero the extruded length again
G1 F100
G0 Y20 F100
M117 Printing...
G5
M82 ;absolute extrusion mode
G92 E0
G92 E0
G1 F2400 E-6
;LAYER_COUNT:65
;LAYER:0
M107
M204 S3000
M205 X10 Y10
G1 F600 Z0.275
G0 F3000 X73.145 Y87.241 Z0.275
M204 S1800
M205 X8 Y8
;TYPE:SKIRT
G1 F600 Z0.2
G1 F2400 E0
G1 X73.788 Y86.779 E0.03687
G1 X74.764 Y86.25 E0.08856
G1 X75.492 Y85.97 E0.12488
G1 X76.538 Y85.711 E0.17506
G1 X77.532 Y85.605 E0.2216
G1 X78.075 Y85.586 E0.2469
G1 X131.555 Y84.616 E2.73757
G1 X132.556 Y84.664 E2.78423
G1 X133.355 Y84.796 E2.82194
G1 X134.427 Y85.12 E2.87409
G1 X135.261 Y85.504 E2.91684
G1 X135.955 Y85.928 E2.95471
G1 X136.795 Y86.602 E3.00486
G1 X137.467 Y87.317 E3.05055
G1 X138.059 Y88.146 E3.09798
G1 X138.423 Y88.825 E3.13386
G1 X139.167 Y90.47 E3.21792
G1 X140.287 Y92.861 E3.34087
G1 X141.477 Y95.222 E3.46398
G1 X142.732 Y97.549 E3.58709
G1 X144.686 Y100.9 E3.76772
G1 X145.13 Y101.756 E3.81262
G1 X145.415 Y102.423 E3.84639
G1 X145.61 Y102.971 E3.87348
G1 X145.825 Y103.716 E3.90958
G1 X145.981 Y104.428 E3.94352
G1 X146.089 Y105.139 E3.97701
G1 X146.153 Y105.912 E4.01313
G1 X146.165 Y106.608 E4.04554
G1 X146.123 Y107.463 E4.0854
G1 X146.019 Y108.281 E4.1238
G1 X145.87 Y109.022 E4.15899
G1 X145.684 Y109.709 E4.19213
G1 X145.426 Y110.455 E4.22889
G1 X145.119 Y111.178 E4.26547
G1 X144.817 Y111.775 E4.29662
G1 X144.403 Y112.473 E4.33441
G1 X143.927 Y113.159 E4.37329
G1 X142 Y115.726 E4.52275
G1 X140.47 Y117.9 E4.64654
G1 X138.991 Y120.133 E4.77125
G1 X138.236 Y121.299 E4.83593
G1 X137.704 Y121.954 E4.87523
G1 X136.866 Y122.747 E4.92895
G1 X136.104 Y123.288 E4.97246
G1 X135.237 Y123.75 E5.01821
G1 X134.508 Y124.03 E5.05457
G1 X133.361 Y124.305 E5.1095
G1 X132.464 Y124.394 E5.15147
G1 X131.829 Y124.416 E5.18105
G1 X78.445 Y125.384 E7.66725
G1 X77.444 Y125.336 E7.71391
G1 X76.645 Y125.204 E7.75162
G1 X75.573 Y124.88 E7.80377
G1 X74.739 Y124.496 E7.84652
G1 X74.045 Y124.072 E7.88439
G1 X73.205 Y123.398 E7.93454
G1 X72.665 Y122.83 E7.97103
G1 X72.139 Y122.167 E8.01044
G1 X70.395 Y119.693 E8.15138
G1 X68.807 Y117.576 E8.27461
G1 X67.194 Y115.547 E8.39531
G1 X66.312 Y114.462 E8.46042
G1 X65.719 Y113.637 E8.50773
G1 X65.383 Y113.086 E8.53778
G1 X65.045 Y112.45 E8.57131
G1 X64.789 Y111.9 E8.59956
G1 X64.469 Y111.066 E8.64116
G1 X64.25 Y110.29 E8.6787
G1 X64.076 Y109.484 E8.7171
G1 X63.959 Y108.657 E8.75599
G1 X63.918 Y108.085 E8.78269
G1 X63.908 Y107.385 E8.81529
G1 X63.95 Y106.533 E8.85501
G1 X64.064 Y105.653 E8.89633
G1 X64.181 Y105.079 E8.92361
G1 X64.374 Y104.356 E8.95845
G1 X64.602 Y103.668 E8.9922
G1 X64.949 Y102.833 E9.03431
G1 X65.275 Y102.189 E9.06792
G1 X66.145 Y100.589 E9.15272
G1 X67.379 Y98.212 E9.27743
G1 X68.54 Y95.81 E9.40166
G1 X69.603 Y93.439 E9.52265
G1 X70.46 Y91.358 E9.62745
G1 X70.529 Y91.213 E9.63492
G1 X70.988 Y90.09 E9.69141
G1 X71.347 Y89.361 E9.72925
G1 X71.804 Y88.654 E9.76845
G1 X72.39 Y87.944 E9.81132
G1 X73.145 Y87.241 E9.85936
M204 S3000
M205 X10 Y10
G0 F3000 X73.472 Y87.696
M204 S1800
M205 X8 Y8
G1 F2400 X74.115 Y87.234 E9.89622
G1 X74.965 Y86.773 E9.94125
G1 X75.693 Y86.493 E9.97757
G1 X76.598 Y86.268 E10.02099
G1 X77.552 Y86.165 E10.06567
G1 X78.085 Y86.146 E10.09051
G1 X131.565 Y85.176 E12.58117
G1 X132.465 Y85.217 E12.62312
G1 X133.264 Y85.349 E12.66083
G1 X134.195 Y85.63 E12.70611
G1 X134.969 Y85.982 E12.74571
G1 X135.663 Y86.406 E12.78358
G1 X136.389 Y86.988 E12.8269
G1 X137.013 Y87.645 E12.86909
G1 X137.566 Y88.412 E12.91312
G1 X137.913 Y89.056 E12.94719
G1 X138.66 Y90.708 E13.03161
G1 X139.787 Y93.113 E13.15528
G1 X140.984 Y95.488 E13.27912
G1 X142.248 Y97.831 E13.40309
G1 X144.189 Y101.159 E13.58248
G1 X144.615 Y101.977 E13.62543
G1 X144.887 Y102.611 E13.65755
G1 X145.082 Y103.159 E13.68464
G1 X145.278 Y103.837 E13.7175
G1 X145.427 Y104.512 E13.74969
G1 X145.535 Y105.223 E13.78318
G1 X145.593 Y105.922 E13.81584
G1 X145.605 Y106.618 E13.84825
G1 X145.567 Y107.392 E13.88433
G1 X145.463 Y108.21 E13.92273
G1 X145.329 Y108.876 E13.95436
G1 X145.143 Y109.563 E13.9875
G1 X144.91 Y110.237 E14.02071
G1 X144.619 Y110.925 E14.05549
G1 X144.317 Y111.522 E14.08665
G1 X143.943 Y112.154 E14.12084
G1 X143.479 Y112.823 E14.15875
G1 X141.552 Y115.39 E14.30822
G1 X140.012 Y117.578 E14.4328
G1 X138.524 Y119.824 E14.55826
G1 X137.801 Y120.946 E14.62041
G1 X137.269 Y121.601 E14.6597
G1 X136.54 Y122.292 E14.70647
G1 X135.839 Y122.795 E14.74665
G1 X135.036 Y123.227 E14.78911
G1 X134.307 Y123.507 E14.82547
G1 X133.305 Y123.748 E14.87346
G1 X132.444 Y123.834 E14.91375
G1 X131.819 Y123.856 E14.94287
G1 X78.435 Y124.824 E17.42906
G1 X77.535 Y124.783 E17.47101
G1 X76.736 Y124.651 E17.50872
G1 X75.805 Y124.37 E17.554
G1 X75.031 Y124.018 E17.5936
G1 X74.337 Y123.594 E17.63147
G1 X73.611 Y123.012 E17.67479
G1 X73.071 Y122.444 E17.71129
G1 X72.597 Y121.844 E17.74689
G1 X70.853 Y119.37 E17.88784
G1 X69.255 Y117.24 E18.01183
G1 X67.629 Y115.194 E18.13352
G1 X66.747 Y114.109 E18.19863
G1 X66.197 Y113.345 E18.24246
G1 X65.861 Y112.794 E18.27252
G1 X65.54 Y112.188 E18.30445
G1 X65.311 Y111.698 E18.32963
G1 X65.008 Y110.914 E18.36877
G1 X64.789 Y110.138 E18.40632
G1 X64.63 Y109.405 E18.44124
G1 X64.518 Y108.617 E18.4783
G1 X64.477 Y108.045 E18.50501
G1 X64.468 Y107.377 E18.53611
G1 X64.506 Y106.604 E18.57215
G1 X64.613 Y105.765 E18.61153
G1 X64.73 Y105.191 E18.63881
G1 X64.906 Y104.532 E18.67057
G1 X65.134 Y103.844 E18.70432
G1 X65.448 Y103.086 E18.74253
G1 X65.767 Y102.457 E18.77537
G1 X66.637 Y100.857 E18.86017
G1 X67.876 Y98.47 E18.9854
G1 X69.044 Y96.054 E19.11036
G1 X70.114 Y93.668 E19.23212
G1 X70.966 Y91.599 E19.33631
G1 X71.035 Y91.454 E19.34379
G1 X71.492 Y90.335 E19.40007
G1 X71.819 Y89.663 E19.43487
G1 X72.238 Y89.008 E19.47108
G1 X72.774 Y88.352 E19.51052
G1 X73.472 Y87.696 E19.55512
M204 S3000
M205 X10 Y10
G0 F3000 X73.799 Y88.151
M204 S1800
M205 X8 Y8
G1 F2400 X74.442 Y87.689 E19.59199
G1 X75.166 Y87.296 E19.63035
G1 X75.894 Y87.016 E19.66667
G1 X76.731 Y86.812 E19.70679
G1 X77.572 Y86.725 E19.74616
G1 X78.095 Y86.706 E19.77053
G1 X131.575 Y85.736 E22.26119
G1 X132.374 Y85.77 E22.29843
G1 X133.173 Y85.902 E22.33614
G1 X133.966 Y86.141 E22.3747
G1 X134.677 Y86.46 E22.41099
G1 X135.371 Y86.884 E22.44886
G1 X135.983 Y87.374 E22.48536
G1 X136.607 Y88.031 E22.52756
G1 X137.073 Y88.678 E22.56468
G1 X137.42 Y89.322 E22.59875
G1 X138.153 Y90.946 E22.68171
G1 X139.287 Y93.365 E22.80611
G1 X140.491 Y95.754 E22.93068
G1 X141.764 Y98.113 E23.0555
G1 X143.705 Y101.441 E23.2349
G1 X144.1 Y102.198 E23.27466
G1 X144.372 Y102.832 E23.30678
G1 X144.554 Y103.346 E23.33217
G1 X144.731 Y103.959 E23.36188
G1 X144.873 Y104.596 E23.39227
G1 X144.981 Y105.307 E23.42576
G1 X145.033 Y105.932 E23.45496
G1 X145.045 Y106.628 E23.48738
G1 X145.011 Y107.323 E23.51978
G1 X144.914 Y108.1 E23.55624
G1 X144.788 Y108.73 E23.58615
G1 X144.602 Y109.417 E23.6193
G1 X144.394 Y110.02 E23.649
G1 X144.119 Y110.673 E23.68199
G1 X143.835 Y111.237 E23.71139
G1 X143.482 Y111.835 E23.74373
G1 X143.031 Y112.487 E23.78064
G1 X141.104 Y115.054 E23.93011
G1 X139.554 Y117.256 E24.05549
G1 X138.057 Y119.515 E24.18168
G1 X137.366 Y120.593 E24.24131
G1 X136.834 Y121.248 E24.2806
G1 X136.211 Y121.839 E24.32058
G1 X135.571 Y122.303 E24.35739
G1 X134.835 Y122.704 E24.39642
G1 X134.106 Y122.984 E24.43278
G1 X133.249 Y123.191 E24.47384
G1 X132.424 Y123.274 E24.51245
G1 X131.809 Y123.296 E24.5411
G1 X78.425 Y124.264 E27.02729
G1 X77.626 Y124.23 E27.06453
G1 X76.827 Y124.098 E27.10224
G1 X76.034 Y123.859 E27.14081
G1 X75.323 Y123.54 E27.17709
G1 X74.629 Y123.116 E27.21496
G1 X74.017 Y122.626 E27.25147
G1 X73.477 Y122.058 E27.28796
G1 X73.055 Y121.521 E27.31977
G1 X71.311 Y119.047 E27.46071
G1 X69.703 Y116.904 E27.58547
G1 X68.064 Y114.841 E27.70815
G1 X67.182 Y113.756 E27.77326
G1 X66.675 Y113.053 E27.81362
G1 X66.339 Y112.502 E27.84367
G1 X66.047 Y111.95 E27.87275
G1 X65.833 Y111.494 E27.89621
G1 X65.547 Y110.762 E27.9328
G1 X65.328 Y109.986 E27.97035
G1 X65.184 Y109.326 E28.0018
G1 X65.077 Y108.577 E28.03703
G1 X65.036 Y108.005 E28.06374
G1 X65.028 Y107.37 E28.09331
G1 X65.062 Y106.674 E28.12575
G1 X65.162 Y105.877 E28.16316
G1 X65.279 Y105.303 E28.19043
G1 X65.438 Y104.707 E28.21916
G1 X65.652 Y104.057 E28.25102
G1 X65.948 Y103.339 E28.28718
G1 X66.259 Y102.725 E28.31923
G1 X67.129 Y101.125 E28.40404
G1 X68.373 Y98.728 E28.52979
G1 X69.548 Y96.298 E28.65547
G1 X70.625 Y93.897 E28.77801
G1 X71.484 Y91.812 E28.88301
G1 X71.545 Y91.686 E28.88953
G1 X72.01 Y90.547 E28.94681
G1 X72.292 Y89.962 E28.97705
G1 X72.673 Y89.36 E29.01023
G1 X73.16 Y88.758 E29.04628
G1 X73.799 Y88.151 E29.08732
M204 S3000
M205 X10 Y10
G1 F2400 E23.08732
;MESH:TeslaROSRobot_BMS_base.stl
G0 F3000 X76.257 Y100.632
G0 X77.354 Y101.255
G0 X73.853 Y104.503
M204 S1800
M205 X8 Y8
;TYPE:WALL-INNER
G1 F2400 E29.08732
G1 F1068.7 X73.571 Y104.644 E29.10793
G1 F1100.9 X73.136 Y104.914 E29.14041
G1 X72.747 Y105.25 E29.17302
G1 F1099.5 X72.463 Y105.568 E29.20011
G1 F1103.8 X72.22 Y105.938 E29.22812
G1 F1100.9 X72.038 Y106.309 E29.25433
G1 F1105.3 X71.892 Y106.75 E29.28369
G1 F1108.2 X71.793 Y107.595 E29.33731
G1 F1106.7 X71.926 Y108.465 E29.39286
G1 F1099.5 X72.076 Y108.863 E29.41988
G1 F1093.7 X72.277 Y109.244 E29.44739
G1 F1103.8 X72.528 Y109.603 E29.4751
G1 F1111.1 X73.17 Y110.2 E29.53021
G1 F1099.5 X73.682 Y110.499 E29.56788
G1 F1070.1 X73.972 Y110.63 E29.58865
M204 S3000
M205 X10 Y10
G0 F3000 X75.839 Y110.088
G0 X75.827 Y110.023
M204 S1800
M205 X8 Y8
G1 F1500 X75.143 Y110.128 E29.62087
G1 X74.545 Y110.082 E29.6488
G1 X73.988 Y109.91 E29.67595
G1 X73.494 Y109.621 E29.7026
G1 X73.072 Y109.239 E29.7291
G1 X72.749 Y108.749 E29.75643
G1 X72.52 Y108.177 E29.78512
G1 X72.452 Y107.539 E29.81499
G1 X72.506 Y107.011 E29.83971
G1 X72.686 Y106.45 E29.86714
G1 X72.998 Y105.953 E29.89447
G1 X73.414 Y105.527 E29.92219
G1 X73.9 Y105.221 E29.94894
G1 X74.448 Y105.027 E29.976
G1 X75.046 Y104.958 E30.00403
G1 X75.645 Y105.03 E30.03213
G1 X76.29 Y105.266 E30.06411
G1 X76.813 Y105.656 E30.09449
G1 X77.188 Y106.093 E30.1213
G1 X77.454 Y106.6 E30.14796
G1 X77.607 Y107.181 E30.17594
G1 X77.619 Y107.765 E30.20314
G1 X77.495 Y108.389 E30.23276
G1 X77.238 Y108.913 E30.25994
G1 X76.879 Y109.369 E30.28696
G1 X76.459 Y109.708 E30.31209
G1 X75.827 Y110.023 E30.34497
M204 S3000
M205 X10 Y10
G0 F3000 X75.839 Y110.088
G0 X78.557 Y113.812
M204 S1800
M205 X8 Y8
G1 F1500 X78.625 Y117.581 E30.5205
G1 X131.813 Y116.611 E32.99757
G1 X131.745 Y112.841 E33.17315
G1 X131.871 Y112.412 E33.19397
G1 X132.181 Y111.975 E33.21892
G1 X132.44 Y111.779 E33.23404
G1 F1484.1 X135.904 Y109.811 E33.42154
G1 F1217.4 X136.187 Y109.509 E33.44529
G1 F1208.6 X135.826 Y109.506 E33.46615
G1 F1471.1 X135.108 Y109.596 E33.5005
G1 F1500 X134.387 Y109.53 E33.53422
G1 X133.692 Y109.299 E33.56832
G1 X133.07 Y108.913 E33.60241
G1 X132.606 Y108.472 E33.63221
G1 X132.221 Y107.9 E33.66432
G1 X131.974 Y107.215 E33.69823
G1 X131.871 Y106.541 E33.72998
G1 X131.948 Y105.759 E33.76657
G1 X132.181 Y105.091 E33.79951
G1 X132.544 Y104.515 E33.83121
G1 X132.977 Y104.071 E33.86009
G1 X133.235 Y103.869 E33.87535
G1 X133.878 Y103.526 E33.90928
G1 X134.265 Y103.402 E33.9282
G1 X134.99 Y103.308 E33.96225
G1 F1365.9 X135.732 Y103.33 E34.00021
G1 F1124.5 X135.966 Y103.307 E34.01481
G1 X135.796 Y103.134 E34.02988
G1 F1365.9 X135.459 Y102.896 E34.05097
G1 F1500 X132.143 Y101.17 E34.22504
G1 X131.895 Y100.955 E34.24033
G1 X131.699 Y100.692 E34.2556
G1 X131.578 Y100.42 E34.26946
G1 X131.512 Y100.018 E34.28843
G1 X131.375 Y92.415 E34.64252
G1 X78.182 Y93.384 E37.11982
G1 X78.317 Y101.099 E37.47912
G1 X78.227 Y101.513 E37.49884
G1 X77.96 Y101.947 E37.52257
G1 X77.692 Y102.177 E37.53902
G1 X74.148 Y104.196 E37.72894
G1 F1233.5 X73.853 Y104.503 E37.75305
G1 X74.277 Y104.494 E37.77706
G1 F1500 X75.002 Y104.4 E37.8111
G1 X75.734 Y104.477 E37.84538
G1 X76.414 Y104.715 E37.87892
G1 X76.698 Y104.873 E37.89406
G1 X77.207 Y105.259 E37.9238
G1 X77.658 Y105.787 E37.95614
G1 X77.978 Y106.399 E37.98829
G1 X78.17 Y107.099 E38.02209
G1 X78.179 Y107.875 E38.05823
G1 X78.021 Y108.593 E38.09246
G1 X77.688 Y109.26 E38.12718
G1 X77.289 Y109.751 E38.15664
G1 X76.802 Y110.151 E38.18598
G1 X76.521 Y110.321 E38.20128
G1 X75.837 Y110.588 E38.23547
G1 X75.121 Y110.688 E38.26913
G1 X74.396 Y110.622 E38.30303
G1 F1235.3 X73.972 Y110.63 E38.32701
G1 X74.278 Y110.925 E38.35104
G1 F1500 X77.899 Y112.814 E38.54121
G1 X78.158 Y113.022 E38.55668
G1 X78.429 Y113.411 E38.57876
G1 X78.557 Y113.812 E38.59836
M204 S3000
M205 X10 Y10
G0 F3000 X124.463 Y109.956
G0 X135.935 Y108.952
G0 X135.906 Y108.886
M204 S1800
M205 X8 Y8
G1 F1500 X135.323 Y109.022 E38.62623
G1 X134.726 Y109.02 E38.65403
G1 X134.145 Y108.882 E38.68184
G1 X133.527 Y108.572 E38.71403
G1 X133.068 Y108.145 E38.74322
G1 X132.751 Y107.687 E38.76916
G1 X132.543 Y107.168 E38.79519
G1 X132.441 Y106.534 E38.8251
G1 X132.495 Y105.914 E38.85407
G1 X132.684 Y105.341 E38.88217
G1 X133.013 Y104.83 E38.91047
G1 X133.37 Y104.469 E38.93411
G1 X133.869 Y104.141 E38.96192
G1 X134.436 Y103.935 E38.99001
G1 X135.126 Y103.855 E39.02235
G1 X135.758 Y103.966 E39.05223
G1 X136.315 Y104.202 E39.0804
G1 X136.736 Y104.505 E39.10455
G1 X137.159 Y104.977 E39.13406
G1 X137.444 Y105.502 E39.16188
G1 X137.6 Y106.09 E39.19021
G1 X137.613 Y106.723 E39.21969
G1 X137.485 Y107.281 E39.24635
G1 X137.235 Y107.816 E39.27384
G1 X136.853 Y108.3 E39.30255
G1 X136.399 Y108.652 E39.3293
G1 X135.906 Y108.886 E39.35472
M204 S3000
M205 X10 Y10
G0 F3000 X136.187 Y109.509
M204 S1800
M205 X8 Y8
G1 F1067.3 X136.611 Y109.292 E39.38588
G1 F1102.4 X137.324 Y108.752 E39.44255
G1 F1106.7 X137.851 Y108.054 E39.49775
G1 F1103.8 X138.04 Y107.668 E39.52495
G1 F1106.7 X138.257 Y106.827 E39.57976
G1 F1109.6 X138.24 Y105.959 E39.63441
G1 F1105.3 X137.994 Y105.132 E39.68893
G1 F1102.4 X137.791 Y104.747 E39.71651
G1 X137.238 Y104.071 E39.77185
G1 F1096.6 X136.896 Y103.801 E39.7996
G1 F1092.3 X136.468 Y103.538 E39.83172
G1 F1055.3 X135.966 Y103.307 E39.8683
M204 S3000
M205 X10 Y10
G0 F3000 X78.068 Y113.988
G0 X78 Y113.988
M204 S1800
M205 X8 Y8
G1 F1500 X78.072 Y118.016 E40.05589
G1 X78.122 Y118.094 E40.0602
G1 X78.224 Y118.148 E40.06558
G1 X132.25 Y117.163 E42.58167
G1 X132.38 Y117.021 E42.59064
G1 X132.306 Y112.909 E42.78214
G1 X132.419 Y112.569 E42.79882
G1 X132.657 Y112.3 E42.81555
G1 X136.959 Y109.856 E43.04594
G1 X137.403 Y109.56 E43.07078
G1 X137.791 Y109.218 E43.09487
G1 X138.133 Y108.826 E43.11909
G1 X138.425 Y108.382 E43.14384
G1 X138.654 Y107.916 E43.16801
G1 X138.816 Y107.413 E43.19262
G1 X138.911 Y106.904 E43.21673
G1 X138.937 Y106.388 E43.24079
G1 X138.892 Y105.858 E43.26556
G1 X138.776 Y105.347 E43.28995
G1 X138.599 Y104.863 E43.31395
G1 X138.355 Y104.401 E43.33828
G1 X138.052 Y103.974 E43.36266
G1 X137.688 Y103.586 E43.38743
G1 X137.279 Y103.257 E43.41187
G1 X136.794 Y102.96 E43.43836
G1 X132.449 Y100.699 E43.66643
G1 X132.301 Y100.57 E43.67557
G1 X132.162 Y100.372 E43.68684
G1 X132.076 Y100.077 E43.70115
G1 X131.929 Y92.059 E44.07456
G1 X131.898 Y91.932 E44.08065
G1 X131.839 Y91.877 E44.0844
G1 X131.704 Y91.849 E44.09082
G1 X77.753 Y92.832 E46.60343
G1 X77.615 Y92.977 E46.61275
G1 X77.759 Y101.063 E46.98932
G1 X77.686 Y101.355 E47.00334
G1 X77.424 Y101.689 E47.02311
G1 X73.114 Y104.14 E47.25398
G1 X72.668 Y104.437 E47.27893
G1 X72.276 Y104.779 E47.30315
G1 X71.938 Y105.168 E47.32715
G1 X71.644 Y105.61 E47.35187
G1 X71.418 Y106.079 E47.37611
G1 X71.252 Y106.586 E47.40095
G1 X71.158 Y107.086 E47.42464
G1 X71.134 Y107.607 E47.44893
G1 X71.177 Y108.13 E47.47336
G1 X71.292 Y108.651 E47.49821
G1 X71.469 Y109.133 E47.52212
