;FLAVOR:Marlin
;TIME:4895
;Filament used: 4.53208m
;Layer height: 0.2
;MINX:73.398
;MINY:69.261
;MINZ:0.2
;MAXX:140.6
;MAXY:131.567
;MAXZ:34
;TARGET_MACHINE.NAME:Anycubic i3 Mega
;Generated with Cura_SteamEngine 5.10.0
M140 S60
M105
M190 S60
M104 S220
M105
M109 S220
G21 ;metric values
G90 ;absolute positioning
M82 ;set extruder to absolute mode
M107 ;start with the fan off
G28 X0 Y0 ;move X/Y to min endstops
G28 Z0 ;move Z to min endstops
G1 Z15.0 F100 ;move the platform down 15mm
G92 E0 ;zero the extruded length
G1 F200 E3 ;extrude 3mm of feed stock
G92 E0 ;zero the extruded length again
G1 F100
G0 Y20 F100
M117 Printing...
G5
M82 ;absolute extrusion mode
G92 E0
G92 E0
G1 F2400 E-6
;LAYER_COUNT:170
;LAYER:0
M107
M204 S3000
M205 X10 Y10
G1 F600 Z0.275
G0 F3000 X86.984 Y73.225 Z0.275
M204 S1800
M205 X8 Y8
;TYPE:SKIRT
G1 F600 Z0.2
G1 F2400 E0
G1 X87.921 Y72.221 E0.06395
G1 X88.42 Y71.709 E0.09724
G1 X89.003 Y71.182 E0.13383
G1 X89.709 Y70.69 E0.1739
G1 X90.415 Y70.324 E0.21093
G1 X91.108 Y70.065 E0.24538
G1 X92.057 Y69.783 E0.29148
G1 X93.229 Y69.466 E0.34801
G1 X93.934 Y69.324 E0.3815
G1 X94.719 Y69.261 E0.41817
G1 X95.582 Y69.303 E0.4584
G1 X96.379 Y69.445 E0.4961
G1 X99.395 Y70.191 E0.64077
G1 X101.996 Y70.749 E0.76464
G1 X104.621 Y71.239 E0.88898
G1 X107.215 Y71.645 E1.01124
G1 X109.8 Y71.978 E1.1326
G1 X113.279 Y72.315 E1.29536
G1 X114.191 Y72.48 E1.33851
G1 X115.267 Y72.762 E1.39031
G1 X116.201 Y73.023 E1.43547
G1 X116.866 Y73.221 E1.46777
G1 X117.603 Y73.493 E1.50435
G1 X118.3 Y73.849 E1.5408
G1 X118.853 Y74.215 E1.57168
G1 X120.71 Y75.593 E1.67935
G1 X122.885 Y77.122 E1.80315
G1 X125.084 Y78.576 E1.92591
G1 X127.335 Y79.975 E2.04932
G1 X129.616 Y81.304 E2.17224
G1 X131.973 Y82.591 E2.29729
G1 X134.366 Y83.81 E2.42234
G1 X135.203 Y84.223 E2.4658
G1 X135.854 Y84.598 E2.50078
G1 X136.528 Y85.105 E2.54006
G1 X136.95 Y85.503 E2.56707
G1 X137.816 Y86.4 E2.62512
G1 X138.427 Y87.066 E2.66721
G1 X138.858 Y87.596 E2.69902
G1 X139.348 Y88.382 E2.74215
G1 X139.701 Y89.156 E2.78176
G1 X140.133 Y90.575 E2.85083
G1 X140.37 Y91.431 E2.89219
G1 X140.54 Y92.272 E2.93214
G1 X140.6 Y93.056 E2.96875
G1 X140.575 Y93.705 E2.999
G1 X140.438 Y94.571 E3.03982
G1 X139.745 Y97.582 E3.18369
G1 X139.228 Y100.176 E3.30686
G1 X138.782 Y102.81 E3.43125
G1 X138.44 Y105.075 E3.53791
G1 X138.194 Y106.196 E3.59136
G1 X137.665 Y108.801 E3.71513
G1 X137.211 Y111.411 E3.83849
G1 X136.903 Y113.552 E3.93921
G1 X136.799 Y114.209 E3.97018
G1 X136.667 Y114.824 E3.99947
G1 X136.351 Y115.989 E4.05568
G1 X136.088 Y116.877 E4.0988
G1 X135.812 Y117.611 E4.13532
G1 X135.448 Y118.307 E4.17189
G1 X135.044 Y118.897 E4.20519
G1 X134.545 Y119.473 E4.24067
G1 X133.584 Y120.452 E4.30455
G1 X133.073 Y120.948 E4.33771
G1 X132.381 Y121.536 E4.38
G1 X129.312 Y123.455 E4.54854
G1 X127.115 Y124.917 E4.67142
G1 X124.956 Y126.445 E4.79458
G1 X122.81 Y128.056 E4.91953
G1 X120.483 Y129.911 E5.0581
G1 X119.716 Y130.454 E5.10186
G1 X119.014 Y130.84 E5.13917
G1 X117.98 Y131.245 E5.19088
G1 X117.23 Y131.433 E5.22688
G1 X116.045 Y131.567 E5.28241
G1 X115.088 Y131.536 E5.32699
G1 X114.066 Y131.366 E5.37524
G1 X113.268 Y131.125 E5.41405
G1 X112.595 Y130.877 E5.44745
G1 X82.006 Y119.055 E6.97448
G1 X81.283 Y118.762 E7.0108
G1 X80.488 Y118.377 E7.05193
G1 X79.837 Y117.966 E7.08778
G1 X79.055 Y117.328 E7.13478
G1 X78.428 Y116.663 E7.17734
G1 X77.83 Y115.836 E7.22486
G1 X77.412 Y115.069 E7.26553
G1 X77.018 Y114.044 E7.31666
G1 X76.785 Y113.011 E7.36597
G1 X76.331 Y109.907 E7.51205
G1 X75.884 Y107.382 E7.63145
G1 X75.343 Y104.75 E7.75657
G1 X74.745 Y102.213 E7.87794
G1 X73.991 Y99.429 E8.01224
G1 X73.953 Y99.253 E8.02063
G1 X73.614 Y98.037 E8.07941
G1 X73.478 Y97.401 E8.10969
G1 X73.398 Y96.48 E8.15274
G1 X73.43 Y95.75 E8.18676
G1 X73.634 Y94.656 E8.23858
G1 X73.964 Y93.49 E8.29501
G1 X74.203 Y92.714 E8.33282
G1 X74.496 Y91.966 E8.37023
G1 X74.93 Y91.176 E8.4122
G1 X76.005 Y89.566 E8.50234
G1 X77.45 Y87.298 E8.62756
G1 X78.795 Y85.05 E8.74954
G1 X79.367 Y84.018 E8.80449
G1 X79.478 Y83.843 E8.81414
G1 X80.201 Y82.568 E8.88239
G1 X80.554 Y82.032 E8.91227
G1 X80.96 Y81.468 E8.94463
G1 X82.791 Y79.105 E9.08383
G1 X84.39 Y76.909 E9.21032
G1 X86.43 Y73.916 E9.37898
G1 X86.984 Y73.225 E9.42022
M204 S3000
M205 X10 Y10
G0 F3000 X87.394 Y73.607
M204 S1800
M205 X8 Y8
G1 F2400 X88.322 Y72.612 E9.48357
G1 X88.821 Y72.1 E9.51686
G1 X89.326 Y71.64 E9.54867
G1 X89.97 Y71.186 E9.58536
G1 X90.611 Y70.849 E9.61908
G1 X91.304 Y70.59 E9.65353
G1 X92.204 Y70.323 E9.69724
G1 X93.34 Y70.015 E9.75205
G1 X94.045 Y69.873 E9.78554
G1 X94.761 Y69.819 E9.81897
G1 X95.484 Y69.854 E9.85268
G1 X96.244 Y69.989 E9.88862
G1 X99.271 Y70.738 E10.03382
G1 X101.885 Y71.299 E10.15831
G1 X104.518 Y71.79 E10.28303
G1 X107.126 Y72.198 E10.40595
G1 X109.74 Y72.534 E10.52867
G1 X113.18 Y72.866 E10.68959
G1 X114.049 Y73.022 E10.7307
G1 X115.116 Y73.301 E10.78206
G1 X116.041 Y73.56 E10.82678
G1 X116.706 Y73.758 E10.85909
G1 X117.348 Y73.992 E10.89091
G1 X118.045 Y74.348 E10.92735
G1 X118.519 Y74.665 E10.95391
G1 X120.376 Y76.043 E11.06158
G1 X122.576 Y77.589 E11.18679
G1 X124.788 Y79.052 E11.31028
G1 X127.039 Y80.451 E11.43369
G1 X129.348 Y81.796 E11.55812
G1 X131.705 Y83.083 E11.68316
G1 X134.118 Y84.312 E11.80926
G1 X134.955 Y84.725 E11.85272
G1 X135.519 Y85.047 E11.88296
G1 X136.144 Y85.513 E11.91926
G1 X136.547 Y85.892 E11.94502
G1 X137.403 Y86.779 E12.00242
G1 X138.014 Y87.445 E12.04451
G1 X138.423 Y87.949 E12.07473
G1 X138.84 Y88.618 E12.11144
G1 X139.165 Y89.319 E12.14742
G1 X139.593 Y90.724 E12.21581
G1 X139.83 Y91.58 E12.25717
G1 X139.982 Y92.317 E12.29221
G1 X140.04 Y93.034 E12.3257
G1 X140.015 Y93.683 E12.35594
G1 X139.892 Y94.445 E12.39188
G1 X139.199 Y97.456 E12.53575
G1 X138.679 Y100.067 E12.65972
G1 X138.23 Y102.716 E12.78483
G1 X137.893 Y104.955 E12.89026
G1 X137.647 Y106.076 E12.9437
G1 X137.116 Y108.69 E13.06791
G1 X136.659 Y111.315 E13.19198
G1 X136.35 Y113.465 E13.29312
G1 X136.251 Y114.092 E13.32267
G1 X136.126 Y114.678 E13.35058
G1 X135.814 Y115.831 E13.40619
G1 X135.563 Y116.682 E13.44751
G1 X135.314 Y117.354 E13.48088
G1 X134.984 Y117.993 E13.51437
G1 X134.62 Y118.531 E13.54461
G1 X134.145 Y119.081 E13.57845
G1 X133.193 Y120.051 E13.64174
G1 X132.71 Y120.521 E13.67312
G1 X132.018 Y121.109 E13.7154
G1 X129.016 Y122.98 E13.88012
G1 X126.791 Y124.46 E14.00455
G1 X124.632 Y125.988 E14.12771
G1 X122.474 Y127.608 E14.25336
G1 X120.157 Y129.455 E14.39133
G1 X119.446 Y129.963 E14.43202
G1 X118.744 Y130.349 E14.46933
G1 X117.844 Y130.702 E14.51434
G1 X117.094 Y130.89 E14.55035
G1 X116.06 Y131.007 E14.5988
G1 X115.177 Y130.983 E14.63993
G1 X114.228 Y130.83 E14.68469
G1 X113.43 Y130.589 E14.72351
G1 X112.797 Y130.355 E14.75493
G1 X82.216 Y118.536 E16.28156
G1 X81.525 Y118.257 E16.31626
G1 X80.787 Y117.903 E16.35437
G1 X80.136 Y117.492 E16.39022
G1 X79.46 Y116.941 E16.43083
G1 X78.88 Y116.333 E16.46996
G1 X78.322 Y115.568 E16.51405
G1 X77.904 Y114.801 E16.55472
G1 X77.564 Y113.92 E16.5987
G1 X77.339 Y112.93 E16.64597
G1 X76.885 Y109.826 E16.79204
G1 X76.433 Y107.269 E16.91295
G1 X75.892 Y104.637 E17.03807
G1 X75.286 Y102.067 E17.16103
G1 X74.532 Y99.283 E17.29533
G1 X74.501 Y99.137 E17.30228
G1 X74.162 Y97.92 E17.36111
G1 X74.026 Y97.284 E17.39139
G1 X73.958 Y96.5 E17.42803
G1 X73.981 Y95.851 E17.45827
G1 X74.173 Y94.808 E17.50766
G1 X74.499 Y93.654 E17.56349
G1 X74.726 Y92.915 E17.59949
G1 X74.987 Y92.235 E17.63341
G1 X75.396 Y91.487 E17.6731
G1 X76.471 Y89.877 E17.76325
G1 X77.931 Y87.586 E17.88975
G1 X79.276 Y85.338 E18.01173
G1 X79.857 Y84.29 E18.06753
G1 X79.96 Y84.127 E18.0765
G1 X80.669 Y82.876 E18.14346
G1 X81.009 Y82.359 E18.17227
G1 X81.403 Y81.811 E18.2037
G1 X83.243 Y79.437 E18.34356
G1 X84.843 Y77.239 E18.47015
G1 X86.867 Y74.266 E18.63762
G1 X87.394 Y73.607 E18.67692
M204 S3000
M205 X10 Y10
G0 F3000 X87.804 Y73.989
M204 S1800
M205 X8 Y8
G1 F2400 X88.723 Y73.003 E18.73968
G1 X89.222 Y72.491 E18.77297
G1 X89.703 Y72.054 E18.80323
G1 X90.234 Y71.68 E18.83347
G1 X90.807 Y71.374 E18.86372
G1 X91.5 Y71.115 E18.89817
G1 X92.351 Y70.863 E18.9395
G1 X93.454 Y70.563 E18.99272
G1 X94.09 Y70.431 E19.02297
G1 X94.738 Y70.379 E19.05324
G1 X95.387 Y70.406 E19.08349
G1 X96.109 Y70.533 E19.11762
G1 X99.147 Y71.285 E19.26335
G1 X101.774 Y71.849 E19.38846
G1 X104.415 Y72.341 E19.51356
G1 X107.037 Y72.751 E19.63713
G1 X109.68 Y73.09 E19.76121
G1 X113.082 Y73.417 E19.92035
G1 X113.908 Y73.564 E19.95942
G1 X114.965 Y73.84 E20.01028
G1 X115.881 Y74.097 E20.05458
G1 X116.546 Y74.295 E20.08689
G1 X117.156 Y74.518 E20.11714
G1 X117.734 Y74.814 E20.14737
G1 X118.185 Y75.115 E20.17262
G1 X120.042 Y76.493 E20.2803
G1 X122.267 Y78.056 E20.40691
G1 X124.492 Y79.528 E20.53114
G1 X126.743 Y80.927 E20.65455
G1 X129.08 Y82.288 E20.78048
G1 X131.437 Y83.575 E20.90552
G1 X133.864 Y84.811 E21.03235
G1 X134.677 Y85.211 E21.07454
G1 X135.241 Y85.533 E21.10478
G1 X135.761 Y85.922 E21.13502
G1 X136.144 Y86.281 E21.15946
G1 X136.991 Y87.158 E21.21623
G1 X137.579 Y87.798 E21.2567
G1 X137.988 Y88.302 E21.28693
G1 X138.332 Y88.854 E21.31721
G1 X138.657 Y89.555 E21.35319
G1 X139.053 Y90.873 E21.41727
G1 X139.29 Y91.729 E21.45863
G1 X139.424 Y92.365 E21.4889
G1 X139.48 Y93.012 E21.51914
G1 X139.455 Y93.661 E21.54938
G1 X139.346 Y94.319 E21.58044
G1 X138.653 Y97.33 E21.72431
G1 X138.13 Y99.958 E21.84908
G1 X137.678 Y102.622 E21.9749
G1 X137.346 Y104.835 E22.0791
G1 X137.1 Y105.956 E22.13254
G1 X136.567 Y108.578 E22.25712
G1 X136.107 Y111.219 E22.38195
G1 X135.797 Y113.378 E22.48352
G1 X135.703 Y113.976 E22.5117
G1 X135.585 Y114.532 E22.53817
G1 X135.277 Y115.673 E22.5932
G1 X135.037 Y116.49 E22.63285
G1 X134.815 Y117.1 E22.66308
G1 X134.52 Y117.679 E22.69334
G1 X134.156 Y118.217 E22.72358
G1 X133.745 Y118.689 E22.75273
G1 X132.802 Y119.65 E22.81542
G1 X132.319 Y120.12 E22.8468
G1 X131.722 Y120.634 E22.88348
G1 X128.72 Y122.505 E23.0482
G1 X126.481 Y123.994 E23.1734
G1 X124.296 Y125.54 E23.29804
G1 X122.138 Y127.16 E23.42369
G1 X119.808 Y129.017 E23.56242
G1 X119.176 Y129.472 E23.59869
G1 X118.474 Y129.858 E23.63599
G1 X117.708 Y130.159 E23.67431
G1 X116.958 Y130.347 E23.71032
G1 X116.072 Y130.447 E23.75183
G1 X115.263 Y130.43 E23.78951
G1 X114.389 Y130.294 E23.8307
G1 X113.624 Y130.064 E23.8679
G1 X112.999 Y129.833 E23.89892
G1 X82.425 Y118.017 E25.4252
G1 X81.765 Y117.751 E25.45833
G1 X81.086 Y117.429 E25.49332
G1 X80.435 Y117.018 E25.52917
G1 X79.863 Y116.552 E25.56353
G1 X79.331 Y116.001 E25.59919
G1 X78.812 Y115.297 E25.63992
G1 X78.425 Y114.596 E25.6772
G1 X78.11 Y113.795 E25.71728
G1 X77.893 Y112.849 E25.76247
G1 X77.439 Y109.745 E25.90855
G1 X76.982 Y107.156 E26.03097
G1 X76.441 Y104.524 E26.15609
G1 X75.827 Y101.921 E26.28062
G1 X75.073 Y99.137 E26.41492
G1 X75.049 Y99.019 E26.42053
G1 X74.71 Y97.803 E26.47931
G1 X74.574 Y97.167 E26.5096
G1 X74.518 Y96.52 E26.53984
G1 X74.541 Y95.871 E26.57007
G1 X74.712 Y94.96 E26.61324
G1 X75.034 Y93.818 E26.66849
G1 X75.25 Y93.112 E26.70286
G1 X75.478 Y92.504 E26.7331
G1 X75.887 Y91.756 E26.7728
G1 X76.943 Y90.178 E26.86121
G1 X78.403 Y87.887 E26.98771
G1 X79.766 Y85.61 E27.11128
G1 X80.347 Y84.562 E27.16708
G1 X80.432 Y84.429 E27.17443
G1 X81.137 Y83.183 E27.24109
G1 X81.463 Y82.686 E27.26877
G1 X81.846 Y82.154 E27.29929
G1 X83.695 Y79.769 E27.43981
G1 X85.296 Y77.569 E27.56651
G1 X87.305 Y74.615 E27.73285
G1 X87.804 Y73.989 E27.77013
M204 S3000
M205 X10 Y10
G1 F2400 E21.77013
G0 F3000 X91.913 Y77.72
M204 S1800
M205 X8 Y8
G1 F2400 E27.77013
G1 X93.15 Y76.414 E27.85389
G1 X94.854 Y75.936 E27.9363
G1 X96.558 Y76.414 E28.01871
G1 X97.795 Y77.72 E28.10247
G1 X98.274 Y79.359 E28.18198
G1 X97.797 Y81.063 E28.26438
G1 X96.56 Y82.3 E28.34583
G1 X94.857 Y82.776 E28.42817
G1 X93.22 Y82.298 E28.50758
G1 X91.913 Y80.991 E28.59365
G1 X91.435 Y79.357 E28.67292
G1 X91.913 Y77.72 E28.75233
M204 S3000
M205 X10 Y10
G0 F3000 X92.412 Y78.008
M204 S1800
M205 X8 Y8
G1 F2400 X93.451 Y76.911 E28.82269
G1 X94.854 Y76.518 E28.89053
G1 X96.257 Y76.911 E28.95838
G1 X97.296 Y78.009 E29.02877
G1 X97.692 Y79.362 E29.09441
G1 X97.297 Y80.771 E29.16255
G1 X96.268 Y81.8 E29.23031
G1 X94.86 Y82.194 E29.29839
G1 X93.515 Y81.801 E29.36364
G1 X92.41 Y80.696 E29.4364
G1 X92.018 Y79.357 E29.50137
G1 X92.412 Y78.008 E29.56681
M204 S3000
M205 X10 Y10
G0 F3000 X92.912 Y78.295
M204 S1800
M205 X8 Y8
G1 F2400 X93.752 Y77.408 E29.62369
G1 X94.854 Y77.099 E29.67699
G1 X95.956 Y77.408 E29.73028
G1 X96.796 Y78.295 E29.78716
G1 X97.109 Y79.367 E29.83916
G1 X96.798 Y80.478 E29.89289
G1 X95.975 Y81.301 E29.94708
G1 X94.864 Y81.612 E30.0008
G1 X93.809 Y81.303 E30.05199
G1 X92.908 Y80.402 E30.11133
G1 X92.602 Y79.357 E30.16203
G1 X92.912 Y78.295 E30.21354
M204 S3000
M205 X10 Y10
G1 F2400 E24.21354
G0 F3000 X108.07 Y83.509
M204 S1800
M205 X8 Y8
G1 F2400 E30.21354
G1 X108.706 Y81.33 E30.31924
G1 X110.351 Y79.593 E30.43064
G1 X112.621 Y78.957 E30.54041
G1 X114.891 Y79.593 E30.65018
G1 X116.536 Y81.33 E30.76157
G1 X117.173 Y83.512 E30.86742
G1 X116.537 Y85.783 E30.97723
G1 X114.894 Y87.426 E31.08543
G1 X112.623 Y88.062 E31.19524
G1 X110.444 Y87.425 E31.30096
G1 X108.706 Y85.687 E31.41541
G1 X108.07 Y83.509 E31.52106
M204 S3000
M205 X10 Y10
G0 F3000 X108.653 Y83.509
M204 S1800
M205 X8 Y8
G1 F2400 X109.205 Y81.619 E31.61274
G1 X110.652 Y80.09 E31.71077
G1 X112.621 Y79.539 E31.80597
G1 X114.59 Y80.09 E31.90118
G1 X116.037 Y81.619 E31.9992
G1 X116.591 Y83.515 E32.09118
G1 X116.037 Y85.491 E32.18674
G1 X114.602 Y86.926 E32.28124
G1 X112.626 Y87.48 E32.3768
G1 X110.74 Y86.929 E32.46829
G1 X109.203 Y85.392 E32.5695
G1 X108.653 Y83.509 E32.66085
M204 S3000
M205 X10 Y10
G0 F3000 X109.237 Y83.509
M204 S1800
M205 X8 Y8
G1 F2400 X109.705 Y81.905 E32.73865
G1 X110.953 Y80.587 E32.82317
G1 X112.621 Y80.12 E32.90382
G1 X114.289 Y80.587 E32.98448
G1 X115.537 Y81.905 E33.069
G1 X116.008 Y83.519 E33.14729
G1 X115.538 Y85.198 E33.22847
G1 X114.309 Y86.427 E33.30941
G1 X112.631 Y86.897 E33.39055
G1 X111.034 Y86.431 E33.46801
G1 X109.701 Y85.098 E33.55579
G1 X109.237 Y83.509 E33.63287
M204 S3000
M205 X10 Y10
G1 F2400 E27.63287
G0 F3000 X126.001 Y90.894
M204 S1800
M205 X8 Y8
G1 F2400 E33.63287
G1 X127.238 Y89.588 E33.71663
G1 X128.942 Y89.11 E33.79904
G1 X130.646 Y89.588 E33.88145
G1 X130.807 Y89.758 E33.89235
G1 X130.935 Y89.835 E33.89931
G1 X132.205 Y90.19 E33.96071
G1 X133.442 Y91.496 E34.04447
G1 X133.921 Y93.135 E34.12398
G1 X133.444 Y94.839 E34.20638
G1 X132.207 Y96.076 E34.28784
G1 X130.504 Y96.552 E34.37018
G1 X128.866 Y96.074 E34.44963
G1 X128.709 Y95.917 E34.45997
G1 X128.589 Y95.846 E34.46646
G1 X127.308 Y95.472 E34.5286
G1 X126.001 Y94.165 E34.61467
G1 X125.523 Y92.531 E34.69394
G1 X126.001 Y90.894 E34.77335
M204 S3000
M205 X10 Y10
G0 F3000 X126.5 Y91.182
M204 S1800
M205 X8 Y8
G1 F2400 X127.539 Y90.085 E34.84371
G1 X128.942 Y89.692 E34.91155
G1 X130.345 Y90.085 E34.9794
G1 X130.4 Y90.143 E34.98312
G1 X130.605 Y90.301 E34.99517
G1 X130.784 Y90.374 E35.00417
G1 X131.904 Y90.687 E35.05832
G1 X132.943 Y91.785 E35.12871
G1 X133.339 Y93.138 E35.19435
G1 X132.944 Y94.547 E35.26249
G1 X131.915 Y95.576 E35.33025
G1 X130.507 Y95.97 E35.39833
G1 X129.161 Y95.577 E35.46363
G1 X129.104 Y95.52 E35.46738
G1 X128.894 Y95.368 E35.47945
G1 X128.746 Y95.309 E35.48687
G1 X127.604 Y94.976 E35.54226
G1 X126.498 Y93.87 E35.61509
G1 X126.106 Y92.531 E35.68006
G1 X126.5 Y91.182 E35.7455
M204 S3000
M205 X10 Y10
G0 F3000 X127 Y91.469
M204 S1800
M205 X8 Y8
G1 F2400 X127.84 Y90.582 E35.80238
G1 X128.942 Y90.273 E35.85568
G1 X130.066 Y90.588 E35.91003
G1 X130.25 Y90.741 E35.92117
G1 X130.633 Y90.913 E35.94072
G1 X131.603 Y91.184 E35.98762
G1 X132.443 Y92.071 E36.0445
G1 X132.756 Y93.143 E36.09651
G1 X132.445 Y94.254 E36.15023
G1 X131.622 Y95.077 E36.20442
G1 X130.511 Y95.388 E36.25814
G1 X129.435 Y95.073 E36.31035
G1 X129.235 Y94.917 E36.32216
G1 X128.903 Y94.771 E36.33905
G1 X127.898 Y94.478 E36.38779
G1 X126.996 Y93.576 E36.44719
G1 X126.69 Y92.531 E36.4979
G1 X127 Y91.469 E36.54941
M204 S3000
M205 X10 Y10
G1 F2400 E30.54941
G0 F3000 X132.393 Y100.484
G0 X132.832 Y101.854
G0 X132.911 Y103.293
G0 X132.624 Y104.705
G0 X131.992 Y105.997
G0 X131.052 Y107.09
G0 X126.787 Y109.733
