;FLAVOR:Marlin
;TIME:1213
;Filament used: 1.27921m
;Layer height: 0.2
;MINX:66.5
;MINY:106.68
;MINZ:0.2
;MAXX:143.5
;MAXY:132.32
;MAXZ:6.4
;TARGET_MACHINE.NAME:Anycubic i3 Mega
;Generated with Cura_SteamEngine 5.10.0
M140 S60
M105
M190 S60
M104 S220
M105
M109 S220
G21 ;metric values
G90 ;absolute positioning
M82 ;set extruder to absolute mode
M107 ;start with the fan off
G28 X0 Y0 ;move X/Y to min endstops
G28 Z0 ;move Z to min endstops
G1 Z15.0 F100 ;move the platform down 15mm
G92 E0 ;zero the extruded length
G1 F200 E3 ;extrude 3mm of feed stock
G92 E0 ;zero the extruded length again
G1 F100
G0 Y20 F100
M117 Printing...
G5
M82 ;absolute extrusion mode
G92 E0
G92 E0
G1 F2400 E-6
;LAYER_COUNT:32
;LAYER:0
M107
M204 S3000
M205 X10 Y10
G1 F600 Z0.275
G0 F3000 X69.395 Y107.742 Z0.275
M204 S1800
M205 X8 Y8
;TYPE:SKIRT
G1 F600 Z0.2
G1 F2400 E0
G1 X68.871 Y108.126 E0.03025
G1 X68.245 Y108.71 E0.07011
G1 X67.783 Y109.26 E0.10356
G1 X67.353 Y109.916 E0.14008
G1 X66.953 Y110.753 E0.18328
G1 X66.747 Y111.369 E0.21353
G1 X66.573 Y112.206 E0.25333
G1 X66.511 Y112.994 E0.29014
G1 X66.5 Y113.738 E0.32479
G1 X66.501 Y116.077 E0.4337
G1 X66.549 Y118.127 E0.52918
G1 X66.549 Y120.761 E0.65183
G1 X66.525 Y121.593 E0.69059
G1 X66.501 Y123.327 E0.77134
G1 X66.5 Y125.957 E0.8938
G1 X66.647 Y127.236 E0.95375
G1 X66.85 Y127.968 E0.98912
G1 X67.179 Y128.758 E1.02897
G1 X67.534 Y129.383 E1.06244
G1 X68.001 Y130.017 E1.09911
G1 X68.49 Y130.539 E1.13241
G1 X69.148 Y131.086 E1.17226
G1 X69.815 Y131.511 E1.20908
G1 X70.46 Y131.822 E1.24243
G1 X71.266 Y132.095 E1.28205
G1 X71.971 Y132.24 E1.31557
G1 X72.827 Y132.311 E1.35556
G1 X73.525 Y132.32 E1.38807
G1 X137.145 Y132.32 E4.35048
G1 X138.372 Y132.178 E4.408
G1 X139.146 Y131.97 E4.44532
G1 X139.816 Y131.7 E4.47895
G1 X140.623 Y131.246 E4.52207
G1 X141.199 Y130.817 E4.55551
G1 X141.721 Y130.328 E4.58882
G1 X142.312 Y129.61 E4.63212
G1 X142.693 Y129.002 E4.66553
G1 X143.03 Y128.292 E4.70212
G1 X143.259 Y127.613 E4.73549
G1 X143.42 Y126.847 E4.77194
G1 X143.491 Y125.99 E4.81198
G1 X143.5 Y125.263 E4.84584
G1 X143.5 Y121.33 E5.02897
G1 X143.49 Y120.617 E5.06218
G1 X143.49 Y117.877 E5.18976
G1 X143.499 Y117.255 E5.21873
G1 X143.5 Y113.038 E5.41509
G1 X143.344 Y111.734 E5.47624
G1 X143.153 Y111.042 E5.50967
G1 X142.855 Y110.313 E5.54634
G1 X142.47 Y109.626 E5.58301
G1 X141.961 Y108.94 E5.62279
G1 X141.465 Y108.419 E5.65628
G1 X140.915 Y107.959 E5.68967
G1 X140.259 Y107.531 E5.72614
G1 X139.423 Y107.132 E5.76928
G1 X138.807 Y106.926 E5.79952
G1 X137.969 Y106.753 E5.83936
G1 X137.183 Y106.691 E5.87608
G1 X136.409 Y106.68 E5.91212
G1 X72.857 Y106.68 E8.87137
G1 X71.642 Y106.819 E8.92831
G1 X70.934 Y107.003 E8.96238
G1 X70.205 Y107.291 E8.99888
G1 X69.395 Y107.742 E9.04204
M204 S3000
M205 X10 Y10
G0 F3000 X69.726 Y108.194
M204 S1800
M205 X8 Y8
G1 F2400 X69.202 Y108.578 E9.07229
G1 X68.629 Y109.118 E9.10896
G1 X68.214 Y109.618 E9.13921
G1 X67.823 Y110.221 E9.17268
G1 X67.484 Y110.931 E9.20931
G1 X67.278 Y111.547 E9.23956
G1 X67.131 Y112.251 E9.27305
G1 X67.071 Y113.002 E9.30813
G1 X67.06 Y113.746 E9.34278
G1 X67.061 Y116.077 E9.45132
G1 X67.109 Y118.127 E9.5468
G1 X67.109 Y120.777 E9.67019
G1 X67.085 Y121.609 E9.70895
G1 X67.061 Y123.335 E9.78933
G1 X67.06 Y125.957 E9.91142
G1 X67.187 Y127.086 E9.96432
G1 X67.39 Y127.818 E9.9997
G1 X67.666 Y128.481 E10.03314
G1 X68.021 Y129.106 E10.0666
G1 X68.45 Y129.682 E10.10005
G1 X68.897 Y130.154 E10.13032
G1 X69.504 Y130.654 E10.16694
G1 X70.113 Y131.037 E10.20044
G1 X70.7 Y131.316 E10.2307
G1 X71.379 Y131.546 E10.26408
G1 X72.084 Y131.691 E10.2976
G1 X72.834 Y131.751 E10.33263
G1 X73.532 Y131.76 E10.36514
G1 X137.145 Y131.76 E13.32722
G1 X138.227 Y131.637 E13.37793
G1 X139.001 Y131.429 E13.41525
G1 X139.603 Y131.182 E13.44555
G1 X140.288 Y130.797 E13.48214
G1 X140.864 Y130.368 E13.51558
G1 X141.336 Y129.921 E13.54585
G1 X141.837 Y129.313 E13.58253
G1 X142.218 Y128.705 E13.61595
G1 X142.523 Y128.054 E13.64942
G1 X142.727 Y127.437 E13.67968
G1 X142.872 Y126.734 E13.7131
G1 X142.931 Y125.983 E13.74818
G1 X142.94 Y125.256 E13.78204
G1 X142.94 Y121.338 E13.96447
G1 X142.93 Y120.617 E13.99805
G1 X142.93 Y117.869 E14.12601
G1 X142.939 Y117.247 E14.15497
G1 X142.94 Y113.038 E14.35096
G1 X142.804 Y111.883 E14.40512
G1 X142.613 Y111.191 E14.43854
G1 X142.338 Y110.528 E14.47197
G1 X141.983 Y109.902 E14.50548
G1 X141.555 Y109.326 E14.53889
G1 X141.059 Y108.805 E14.57239
G1 X140.558 Y108.391 E14.60265
G1 X139.955 Y108.002 E14.63606
G1 X139.245 Y107.663 E14.6727
G1 X138.629 Y107.457 E14.70294
G1 X137.924 Y107.311 E14.73647
G1 X137.175 Y107.251 E14.77146
G1 X136.401 Y107.24 E14.8075
G1 X72.857 Y107.24 E17.76638
G1 X71.707 Y107.375 E17.82029
G1 X71.08 Y107.544 E17.85053
G1 X70.413 Y107.811 E17.88398
G1 X69.726 Y108.194 E17.92061
M204 S3000
M205 X10 Y10
G0 F3000 X70.057 Y108.646
M204 S1800
M205 X8 Y8
G1 F2400 X69.533 Y109.03 E17.95086
G1 X69.06 Y109.476 E17.98113
G1 X68.645 Y109.976 E18.01139
G1 X68.295 Y110.523 E18.04163
G1 X68.015 Y111.109 E18.07187
G1 X67.809 Y111.725 E18.10211
G1 X67.68 Y112.362 E18.13238
G1 X67.631 Y113.01 E18.16264
G1 X67.62 Y113.754 E18.19728
G1 X67.621 Y116.077 E18.30545
G1 X67.669 Y118.127 E18.40094
G1 X67.669 Y120.793 E18.52508
G1 X67.645 Y121.625 E18.56383
G1 X67.621 Y123.343 E18.64384
G1 X67.62 Y125.957 E18.76556
G1 X67.738 Y126.979 E18.81346
G1 X67.908 Y127.606 E18.84371
G1 X68.154 Y128.207 E18.87395
G1 X68.472 Y128.774 E18.90422
G1 X68.857 Y129.297 E18.93446
G1 X69.304 Y129.769 E18.96473
G1 X69.805 Y130.182 E18.99496
G1 X70.353 Y130.531 E19.02522
G1 X70.94 Y130.81 E19.05548
G1 X71.556 Y131.015 E19.08571
G1 X72.193 Y131.142 E19.11596
G1 X72.841 Y131.191 E19.14622
G1 X73.539 Y131.2 E19.17872
G1 X137.145 Y131.2 E22.14048
G1 X138.162 Y131.081 E22.18816
G1 X138.788 Y130.911 E22.21837
G1 X139.39 Y130.664 E22.24867
G1 X139.956 Y130.346 E22.2789
G1 X140.479 Y129.961 E22.30914
G1 X140.951 Y129.514 E22.33941
G1 X141.364 Y129.013 E22.36964
G1 X141.712 Y128.465 E22.39987
G1 X141.991 Y127.878 E22.43013
G1 X142.195 Y127.261 E22.46039
G1 X142.323 Y126.624 E22.49064
G1 X142.371 Y125.976 E22.5209
G1 X142.38 Y125.249 E22.55475
G1 X142.38 Y121.346 E22.73649
G1 X142.37 Y120.617 E22.77044
G1 X142.37 Y117.861 E22.89877
G1 X142.379 Y117.239 E22.92774
G1 X142.38 Y113.038 E23.12336
G1 X142.263 Y112.029 E23.17065
G1 X142.094 Y111.402 E23.20089
G1 X141.849 Y110.801 E23.23111
G1 X141.532 Y110.234 E23.26136
G1 X141.147 Y109.71 E23.29164
G1 X140.702 Y109.237 E23.32188
G1 X140.201 Y108.823 E23.35214
G1 X139.654 Y108.474 E23.38236
G1 X139.067 Y108.194 E23.41264
G1 X138.451 Y107.988 E23.44288
G1 X137.814 Y107.86 E23.47314
G1 X137.167 Y107.811 E23.50335
G1 X136.393 Y107.8 E23.5394
G1 X72.857 Y107.8 E26.4979
G1 X71.853 Y107.916 E26.54496
G1 X71.226 Y108.085 E26.5752
G1 X70.624 Y108.33 E26.60546
G1 X70.057 Y108.646 E26.63569
M204 S3000
M205 X10 Y10
G1 F2400 E20.63569
;MESH:LayerSupport65.stl
G0 F3000 X73.324 Y112.415
G0 X73.324 Y113.504
G0 X105.438 Y115.852
G0 X105.445 Y117.756
G0 X131.692 Y123.87
M204 S1800
M205 X8 Y8
;TYPE:WALL-INNER
G1 F2400 E26.63569
G1 F1348.3 X128.808 Y123.87 E26.78509
G1 F1423.7 X128.253 Y123.726 E26.81321
G1 F1500 X127.819 Y123.432 E26.83762
G1 X127.554 Y123.064 E26.85874
G1 X127.423 Y122.504 E26.88552
G1 X123.188 Y122.504 E27.08272
G1 X122.733 Y122.429 E27.10419
G1 X122.347 Y122.225 E27.12452
G1 X122.068 Y121.944 E27.14296
G1 X121.895 Y121.643 E27.15913
G1 X121.788 Y121.283 E27.17661
G1 X121.788 Y117.717 E27.34266
G1 X121.895 Y117.353 E27.36033
G1 X122.068 Y117.051 E27.37653
G1 X122.348 Y116.772 E27.39494
G1 X122.734 Y116.567 E27.41529
G1 X123.023 Y116.492 E27.42919
G1 X127.423 Y116.492 E27.63408
G1 X127.554 Y115.933 E27.66081
G1 X127.82 Y115.563 E27.68203
G1 X128.253 Y115.27 E27.70637
G1 F1418.9 X128.596 Y115.127 E27.72467
G1 F1352.7 X131.48 Y115.127 E27.87359
G1 F1426.1 X132.036 Y115.271 E27.90172
G1 F1500 X132.469 Y115.564 E27.92606
G1 X132.734 Y115.933 E27.94721
G1 X132.865 Y116.492 E27.97395
G1 X135.7 Y116.492 E28.10596
G1 X135.7 Y114.48 E28.19965
G1 X132.199 Y114.48 E28.36267
G1 F1426.1 X131.48 Y114.509 E28.39791
G1 F1346.2 X128.506 Y114.515 E28.55222
G1 F1409.4 X128.09 Y114.48 E28.57291
G1 F1500 X105.802 Y114.48 E29.61073
G1 F1609.2 X105 Y114.442 E29.64558
G1 F1735.5 X74.262 Y114.442 E30.88262
G1 X74.262 Y114.926 E30.9021
G1 X105 Y114.926 E32.13914
G1 F1609.2 X105.659 Y115.052 E32.16827
G1 F1500 X106.12 Y115.448 E32.19656
G1 X106.345 Y115.895 E32.21987
G1 X106.4 Y116.288 E32.23834
G1 X106.4 Y122.708 E32.53729
G1 X106.345 Y123.101 E32.55576
G1 X106.12 Y123.549 E32.57911
G1 X105.659 Y123.944 E32.60738
G1 F1597 X105.185 Y124.071 E32.62884
G1 F1717.8 X74.263 Y124.071 E33.88614
G1 F1728.4 X74.263 Y124.557 E33.90578
G1 F1717.8 X89.771 Y124.554 E34.53635
G1 F1697 X105.279 Y124.551 E35.17465
G1 F1587.9 X105.803 Y124.52 E35.19774
G1 F1500 X128.089 Y124.52 E36.23547
G1 F1423.7 X128.808 Y124.49 E36.27077
G1 F1341.9 X131.782 Y124.484 E36.42557
G1 F1409.4 X132.198 Y124.52 E36.44627
G1 F1500 X135.7 Y124.52 E36.60933
G1 X135.7 Y122.504 E36.70321
G1 X132.865 Y122.504 E36.83522
G1 X132.734 Y123.064 E36.862
G1 X132.468 Y123.433 E36.88318
G1 X132.035 Y123.726 E36.90752
G1 F1416.5 X131.692 Y123.87 E36.92586
M204 S3000
M205 X10 Y10
G0 F3000 X131.585 Y123.28
M204 S1800
M205 X8 Y8
G1 F1500 X128.808 Y123.28 E37.05517
G1 X128.475 Y123.212 E37.071
G1 X128.215 Y123.036 E37.08562
G1 X128.055 Y122.814 E37.09836
G1 X127.968 Y122.44 E37.11624
G1 X127.968 Y121.944 E37.13934
G1 X123.188 Y121.944 E37.36191
G1 X122.915 Y121.899 E37.3748
G1 X122.683 Y121.777 E37.387
G1 X122.516 Y121.608 E37.39807
G1 X122.348 Y121.212 E37.4181
G1 X122.348 Y117.784 E37.57772
G1 X122.516 Y117.387 E37.59779
G1 X122.684 Y117.22 E37.60882
G1 X122.915 Y117.097 E37.62101
G1 X123.188 Y117.052 E37.63389
G1 X127.968 Y117.052 E37.85647
G1 X127.968 Y116.556 E37.87956
G1 X128.055 Y116.182 E37.89744
G1 X128.215 Y115.96 E37.91019
G1 X128.475 Y115.784 E37.92481
G1 X128.703 Y115.716 E37.93588
G1 X131.48 Y115.716 E38.06519
G1 X131.814 Y115.785 E38.08107
G1 X132.074 Y115.961 E38.09569
G1 X132.233 Y116.182 E38.10837
G1 X132.32 Y116.556 E38.12625
G1 X132.32 Y117.052 E38.14935
G1 X136.26 Y117.052 E38.33281
G1 X136.26 Y113.92 E38.47865
G1 X73.74 Y113.92 E41.38984
G1 X73.74 Y115.448 E41.46099
G1 X105 Y115.448 E42.91659
G1 X105.396 Y115.546 E42.93558
G1 X105.672 Y115.784 E42.95255
G1 X105.807 Y116.052 E42.96653
G1 X105.84 Y116.288 E42.97762
G1 X105.84 Y122.708 E43.27657
G1 X105.807 Y122.944 E43.28766
G1 X105.672 Y123.213 E43.30168
G1 X105.396 Y123.45 E43.31862
G1 X105.11 Y123.548 E43.33269
G1 X73.74 Y123.548 E44.79341
G1 X73.74 Y125.08 E44.86475
G1 X136.26 Y125.08 E47.77594
G1 X136.26 Y121.944 E47.92197
G1 X132.32 Y121.944 E48.10543
G1 X132.32 Y122.44 E48.12853
G1 X132.233 Y122.814 E48.14641
G1 X132.073 Y123.036 E48.15915
G1 X131.813 Y123.212 E48.17377
G1 X131.585 Y123.28 E48.18485
M204 S3000
M205 X10 Y10
G0 F3000 X131.585 Y123.353
G0 X105.91 Y122.765
G0 X105.28 Y122.765
M204 S1800
M205 X8 Y8
;TYPE:WALL-OUTER
G1 F1500 X105.224 Y122.877 E48.19068
G1 X105.049 Y122.984 E48.20023
G1 X73.18 Y122.988 E49.68418
G1 X73.18 Y125.64 E49.80767
G1 X136.82 Y125.64 E52.77102
G1 X136.82 Y121.384 E52.96919
G1 X131.76 Y121.384 E53.20481
G1 X131.76 Y122.44 E53.25398
G1 X131.678 Y122.639 E53.264
G1 X131.529 Y122.716 E53.27181
G1 X128.72 Y122.72 E53.40261
G1 X128.528 Y122.537 E53.41496
G1 X128.528 Y121.384 E53.46865
G1 X123.188 Y121.384 E53.7173
G1 X123.019 Y121.329 E53.72558
G1 X122.912 Y121.155 E53.73509
G1 X122.912 Y117.841 E53.8894
G1 X122.964 Y117.723 E53.89541
G1 X123.139 Y117.616 E53.90496
G1 X128.528 Y117.612 E54.15589
G1 X128.528 Y116.556 E54.20507
G1 X128.61 Y116.357 E54.21509
G1 X128.759 Y116.28 E54.2229
G1 X131.568 Y116.276 E54.3537
G1 X131.76 Y116.459 E54.36605
G1 X131.76 Y117.612 E54.41974
G1 X136.82 Y117.612 E54.65535
G1 X136.82 Y113.36 E54.85334
G1 X73.18 Y113.36 E57.81669
G1 X73.18 Y116.008 E57.93999
G1 X105 Y116.008 E59.42166
G1 X105.132 Y116.04 E59.42798
G1 X105.28 Y116.231 E59.43924
G1 X105.28 Y122.765 E59.74349
M204 S3000
M205 X10 Y10
G0 F3000 X105.224 Y122.877
G0 X105.16 Y122.916
G0 X105.16 Y123.22
G0 X122.515 Y123.861
M204 S1800
M205 X8 Y8
;TYPE:SKIN
G1 F932 X122.258 Y123.941 E59.75962
G1 F1116.3 X121.74 Y123.981 E59.78563
G1 F1200 X106.428 Y123.984 E60.49862
G1 X106.579 Y123.826 E60.5088
G1 X106.843 Y123.298 E60.53629
G1 X106.938 Y122.745 E60.56241
G1 X106.938 Y116.247 E60.86499
G1 X106.864 Y115.735 E60.88908
G1 X106.579 Y115.166 E60.91871
G1 X106.442 Y115.02 E60.92803
G1 X122.449 Y115.02 E61.67338
G1 F1024.4 X122.859 Y115.116 E61.69635
G1 F897.2 X127.367 Y115.114 E61.97711
G1 F900.8 X126.985 Y115.651 E62.01799
G1 X126.925 Y115.859 E62.03142
G1 F897.2 X122.923 Y115.861 E62.28066
G1 F1024.4 X122.06 Y116.316 E62.33387
G1 F1200 X121.659 Y116.696 E62.3596
G1 X121.409 Y117.107 E62.382
G1 X121.248 Y117.635 E62.4077
G1 X121.248 Y121.355 E62.58092
G1 X121.382 Y121.822 E62.60354
G1 X121.618 Y122.242 E62.62598
G1 X121.988 Y122.629 E62.65091
G1 F1116.3 X122.499 Y122.957 E62.6813
G1 F932 X122.581 Y123.067 E62.68953
G1 F866 X123.129 Y123.136 E62.72517
G1 F894.8 X126.925 Y123.138 E62.96221
G1 F898.4 X126.986 Y123.344 E62.97557
G1 X127.367 Y123.885 E63.01673
G1 F894.8 X123.066 Y123.884 E63.28531
G1 F866 X122.515 Y123.861 E63.32089
M204 S3000
M205 X10 Y10
G0 F3000 X122.352 Y121.943
G0 X122.352 Y117.057
G0 X122.727 Y115.599
M204 S1800
M205 X8 Y8
G1 F1200 X122.428 Y115.3 E63.34058
M204 S3000
M205 X10 Y10
G0 F3000 X122.24 Y115.904
M204 S1800
M205 X8 Y8
G1 F1200 X121.636 Y115.3 E63.38036
M204 S3000
M205 X10 Y10
G0 F3000 X120.844 Y115.3
M204 S1800
M205 X8 Y8
G1 F1200 X121.764 Y116.22 E63.44094
M204 S3000
M205 X10 Y10
G0 F3000 X121.38 Y116.628
M204 S1800
M205 X8 Y8
G1 F1200 X120.052 Y115.3 E63.52839
M204 S3000
M205 X10 Y10
G0 F3000 X119.26 Y115.3
M204 S1800
M205 X8 Y8
G1 F1200 X121.109 Y117.149 E63.65015
M204 S3000
M205 X10 Y10
G0 F3000 X120.968 Y117.8
M204 S1800
M205 X8 Y8
G1 F1200 X118.468 Y115.3 E63.81478
M204 S3000
M205 X10 Y10
G0 F3000 X117.676 Y115.3
M204 S1800
M205 X8 Y8
G1 F1200 X120.968 Y118.592 E64.03157
M204 S3000
M205 X10 Y10
G0 F3000 X120.968 Y119.384
M204 S1800
M205 X8 Y8
G1 F1200 X116.884 Y115.3 E64.3005
M204 S3000
M205 X10 Y10
G0 F3000 X116.092 Y115.3
M204 S1800
M205 X8 Y8
G1 F1200 X120.968 Y120.176 E64.6216
M204 S3000
M205 X10 Y10
G0 F3000 X120.968 Y120.968
M204 S1800
M205 X8 Y8
G1 F1200 X115.3 Y115.3 E64.99484
M204 S3000
M205 X10 Y10
G0 F3000 X114.508 Y115.3
M204 S1800
M205 X8 Y8
G1 F1200 X121.12 Y121.912 E65.43026
G1 X121.19 Y121.982
M204 S3000
M205 X10 Y10
G0 F3000 X121.325 Y123.701
M204 S1800
M205 X8 Y8
G1 F1200 X112.924 Y115.3 E65.98348
M204 S3000
M205 X10 Y10
G0 F3000 X112.132 Y115.3
M204 S1800
M205 X8 Y8
G1 F1200 X120.533 Y123.701 E66.5367
M204 S3000
M205 X10 Y10
G0 F3000 X119.741 Y123.701
M204 S1800
M205 X8 Y8
G1 F1200 X111.34 Y115.3 E67.08992
M204 S3000
M205 X10 Y10
G0 F3000 X110.548 Y115.3
M204 S1800
M205 X8 Y8
G1 F1200 X118.95 Y123.701 E67.64317
M204 S3000
M205 X10 Y10
G0 F3000 X118.158 Y123.701
M204 S1800
M205 X8 Y8
G1 F1200 X109.756 Y115.3 E68.19642
M204 S3000
M205 X10 Y10
G0 F3000 X108.964 Y115.3
M204 S1800
M205 X8 Y8
G1 F1200 X117.366 Y123.701 E68.74968
M204 S3000
M205 X10 Y10
G0 F3000 X116.574 Y123.701
M204 S1800
M205 X8 Y8
G1 F1200 X108.172 Y115.3 E69.30293
M204 S3000
M205 X10 Y10
G0 F3000 X107.381 Y115.3
M204 S1800
M205 X8 Y8
G1 F1200 X115.782 Y123.701 E69.85615
M204 S3000
M205 X10 Y10
G0 F3000 X114.99 Y123.701
M204 S1800
M205 X8 Y8
G1 F1200 X107.167 Y115.879 E70.37127
M204 S3000
M205 X10 Y10
G0 F3000 X107.215 Y116.719
M204 S1800
M205 X8 Y8
G1 F1200 X114.198 Y123.702 E70.83112
M204 S3000
M205 X10 Y10
G0 F3000 X113.406 Y123.702
M204 S1800
M205 X8 Y8
G1 F1200 X107.215 Y117.511 E71.2388
M204 S3000
M205 X10 Y10
G0 F3000 X107.215 Y118.303
M204 S1800
M205 X8 Y8
G1 F1200 X112.615 Y123.702 E71.59437
M204 S3000
M205 X10 Y10
G0 F3000 X111.823 Y123.702
M204 S1800
M205 X8 Y8
G1 F1200 X107.215 Y119.094 E71.89782
M204 S3000
M205 X10 Y10
G0 F3000 X107.215 Y119.886
M204 S1800
M205 X8 Y8
G1 F1200 X111.031 Y123.702 E72.14911
M204 S3000
M205 X10 Y10
G0 F3000 X110.239 Y123.702
M204 S1800
M205 X8 Y8
