;FLAVOR:Marlin
;TIME:2137
;Filament used: 2.20566m
;Layer height: 0.2
;MINX:68
;MINY:79.3
;MINZ:0.2
;MAXX:142.008
;MAXY:117.52
;MAXZ:6.2
;TARGET_MACHINE.NAME:Anycubic i3 Mega
;Generated with Cura_SteamEngine 5.10.0
M140 S60
M105
M190 S60
M104 S220
M105
M109 S220
G21 ;metric values
G90 ;absolute positioning
M82 ;set extruder to absolute mode
M107 ;start with the fan off
G28 X0 Y0 ;move X/Y to min endstops
G28 Z0 ;move Z to min endstops
G1 Z15.0 F100 ;move the platform down 15mm
G92 E0 ;zero the extruded length
G1 F200 E3 ;extrude 3mm of feed stock
G92 E0 ;zero the extruded length again
G1 F100
G0 Y20 F100
M117 Printing...
G5
M82 ;absolute extrusion mode
G92 E0
G92 E0
G1 F2400 E-6
;LAYER_COUNT:31
;LAYER:0
M107
M204 S3000
M205 X10 Y10
G1 F600 Z0.275
G0 F3000 X70.971 Y80.746 Z0.275
M204 S1800
M205 X8 Y8
;TYPE:SKIRT
G1 F600 Z0.2
G1 F2400 E0
G1 X71.495 Y80.362 E0.03025
G1 X72.305 Y79.911 E0.07342
G1 X73.034 Y79.623 E0.10992
G1 X73.742 Y79.439 E0.14398
G1 X74.957 Y79.3 E0.20092
G1 X134.309 Y79.3 E2.9646
G1 X135.083 Y79.311 E3.00065
G1 X135.869 Y79.373 E3.03736
G1 X136.707 Y79.546 E3.0772
G1 X137.323 Y79.752 E3.10745
G1 X138.159 Y80.151 E3.15058
G1 X138.815 Y80.579 E3.18706
G1 X139.365 Y81.039 E3.22044
G1 X139.861 Y81.56 E3.25394
G1 X140.37 Y82.246 E3.29371
G1 X140.755 Y82.933 E3.33038
G1 X141.053 Y83.662 E3.36706
G1 X141.26 Y84.437 E3.40441
G1 X141.4 Y85.657 E3.46159
G1 X141.4 Y88.024 E3.57181
G1 X141.438 Y90.679 E3.69545
G1 X141.549 Y93.282 E3.81676
G1 X141.738 Y95.973 E3.94238
G1 X141.966 Y98.328 E4.05255
G1 X142 Y99.21 E4.09365
G1 X141.999 Y102.89 E4.265
G1 X141.992 Y103.382 E4.28792
G1 X142.008 Y105.697 E4.39572
G1 X141.994 Y105.972 E4.40854
G1 X142 Y110.473 E4.61812
G1 X141.99 Y111.2 E4.65198
G1 X141.919 Y112.051 E4.69174
G1 X141.791 Y112.688 E4.722
G1 X141.499 Y113.567 E4.76513
G1 X141.188 Y114.21 E4.79838
G1 X140.764 Y114.875 E4.83511
G1 X140.309 Y115.431 E4.86856
G1 X139.636 Y116.067 E4.91168
G1 X139.113 Y116.452 E4.94192
G1 X138.304 Y116.906 E4.98512
G1 X137.703 Y117.151 E5.01534
G1 X136.863 Y117.38 E5.05588
G1 X135.643 Y117.52 E5.11306
G1 X75.025 Y117.52 E7.93569
G1 X74.327 Y117.511 E7.96819
G1 X73.471 Y117.44 E8.00819
G1 X72.766 Y117.295 E8.0417
G1 X71.96 Y117.022 E8.08133
G1 X71.315 Y116.711 E8.11467
G1 X70.648 Y116.286 E8.1515
G1 X69.99 Y115.739 E8.19134
G1 X69.501 Y115.217 E8.22465
G1 X69.034 Y114.583 E8.26131
G1 X68.679 Y113.958 E8.29478
G1 X68.35 Y113.168 E8.33463
G1 X68.147 Y112.436 E8.37
G1 X68 Y111.157 E8.42995
G1 X68.001 Y108.677 E8.54543
G1 X68.026 Y106.859 E8.63009
G1 X68.043 Y106.286 E8.65678
G1 X68.045 Y103.658 E8.77915
G1 X68.001 Y101.736 E8.86867
G1 X68 Y99.571 E8.96949
G1 X68.015 Y98.553 E9.01689
G1 X68.141 Y97.257 E9.07753
G1 X68.367 Y94.578 E9.20271
G1 X68.514 Y91.962 E9.32472
G1 X68.6 Y87.895 E9.51414
G1 X68.601 Y86.279 E9.58938
G1 X68.611 Y85.614 E9.62035
G1 X68.673 Y84.826 E9.65716
G1 X68.847 Y83.989 E9.69697
G1 X69.053 Y83.373 E9.72721
G1 X69.453 Y82.536 E9.77041
G1 X69.883 Y81.88 E9.80693
G1 X70.345 Y81.33 E9.84038
G1 X70.971 Y80.746 E9.88024
M204 S3000
M205 X10 Y10
G0 F3000 X71.302 Y81.198
M204 S1800
M205 X8 Y8
G1 F2400 X70.729 Y81.738 E9.9169
G1 X70.314 Y82.238 E9.94716
G1 X69.923 Y82.841 E9.98063
G1 X69.584 Y83.551 E10.01726
G1 X69.378 Y84.167 E10.04751
G1 X69.231 Y84.871 E10.08099
G1 X69.171 Y85.622 E10.11608
G1 X69.161 Y86.287 E10.14704
G1 X69.16 Y87.907 E10.22248
G1 X69.074 Y91.976 E10.41199
G1 X68.925 Y94.625 E10.53553
G1 X68.698 Y97.312 E10.6611
G1 X68.575 Y98.561 E10.71954
G1 X68.56 Y99.579 E10.76695
G1 X68.561 Y101.736 E10.86738
G1 X68.605 Y103.658 E10.9569
G1 X68.603 Y106.303 E11.08007
G1 X68.586 Y106.876 E11.10676
G1 X68.561 Y108.685 E11.191
G1 X68.56 Y111.157 E11.30611
G1 X68.687 Y112.286 E11.35901
G1 X68.89 Y113.018 E11.39438
G1 X69.166 Y113.681 E11.42782
G1 X69.521 Y114.306 E11.46129
G1 X69.95 Y114.882 E11.49474
G1 X70.397 Y115.354 E11.52501
G1 X71.004 Y115.854 E11.56162
G1 X71.613 Y116.237 E11.59512
G1 X72.2 Y116.516 E11.62539
G1 X72.879 Y116.746 E11.65877
G1 X73.584 Y116.891 E11.69228
G1 X74.334 Y116.951 E11.72732
G1 X75.032 Y116.96 E11.75982
G1 X135.643 Y116.96 E14.58212
G1 X136.718 Y116.839 E14.6325
G1 X137.492 Y116.632 E14.6698
G1 X138.093 Y116.387 E14.70003
G1 X138.781 Y116.001 E14.73676
G1 X139.304 Y115.616 E14.767
G1 X139.876 Y115.076 E14.80363
G1 X140.331 Y114.52 E14.83708
G1 X140.714 Y113.912 E14.87054
G1 X140.993 Y113.326 E14.90076
G1 X141.242 Y112.578 E14.93747
G1 X141.37 Y111.941 E14.96773
G1 X141.43 Y111.192 E15.00272
G1 X141.44 Y110.465 E15.03657
G1 X141.434 Y105.972 E15.24578
G1 X141.448 Y105.701 E15.25842
G1 X141.432 Y103.374 E15.36678
G1 X141.439 Y102.882 E15.38969
G1 X141.44 Y99.21 E15.56067
G1 X141.406 Y98.35 E15.60075
G1 X141.18 Y96.012 E15.71012
G1 X140.99 Y93.321 E15.83574
G1 X140.878 Y90.687 E15.9585
G1 X140.84 Y88.024 E16.08251
G1 X140.84 Y85.657 E16.19273
G1 X140.704 Y84.503 E16.24684
G1 X140.513 Y83.811 E16.28027
G1 X140.238 Y83.148 E16.31369
G1 X139.883 Y82.522 E16.3472
G1 X139.455 Y81.946 E16.38061
G1 X138.959 Y81.425 E16.41411
G1 X138.458 Y81.011 E16.44437
G1 X137.855 Y80.622 E16.47779
G1 X137.145 Y80.283 E16.51442
G1 X136.529 Y80.077 E16.54467
G1 X135.824 Y79.931 E16.57819
G1 X135.075 Y79.871 E16.61318
G1 X134.301 Y79.86 E16.64922
G1 X74.957 Y79.86 E19.41253
G1 X73.807 Y79.995 E19.46644
G1 X73.18 Y80.164 E19.49668
G1 X72.513 Y80.431 E19.53014
G1 X71.826 Y80.814 E19.56676
G1 X71.302 Y81.198 E19.59701
M204 S3000
M205 X10 Y10
G0 F3000 X71.633 Y81.65
M204 S1800
M205 X8 Y8
G1 F2400 X72.157 Y81.266 E19.62726
G1 X72.724 Y80.95 E19.65749
G1 X73.326 Y80.705 E19.68775
G1 X73.953 Y80.536 E19.71799
G1 X74.957 Y80.42 E19.76505
G1 X134.293 Y80.42 E22.52798
G1 X135.067 Y80.431 E22.56403
G1 X135.714 Y80.48 E22.59424
G1 X136.351 Y80.608 E22.62449
G1 X136.967 Y80.814 E22.65474
G1 X137.554 Y81.094 E22.68502
G1 X138.101 Y81.443 E22.71524
G1 X138.602 Y81.857 E22.7455
G1 X139.047 Y82.33 E22.77574
G1 X139.432 Y82.854 E22.80602
G1 X139.749 Y83.421 E22.83626
G1 X139.994 Y84.022 E22.86649
G1 X140.163 Y84.649 E22.89672
G1 X140.28 Y85.657 E22.94398
G1 X140.28 Y88.024 E23.05419
G1 X140.318 Y90.695 E23.17858
G1 X140.431 Y93.361 E23.30283
G1 X140.622 Y96.052 E23.42845
G1 X140.846 Y98.373 E23.53703
G1 X140.88 Y99.21 E23.57603
G1 X140.879 Y102.874 E23.74664
G1 X140.872 Y103.366 E23.76956
G1 X140.888 Y105.705 E23.87847
G1 X140.874 Y105.96 E23.89036
G1 X140.88 Y110.457 E24.09976
G1 X140.87 Y111.184 E24.13362
G1 X140.821 Y111.831 E24.16383
G1 X140.693 Y112.468 E24.19409
G1 X140.487 Y113.085 E24.22438
G1 X140.208 Y113.671 E24.2546
G1 X139.859 Y114.219 E24.28485
G1 X139.445 Y114.719 E24.31508
G1 X138.972 Y115.165 E24.34535
G1 X138.449 Y115.55 E24.37559
G1 X137.882 Y115.868 E24.40586
G1 X137.281 Y116.113 E24.43608
G1 X136.654 Y116.283 E24.46633
G1 X135.643 Y116.4 E24.51372
G1 X75.039 Y116.4 E27.3357
G1 X74.341 Y116.391 E27.3682
G1 X73.693 Y116.342 E27.39846
G1 X73.056 Y116.215 E27.42871
G1 X72.44 Y116.01 E27.45894
G1 X71.853 Y115.731 E27.4892
G1 X71.305 Y115.382 E27.51945
G1 X70.804 Y114.969 E27.54969
G1 X70.357 Y114.497 E27.57996
G1 X69.972 Y113.974 E27.6102
G1 X69.654 Y113.407 E27.64047
G1 X69.408 Y112.806 E27.67071
G1 X69.238 Y112.179 E27.70096
G1 X69.12 Y111.157 E27.74886
G1 X69.121 Y108.693 E27.86359
G1 X69.146 Y106.893 E27.94742
G1 X69.163 Y106.32 E27.97411
G1 X69.165 Y103.658 E28.09807
G1 X69.121 Y101.736 E28.18759
G1 X69.12 Y99.587 E28.28765
G1 X69.135 Y98.569 E28.33506
G1 X69.255 Y97.368 E28.39126
G1 X69.483 Y94.672 E28.51725
G1 X69.634 Y91.992 E28.64224
G1 X69.72 Y87.919 E28.83193
G1 X69.721 Y86.295 E28.90755
G1 X69.731 Y85.63 E28.93852
G1 X69.78 Y84.982 E28.96878
G1 X69.909 Y84.345 E28.99905
G1 X70.115 Y83.729 E29.02929
G1 X70.395 Y83.143 E29.05953
G1 X70.745 Y82.596 E29.08977
G1 X71.16 Y82.096 E29.12003
G1 X71.633 Y81.65 E29.1503
M204 S3000
M205 X10 Y10
G1 F2400 E23.1503
;MESH:LayerSupport65.stl(1)
G0 F3000 X75.424 Y85.035
G0 X75.424 Y86.124
G0 X76.5 Y87.2
M204 S1800
M205 X8 Y8
;TYPE:WALL-INNER
G1 F2400 E29.1503
G1 F1105.3 X105 Y87.2 E30.95134
M204 S3000
M205 X10 Y10
G0 F3000 X105.838 Y87.862
G0 X105.838 Y95.538
G0 X105.261 Y96.189
M204 S1800
M205 X8 Y8
G1 F1088.1 X105 Y96.2 E30.96811
G1 F1105.3 X76.5 Y96.2 E32.76914
M204 S3000
M205 X10 Y10
G0 F3000 X130.302 Y95.734
M204 S1800
M205 X8 Y8
G1 F1567.2 X129.921 Y95.821 E32.78656
G1 F1650.3 X127.248 Y95.821 E32.89969
G1 F1576 X126.693 Y95.734 E32.92459
G1 F1500 X126.259 Y95.44 E32.949
G1 X125.994 Y95.072 E32.97011
G1 X125.883 Y94.6 E32.99269
G1 X122 Y94.6 E33.1735
G1 X121.546 Y94.525 E33.19493
G1 X121.16 Y94.32 E33.21528
G1 X120.88 Y94.041 E33.23368
G1 X120.707 Y93.739 E33.24989
G1 X120.6 Y93.375 E33.26756
G1 X120.6 Y90.025 E33.42355
G1 X120.707 Y89.661 E33.44121
G1 X120.88 Y89.359 E33.45742
G1 X121.16 Y89.08 E33.47582
G1 X121.546 Y88.875 E33.49618
G1 X121.835 Y88.8 E33.51008
G1 X125.882 Y88.8 E33.69852
G1 X125.992 Y88.327 E33.72114
G1 X126.258 Y87.957 E33.74236
G1 X126.693 Y87.663 E33.7668
G1 F1573 X127.071 Y87.576 E33.78403
G1 F1656.8 X129.748 Y87.576 E33.89688
G1 F1578.9 X130.305 Y87.662 E33.92181
G1 F1500 X130.738 Y87.957 E33.94621
G1 X131.004 Y88.327 E33.96743
G1 X131.114 Y88.8 E33.99004
G1 X133.6 Y88.8 E34.1058
G1 X133.6 Y87.1 E34.18496
G1 X130.421 Y87.1 E34.33299
G1 F1578.9 X129.748 Y87.072 E34.36278
G1 F1647.1 X126.966 Y87.078 E34.48076
G1 F1561.3 X126.576 Y87.099 E34.49823
G1 F1500 X105.75 Y87.1 E35.46798
G1 F1272.7 X105 Y87.2 E35.5095
G1 X105.659 Y87.464 E35.54846
G1 F1500 X106.12 Y87.86 E35.57676
G1 X106.344 Y88.307 E35.60004
G1 X106.4 Y88.7 E35.61852
G1 X106.4 Y94.7 E35.89791
G1 X106.344 Y95.093 E35.91639
G1 X106.12 Y95.54 E35.93967
G1 X105.659 Y95.936 E35.96797
G1 F1250 X105.261 Y96.189 E35.99433
G1 X105.75 Y96.3 E36.02234
G1 F1500 X126.576 Y96.3 E36.99209
G1 F1576 X127.248 Y96.327 E37.0219
G1 F1660.1 X129.748 Y96.327 E37.12708
G1 F1578.9 X130.419 Y96.301 E37.15679
G1 F1500 X133.6 Y96.3 E37.30491
G1 X133.6 Y94.6 E37.38407
G1 X131.113 Y94.6 E37.49987
G1 X131.002 Y95.072 E37.52245
G1 X130.736 Y95.44 E37.54359
G1 X130.302 Y95.734 E37.568
M204 S3000
M205 X10 Y10
G0 F3000 X105.396 Y95.61
G0 X105.396 Y95.442
M204 S1800
M205 X8 Y8
G1 F1500 X105.11 Y95.54 E37.58208
G1 X75.84 Y95.54 E38.94501
G1 X75.84 Y96.86 E39.00648
G1 X134.16 Y96.86 E41.7221
G1 X134.16 Y94.04 E41.85341
G1 X130.588 Y94.04 E42.01974
G1 X130.588 Y94.448 E42.03874
G1 X130.501 Y94.823 E42.05666
G1 X130.341 Y95.044 E42.06937
G1 X130.081 Y95.22 E42.08399
G1 X129.854 Y95.288 E42.09502
G1 X127.248 Y95.288 E42.21637
G1 X126.915 Y95.22 E42.23219
G1 X126.655 Y95.044 E42.24681
G1 X126.495 Y94.823 E42.25952
G1 X126.408 Y94.448 E42.27744
G1 X126.408 Y94.04 E42.29644
G1 X122 Y94.04 E42.5017
G1 X121.727 Y93.995 E42.51458
G1 X121.496 Y93.872 E42.52677
G1 X121.328 Y93.705 E42.5378
G1 X121.16 Y93.308 E42.55787
G1 X121.16 Y90.092 E42.70762
G1 X121.328 Y89.695 E42.72769
G1 X121.496 Y89.528 E42.73872
G1 X121.727 Y89.405 E42.75091
G1 X122 Y89.36 E42.76379
G1 X126.408 Y89.36 E42.96905
G1 X126.408 Y88.948 E42.98823
G1 X126.494 Y88.575 E43.00606
G1 X126.654 Y88.353 E43.0188
G1 X126.914 Y88.176 E43.03344
G1 X127.144 Y88.108 E43.04461
G1 X129.748 Y88.108 E43.16587
G1 X130.082 Y88.176 E43.18174
G1 X130.342 Y88.353 E43.19638
G1 X130.502 Y88.575 E43.20913
G1 X130.588 Y88.948 E43.22695
G1 X130.588 Y89.36 E43.24613
G1 X134.16 Y89.36 E43.41246
G1 X134.16 Y86.54 E43.54377
G1 X75.84 Y86.54 E46.2594
G1 X75.84 Y87.86 E46.32086
G1 X105 Y87.86 E47.67867
G1 X105.396 Y87.958 E47.69767
G1 X105.672 Y88.196 E47.71464
G1 X105.807 Y88.464 E47.72861
G1 X105.84 Y88.7 E47.73971
G1 X105.84 Y94.7 E48.01909
G1 X105.807 Y94.936 E48.03019
G1 X105.672 Y95.204 E48.04416
G1 X105.396 Y95.442 E48.06113
M204 S3000
M205 X10 Y10
G0 F3000 X105.396 Y95.61
G0 X129.797 Y95.36
G0 X129.797 Y94.724
M204 S1800
M205 X8 Y8
;TYPE:WALL-OUTER
G1 F1500 X127.16 Y94.728 E48.18392
G1 X126.968 Y94.545 E48.19627
G1 X126.968 Y93.48 E48.24586
G1 X121.93 Y93.48 E48.48045
G1 X121.776 Y93.369 E48.48929
G1 X121.724 Y93.251 E48.4953
G1 X121.724 Y90.149 E48.63974
G1 X121.776 Y90.031 E48.64574
G1 X121.951 Y89.924 E48.65529
G1 X126.968 Y89.92 E48.88891
G1 X126.968 Y88.948 E48.93417
G1 X127.05 Y88.749 E48.94419
G1 X127.199 Y88.672 E48.952
G1 X129.837 Y88.668 E49.07484
G1 X130.028 Y88.85 E49.08712
G1 X130.028 Y89.92 E49.13694
G1 X134.72 Y89.92 E49.35542
G1 X134.72 Y85.98 E49.53889
G1 X75.28 Y85.98 E52.30666
G1 X75.28 Y88.42 E52.42028
G1 X105 Y88.42 E53.80417
G1 X105.132 Y88.452 E53.81049
G1 X105.28 Y88.643 E53.82174
G1 X105.28 Y94.757 E54.10644
G1 X105.224 Y94.868 E54.11222
G1 X105.049 Y94.976 E54.1218
G1 X75.28 Y94.98 E55.50797
G1 X75.28 Y97.42 E55.62159
G1 X134.72 Y97.42 E58.38936
G1 X134.72 Y93.48 E58.57282
G1 X130.028 Y93.48 E58.7913
G1 X130.028 Y94.448 E58.83638
G1 X129.946 Y94.647 E58.8464
G1 X129.797 Y94.724 E58.85421
M204 S3000
M205 X10 Y10
G0 F3000 X129.597 Y94.724
G0 X129.597 Y95.36
G0 X131.543 Y95.155
M204 S1800
M205 X8 Y8
;TYPE:SKIN
G1 F1139 X133.045 Y95.155 E58.9279
G1 X133.045 Y95.745 E58.95684
G1 X131.193 Y95.745 E59.0477
G1 X131.497 Y95.319 E59.07337
G1 X131.543 Y95.155 E59.08173
M204 S3000
M205 X10 Y10
G0 F3000 X122.004 Y95.745
M204 S1800
M205 X8 Y8
G1 F1092.7 X121.35 Y95.72 E59.1152
G1 F1087.4 X121.139 Y95.742 E59.1261
G1 F1162.6 X120.627 Y95.76 E59.15072
G1 F1200 X106.609 Y95.76 E59.80346
G1 X106.864 Y95.247 E59.83013
G1 X106.938 Y94.737 E59.85413
G1 X106.938 Y88.659 E60.13715
G1 X106.864 Y88.147 E60.16124
G1 X106.609 Y87.64 E60.18766
G1 X120.628 Y87.637 E60.84044
G1 F1162.6 X121.14 Y87.654 E60.86507
G1 F1089.1 X121.355 Y87.677 E60.87616
G1 X121.91 Y87.654 E60.90466
G1 F1131.3 X125.793 Y87.652 E61.09644
G1 F1135.1 X125.49 Y88.078 E61.12218
G1 X125.444 Y88.244 E61.13066
G1 F1131.3 X121.957 Y88.246 E61.30288
G1 F1089.1 X121.405 Y88.312 E61.3314
G1 F1085.6 X120.827 Y88.646 E61.36576
G1 F1158.6 X120.425 Y89.063 E61.3937
G1 F1200 X120.221 Y89.415 E61.41264
G1 X120.06 Y89.943 E61.43835
G1 X120.06 Y93.451 E61.60169
G1 X120.194 Y93.918 E61.62432
G1 F1178.9 X120.443 Y94.368 E61.64869
G1 F1139 X120.832 Y94.753 E61.67554
G1 F1083.9 X121.403 Y95.084 E61.70957
G1 F1089.1 X121.955 Y95.153 E61.73811
G1 F1135.1 X125.449 Y95.155 E61.9101
G1 F1139 X125.495 Y95.319 E61.91845
G1 X125.799 Y95.745 E61.94413
G1 X122.004 Y95.745 E62.13031
M204 S3000
M205 X10 Y10
G0 F3000 X121.162 Y94.038
G0 X120.804 Y88.333
M204 S1800
M205 X8 Y8
G1 F1200 X120.388 Y87.918 E62.15767
M204 S3000
M205 X10 Y10
G0 F3000 X120.379 Y88.701
M204 S1800
M205 X8 Y8
G1 F1200 X119.597 Y87.918 E62.2092
M204 S3000
M205 X10 Y10
G0 F3000 X118.805 Y87.918
M204 S1800
M205 X8 Y8
G1 F1200 X120.053 Y89.166 E62.29138
M204 S3000
M205 X10 Y10
G0 F3000 X119.84 Y89.746
M204 S1800
M205 X8 Y8
G1 F1200 X118.013 Y87.918 E62.41172
M204 S3000
M205 X10 Y10
G0 F3000 X117.221 Y87.919
M204 S1800
M205 X8 Y8
G1 F1200 X119.78 Y90.478 E62.58024
M204 S3000
M205 X10 Y10
G0 F3000 X119.78 Y91.27
M204 S1800
M205 X8 Y8
G1 F1200 X116.429 Y87.919 E62.80091
M204 S3000
M205 X10 Y10
G0 F3000 X115.637 Y87.919
M204 S1800
M205 X8 Y8
G1 F1200 X119.78 Y92.062 E63.07373
M204 S3000
M205 X10 Y10
G0 F3000 X119.78 Y92.854
M204 S1800
M205 X8 Y8
G1 F1200 X114.845 Y87.919 E63.39871
M204 S3000
M205 X10 Y10
G0 F3000 X114.053 Y87.919
M204 S1800
M205 X8 Y8
G1 F1200 X119.858 Y93.723 E63.78095
G1 X119.928 Y93.793
M204 S3000
M205 X10 Y10
G0 F3000 X120.031 Y95.48
M204 S1800
M205 X8 Y8
G1 F1200 X112.47 Y87.92 E64.27882
M204 S3000
M205 X10 Y10
G0 F3000 X111.678 Y87.92
M204 S1800
M205 X8 Y8
G1 F1200 X119.239 Y95.48 E64.77669
M204 S3000
M205 X10 Y10
G0 F3000 X118.447 Y95.48
M204 S1800
M205 X8 Y8
G1 F1200 X110.886 Y87.92 E65.27456
M204 S3000
M205 X10 Y10
G0 F3000 X110.095 Y87.92
M204 S1800
M205 X8 Y8
G1 F1200 X117.655 Y95.48 E65.7724
M204 S3000
M205 X10 Y10
G0 F3000 X116.863 Y95.48
M204 S1800
M205 X8 Y8
G1 F1200 X109.303 Y87.92 E66.27024
M204 S3000
M205 X10 Y10
G0 F3000 X108.511 Y87.92
M204 S1800
M205 X8 Y8
G1 F1200 X116.071 Y95.48 E66.76808
M204 S3000
M205 X10 Y10
G0 F3000 X115.279 Y95.48
M204 S1800
M205 X8 Y8
G1 F1200 X107.719 Y87.92 E67.26592
M204 S3000
M205 X10 Y10
G0 F3000 X107.14 Y88.133
M204 S1800
M205 X8 Y8
G1 F1200 X114.487 Y95.48 E67.74973
M204 S3000
M205 X10 Y10
G0 F3000 X113.695 Y95.48
M204 S1800
M205 X8 Y8
