;FLAVOR:Marlin
;TIME:2056
;Filament used: 2.10201m
;Layer height: 0.2
;MINX:68.9
;MINY:79.36
;MINZ:0.2
;MAXX:141.109
;MAXY:117.34
;MAXZ:6
;TARGET_MACHINE.NAME:Anycubic i3 Mega
;Generated with Cura_SteamEngine 5.10.0
M140 S60
M105
M190 S60
M104 S220
M105
M109 S220
G21 ;metric values
G90 ;absolute positioning
M82 ;set extruder to absolute mode
M107 ;start with the fan off
G28 X0 Y0 ;move X/Y to min endstops
G28 Z0 ;move Z to min endstops
G1 Z15.0 F100 ;move the platform down 15mm
G92 E0 ;zero the extruded length
G1 F200 E3 ;extrude 3mm of feed stock
G92 E0 ;zero the extruded length again
G1 F100
G0 Y20 F100
M117 Printing...
G5
M82 ;absolute extrusion mode
G92 E0
G92 E0
G1 F2400 E-6
;LAYER_COUNT:30
;LAYER:0
M107
M204 S3000
M205 X10 Y10
G1 F600 Z0.275
G0 F3000 X71.271 Y80.806 Z0.275
M204 S1800
M205 X8 Y8
;TYPE:SKIRT
G1 F600 Z0.2
G1 F2400 E0
G1 X70.645 Y81.39 E0.03986
G1 X70.183 Y81.94 E0.07331
G1 X69.753 Y82.596 E0.10983
G1 X69.353 Y83.433 E0.15303
G1 X69.147 Y84.049 E0.18328
G1 X68.973 Y84.886 E0.22308
G1 X68.911 Y85.674 E0.25989
G1 X68.9 Y86.418 E0.29454
G1 X68.901 Y88.507 E0.39181
G1 X68.943 Y90.413 E0.48058
G1 X68.938 Y93.123 E0.60677
G1 X68.9 Y95.357 E0.71081
G1 X68.901 Y101.807 E1.01115
G1 X68.943 Y103.713 E1.09992
G1 X68.938 Y106.423 E1.22611
G1 X68.901 Y108.566 E1.32591
G1 X68.9 Y110.977 E1.43818
G1 X69.047 Y112.256 E1.49813
G1 X69.25 Y112.988 E1.5335
G1 X69.579 Y113.778 E1.57335
G1 X69.934 Y114.403 E1.60682
G1 X70.401 Y115.037 E1.64348
G1 X70.89 Y115.559 E1.67679
G1 X71.548 Y116.106 E1.71663
G1 X72.215 Y116.531 E1.75346
G1 X72.86 Y116.842 E1.7868
G1 X73.666 Y117.115 E1.82643
G1 X74.371 Y117.26 E1.85994
G1 X75.227 Y117.331 E1.89994
G1 X75.925 Y117.34 E1.93244
G1 X134.743 Y117.34 E4.67126
G1 X135.963 Y117.2 E4.72844
G1 X136.803 Y116.971 E4.76898
G1 X137.404 Y116.726 E4.7992
G1 X138.213 Y116.272 E4.8424
G1 X138.736 Y115.887 E4.87264
G1 X139.409 Y115.251 E4.91575
G1 X139.864 Y114.695 E4.94921
G1 X140.288 Y114.03 E4.98593
G1 X140.599 Y113.387 E5.01919
G1 X140.891 Y112.508 E5.06232
G1 X141.019 Y111.871 E5.09257
G1 X141.09 Y111.02 E5.13234
G1 X141.1 Y110.293 E5.16619
G1 X141.094 Y105.927 E5.36949
G1 X141.108 Y105.652 E5.38231
G1 X141.092 Y103.378 E5.4882
G1 X141.099 Y102.882 E5.5113
G1 X141.094 Y92.646 E5.98793
G1 X141.109 Y92.349 E6.00178
G1 X141.092 Y90.077 E6.10758
G1 X141.099 Y89.582 E6.13063
G1 X141.1 Y85.718 E6.31055
G1 X140.944 Y84.414 E6.3717
G1 X140.753 Y83.722 E6.40513
G1 X140.455 Y82.993 E6.4418
G1 X140.07 Y82.306 E6.47847
G1 X139.561 Y81.62 E6.51825
G1 X139.065 Y81.099 E6.55175
G1 X138.515 Y80.639 E6.58513
G1 X137.859 Y80.211 E6.6216
G1 X137.023 Y79.812 E6.66474
G1 X136.407 Y79.606 E6.69498
G1 X135.569 Y79.433 E6.73483
G1 X134.783 Y79.371 E6.77154
G1 X134.009 Y79.36 E6.80758
G1 X75.257 Y79.36 E9.54332
G1 X74.042 Y79.499 E9.60027
G1 X73.334 Y79.683 E9.63433
G1 X72.605 Y79.971 E9.67083
G1 X71.795 Y80.422 E9.714
G1 X71.271 Y80.806 E9.74425
M204 S3000
M205 X10 Y10
G0 F3000 X71.602 Y81.258
M204 S1800
M205 X8 Y8
G1 F2400 X71.029 Y81.798 E9.78091
G1 X70.614 Y82.298 E9.81117
G1 X70.223 Y82.901 E9.84463
G1 X69.884 Y83.611 E9.88127
G1 X69.678 Y84.227 E9.91151
G1 X69.531 Y84.931 E9.945
G1 X69.471 Y85.682 E9.98008
G1 X69.46 Y86.426 E10.01473
G1 X69.461 Y88.507 E10.11163
G1 X69.503 Y90.414 E10.20045
G1 X69.498 Y93.133 E10.32706
G1 X69.46 Y95.367 E10.4311
G1 X69.461 Y101.807 E10.73097
G1 X69.503 Y103.714 E10.81979
G1 X69.498 Y106.433 E10.9464
G1 X69.461 Y108.576 E11.0462
G1 X69.46 Y110.977 E11.158
G1 X69.587 Y112.106 E11.2109
G1 X69.79 Y112.838 E11.24627
G1 X70.066 Y113.501 E11.27972
G1 X70.421 Y114.126 E11.31318
G1 X70.85 Y114.702 E11.34663
G1 X71.297 Y115.174 E11.3769
G1 X71.904 Y115.674 E11.41352
G1 X72.513 Y116.057 E11.44702
G1 X73.1 Y116.336 E11.47728
G1 X73.779 Y116.566 E11.51066
G1 X74.484 Y116.711 E11.54418
G1 X75.234 Y116.771 E11.57921
G1 X75.932 Y116.78 E11.61171
G1 X134.743 Y116.78 E14.3502
G1 X135.818 Y116.659 E14.40057
G1 X136.592 Y116.452 E14.43788
G1 X137.193 Y116.207 E14.4681
G1 X137.881 Y115.821 E14.50484
G1 X138.404 Y115.436 E14.53508
G1 X138.976 Y114.896 E14.5717
G1 X139.431 Y114.34 E14.60516
G1 X139.814 Y113.732 E14.63862
G1 X140.093 Y113.146 E14.66884
G1 X140.342 Y112.398 E14.70555
G1 X140.47 Y111.761 E14.7358
G1 X140.53 Y111.012 E14.77079
G1 X140.54 Y110.285 E14.80465
G1 X140.534 Y105.927 E15.00757
G1 X140.548 Y105.656 E15.02021
G1 X140.532 Y103.37 E15.12666
G1 X140.539 Y102.874 E15.14976
G1 X140.534 Y92.646 E15.62601
G1 X140.549 Y92.353 E15.63968
G1 X140.532 Y90.069 E15.74603
G1 X140.539 Y89.574 E15.76908
G1 X140.54 Y85.718 E15.94863
G1 X140.404 Y84.563 E16.00279
G1 X140.213 Y83.871 E16.03622
G1 X139.938 Y83.208 E16.06964
G1 X139.583 Y82.582 E16.10315
G1 X139.155 Y82.006 E16.13656
G1 X138.659 Y81.485 E16.17006
G1 X138.158 Y81.071 E16.20032
G1 X137.555 Y80.682 E16.23374
G1 X136.845 Y80.343 E16.27037
G1 X136.229 Y80.137 E16.30062
G1 X135.524 Y79.991 E16.33414
G1 X134.775 Y79.931 E16.36913
G1 X134.001 Y79.92 E16.40517
G1 X75.257 Y79.92 E19.14054
G1 X74.107 Y80.055 E19.19446
G1 X73.48 Y80.224 E19.22469
G1 X72.813 Y80.491 E19.25815
G1 X72.126 Y80.874 E19.29477
G1 X71.602 Y81.258 E19.32502
M204 S3000
M205 X10 Y10
G0 F3000 X71.933 Y81.71
M204 S1800
M205 X8 Y8
G1 F2400 X71.46 Y82.156 E19.35529
G1 X71.045 Y82.656 E19.38555
G1 X70.695 Y83.203 E19.41579
G1 X70.415 Y83.789 E19.44603
G1 X70.209 Y84.405 E19.47628
G1 X70.08 Y85.042 E19.50654
G1 X70.031 Y85.69 E19.5368
G1 X70.02 Y86.434 E19.57145
G1 X70.021 Y88.507 E19.66797
G1 X70.063 Y90.415 E19.75684
G1 X70.058 Y93.143 E19.88387
G1 X70.02 Y95.377 E19.98791
G1 X70.021 Y101.807 E20.28732
G1 X70.063 Y103.715 E20.37618
G1 X70.058 Y106.443 E20.50321
G1 X70.021 Y108.586 E20.60301
G1 X70.02 Y110.977 E20.71435
G1 X70.138 Y111.999 E20.76225
G1 X70.308 Y112.626 E20.7925
G1 X70.554 Y113.227 E20.82274
G1 X70.872 Y113.794 E20.85301
G1 X71.257 Y114.317 E20.88325
G1 X71.704 Y114.789 E20.91352
G1 X72.205 Y115.202 E20.94375
G1 X72.753 Y115.551 E20.97401
G1 X73.34 Y115.83 E21.00427
G1 X73.956 Y116.035 E21.0345
G1 X74.593 Y116.162 E21.06474
G1 X75.241 Y116.211 E21.095
G1 X75.939 Y116.22 E21.12751
G1 X134.743 Y116.22 E23.86567
G1 X135.754 Y116.103 E23.91306
G1 X136.381 Y115.933 E23.94331
G1 X136.982 Y115.688 E23.97353
G1 X137.549 Y115.37 E24.0038
G1 X138.072 Y114.985 E24.03404
G1 X138.545 Y114.539 E24.06431
G1 X138.959 Y114.039 E24.09454
G1 X139.308 Y113.491 E24.12479
G1 X139.587 Y112.905 E24.15501
G1 X139.793 Y112.288 E24.1853
G1 X139.921 Y111.651 E24.21556
G1 X139.97 Y111.004 E24.24577
G1 X139.98 Y110.277 E24.27963
G1 X139.974 Y105.914 E24.48279
G1 X139.988 Y105.66 E24.49463
G1 X139.972 Y103.362 E24.60164
G1 X139.979 Y102.866 E24.62474
G1 X139.974 Y92.635 E25.10114
G1 X139.989 Y92.357 E25.1141
G1 X139.972 Y90.061 E25.22101
G1 X139.979 Y89.566 E25.24406
G1 X139.98 Y85.718 E25.42324
G1 X139.863 Y84.709 E25.47054
G1 X139.694 Y84.082 E25.50078
G1 X139.449 Y83.481 E25.531
G1 X139.132 Y82.914 E25.56125
G1 X138.747 Y82.39 E25.59153
G1 X138.302 Y81.917 E25.62177
G1 X137.801 Y81.503 E25.65203
G1 X137.254 Y81.154 E25.68224
G1 X136.667 Y80.874 E25.71253
G1 X136.051 Y80.668 E25.74277
G1 X135.414 Y80.54 E25.77303
G1 X134.767 Y80.491 E25.80324
G1 X133.993 Y80.48 E25.83928
G1 X75.257 Y80.48 E28.57428
G1 X74.253 Y80.596 E28.62134
G1 X73.626 Y80.765 E28.65158
G1 X73.024 Y81.01 E28.68184
G1 X72.457 Y81.326 E28.71207
G1 X71.933 Y81.71 E28.74232
M204 S3000
M205 X10 Y10
G1 F2400 E22.74232
;MESH:LayerSupport65.stl(1)
G0 F3000 X75.724 Y85.095
G0 X75.724 Y86.184
G0 X76.784 Y87.244
M204 S1800
M205 X8 Y8
;TYPE:WALL-INNER
G1 F2400 E28.74232
G1 F1153.8 X105 Y87.244 E30.45033
M204 S3000
M205 X10 Y10
G0 F3000 X105.838 Y87.892
G0 X105.838 Y95.508
G0 X105.258 Y96.143
M204 S1800
M205 X8 Y8
G1 F1130.6 X105 Y96.154 E30.46628
G1 F1147.5 X76.786 Y96.154 E32.18356
M204 S3000
M205 X10 Y10
G0 F3000 X130.291 Y95.575
M204 S1800
M205 X8 Y8
G1 F1590.9 X129.697 Y95.785 E32.21122
G1 F1703.9 X127.024 Y95.785 E32.32079
G1 F1600 X126.232 Y95.575 E32.35656
G1 F1500 X125.77 Y95.044 E32.38933
G1 X125.662 Y94.584 E32.41134
G1 X121.828 Y94.584 E32.58986
G1 X121.373 Y94.509 E32.61134
G1 X120.987 Y94.305 E32.63166
G1 X120.708 Y94.024 E32.6501
G1 X120.535 Y93.723 E32.66627
G1 X120.428 Y93.363 E32.68376
G1 X120.428 Y90.037 E32.83863
G1 X120.535 Y89.673 E32.8563
G1 X120.708 Y89.371 E32.8725
G1 X120.988 Y89.092 E32.89091
G1 X121.374 Y88.887 E32.91126
G1 X121.828 Y88.812 E32.93269
G1 X125.662 Y88.812 E33.11121
G1 X125.769 Y88.353 E33.13316
G1 X126.232 Y87.821 E33.166
G1 F1593.9 X126.828 Y87.612 E33.19368
G1 F1710.8 X129.5 Y87.612 E33.30276
G1 F1603.1 X130.292 Y87.821 E33.33845
G1 F1500 X130.755 Y88.353 E33.37129
G1 X130.862 Y88.812 E33.39324
G1 X133.3 Y88.812 E33.50676
G1 X133.3 Y87.16 E33.58369
G1 X130.497 Y87.16 E33.71421
G1 F1603.1 X129.5 Y87.124 E33.75767
G1 F1721.3 X127.024 Y87.124 E33.85814
G1 F1603.1 X126.027 Y87.16 E33.90161
G1 F1500 X105.742 Y87.16 E34.84617
G1 F1304.3 X105 Y87.244 E34.88615
G1 X105.659 Y87.492 E34.92386
G1 F1500 X106.12 Y87.888 E34.95216
G1 X106.344 Y88.335 E34.97544
G1 X106.4 Y88.728 E34.99392
G1 X106.4 Y94.668 E35.27052
G1 X106.344 Y95.061 E35.289
G1 X106.12 Y95.509 E35.31232
G1 X105.659 Y95.904 E35.34059
G1 F1278.5 X105.258 Y96.143 E35.36609
G1 X105.743 Y96.241 E35.39312
G1 F1500 X126.026 Y96.24 E36.33759
G1 F1600 X127.024 Y96.275 E36.38118
G1 F1714.3 X129.5 Y96.275 E36.48206
G1 F1600 X130.497 Y96.24 E36.52561
G1 F1500 X133.3 Y96.24 E36.65613
G1 X133.3 Y94.584 E36.73324
G1 X130.862 Y94.584 E36.84676
G1 X130.754 Y95.044 E36.86877
G1 X130.291 Y95.575 E36.90157
M204 S3000
M205 X10 Y10
G0 F3000 X105.396 Y95.58
G0 X105.396 Y95.41
M204 S1800
M205 X8 Y8
G1 F1500 X105.11 Y95.508 E36.91565
G1 X76.14 Y95.508 E38.26461
G1 X76.14 Y96.8 E38.32477
G1 X133.86 Y96.8 E41.01246
G1 X133.86 Y94.024 E41.14172
G1 X130.34 Y94.024 E41.30563
G1 X130.34 Y94.42 E41.32407
G1 X130.253 Y94.795 E41.34199
G1 X129.975 Y95.113 E41.36166
G1 X129.617 Y95.26 E41.37968
G1 X127.024 Y95.26 E41.50042
G1 X126.549 Y95.113 E41.52357
G1 X126.271 Y94.795 E41.54324
G1 X126.184 Y94.42 E41.56117
G1 X126.184 Y94.024 E41.57961
G1 X121.828 Y94.024 E41.78244
G1 X121.555 Y93.979 E41.79532
G1 X121.323 Y93.857 E41.80753
G1 X121.156 Y93.688 E41.81859
G1 X120.988 Y93.292 E41.83862
G1 X120.988 Y90.104 E41.98707
G1 X121.156 Y89.707 E42.00714
G1 X121.324 Y89.54 E42.01817
G1 X121.555 Y89.417 E42.03036
G1 X121.828 Y89.372 E42.04324
G1 X126.184 Y89.372 E42.24608
G1 X126.184 Y88.976 E42.26451
G1 X126.271 Y88.602 E42.28239
G1 X126.548 Y88.283 E42.30207
G1 X126.908 Y88.136 E42.32017
G1 X129.5 Y88.136 E42.44087
G1 X129.976 Y88.283 E42.46407
G1 X130.253 Y88.602 E42.48374
G1 X130.34 Y88.976 E42.50162
G1 X130.34 Y89.372 E42.52006
G1 X133.86 Y89.372 E42.68396
G1 X133.86 Y86.6 E42.81304
G1 X76.14 Y86.6 E45.50072
G1 X76.14 Y87.888 E45.5607
G1 X105 Y87.888 E46.90454
G1 X105.396 Y87.986 E46.92354
G1 X105.672 Y88.224 E46.94051
G1 X105.807 Y88.492 E46.95448
G1 X105.84 Y88.728 E46.96558
G1 X105.84 Y94.668 E47.24217
G1 X105.807 Y94.904 E47.25326
G1 X105.672 Y95.173 E47.26728
G1 X105.396 Y95.41 E47.28422
M204 S3000
M205 X10 Y10
G0 F3000 X105.396 Y95.58
G0 X129.549 Y95.333
G0 X129.549 Y94.696
M204 S1800
M205 X8 Y8
;TYPE:WALL-OUTER
G1 F1500 X127.024 Y94.7 E47.40179
G1 X126.865 Y94.651 E47.40954
G1 X126.744 Y94.512 E47.41812
G1 X126.744 Y93.464 E47.46692
G1 X121.828 Y93.464 E47.69583
G1 X121.659 Y93.409 E47.70411
G1 X121.552 Y93.235 E47.71362
G1 X121.552 Y90.161 E47.85676
G1 X121.604 Y90.043 E47.86276
G1 X121.779 Y89.936 E47.87231
G1 X126.744 Y89.932 E48.1035
G1 X126.744 Y88.884 E48.1523
G1 X126.865 Y88.745 E48.16088
G1 X126.975 Y88.7 E48.16642
G1 X129.5 Y88.696 E48.28399
G1 X129.659 Y88.745 E48.29174
G1 X129.78 Y88.884 E48.30032
G1 X129.78 Y89.932 E48.34912
G1 X134.42 Y89.932 E48.56518
G1 X134.42 Y86.04 E48.74641
G1 X75.58 Y86.04 E51.48624
G1 X75.58 Y88.448 E51.59837
G1 X105 Y88.448 E52.96829
G1 X105.132 Y88.48 E52.97461
G1 X105.28 Y88.671 E52.98586
G1 X105.28 Y94.725 E53.26776
G1 X105.224 Y94.837 E53.27359
G1 X105.049 Y94.944 E53.28314
G1 X75.58 Y94.948 E54.65534
G1 X75.58 Y97.36 E54.76766
G1 X134.42 Y97.36 E57.50749
G1 X134.42 Y93.464 E57.68891
G1 X129.78 Y93.464 E57.90497
G1 X129.78 Y94.512 E57.95377
G1 X129.659 Y94.651 E57.96235
G1 X129.549 Y94.696 E57.96788
M204 S3000
M205 X10 Y10
G0 F3000 X129.349 Y94.696
G0 X129.349 Y95.333
G0 X131.283 Y95.128
M204 S1800
M205 X8 Y8
;TYPE:SKIN
G1 F1183.1 X132.756 Y95.128 E58.03745
G1 X132.756 Y95.696 E58.06428
G1 X130.892 Y95.696 E58.15231
G1 X131.238 Y95.284 E58.17772
G1 X131.283 Y95.128 E58.18539
M204 S3000
M205 X10 Y10
G0 F3000 X130.34 Y95.261
G0 X126.978 Y95.261
G0 X121.784 Y95.126
M204 S1800
M205 X8 Y8
G1 F1178.9 X125.237 Y95.128 E58.34905
G1 F1183.1 X125.282 Y95.284 E58.35672
G1 X125.63 Y95.696 E58.38219
G1 X121.832 Y95.696 E58.56156
G1 F1133.2 X121.185 Y95.671 E58.59349
G1 F1114.4 X120.987 Y95.686 E58.60345
G1 F1170.7 X120.468 Y95.7 E58.62823
G1 F1200 X106.622 Y95.7 E59.27295
G1 X106.843 Y95.258 E59.29596
G1 X106.938 Y94.705 E59.32209
G1 X106.938 Y88.687 E59.60232
G1 X106.843 Y88.134 E59.62844
G1 X106.625 Y87.7 E59.65106
G1 X120.465 Y87.7 E60.29551
G1 F1174.8 X120.982 Y87.712 E60.3201
G1 F1120 X121.19 Y87.727 E60.33051
G1 F1135.1 X121.741 Y87.705 E60.35765
G1 F1183.1 X125.621 Y87.703 E60.5409
G1 F1187.3 X125.282 Y88.111 E60.56587
G1 X125.236 Y88.269 E60.57361
G1 F1183.1 X121.786 Y88.271 E60.73655
G1 F1135.1 X121.239 Y88.337 E60.76367
G1 F1120 X120.661 Y88.658 E60.79666
G1 F1170.7 X120.299 Y89.016 E60.82096
G1 F1200 X120.049 Y89.427 E60.84336
G1 X119.888 Y89.955 E60.86906
G1 X119.888 Y93.435 E61.03111
G1 X120.022 Y93.902 E61.05373
G1 X120.258 Y94.322 E61.07616
G1 F1170.7 X120.655 Y94.737 E61.10357
G1 F1112.6 X121.236 Y95.057 E61.13688
G1 F1129.4 X121.784 Y95.126 E61.16421
M204 S3000
M205 X10 Y10
G0 F3000 X120.992 Y94.023
G0 X120.751 Y88.28
M204 S1800
M205 X8 Y8
G1 F1200 X120.451 Y87.98 E61.18397
M204 S3000
M205 X10 Y10
G0 F3000 X120.3 Y88.622
M204 S1800
M205 X8 Y8
G1 F1200 X119.659 Y87.98 E61.22621
M204 S3000
M205 X10 Y10
G0 F3000 X118.867 Y87.98
M204 S1800
M205 X8 Y8
G1 F1200 X119.945 Y89.059 E61.29723
M204 S3000
M205 X10 Y10
G0 F3000 X119.705 Y89.61
M204 S1800
M205 X8 Y8
G1 F1200 X118.075 Y87.98 E61.40457
M204 S3000
M205 X10 Y10
G0 F3000 X117.283 Y87.98
M204 S1800
M205 X8 Y8
G1 F1200 X119.609 Y90.306 E61.55774
M204 S3000
M205 X10 Y10
G0 F3000 X119.609 Y91.098
M204 S1800
M205 X8 Y8
G1 F1200 X116.491 Y87.98 E61.76307
M204 S3000
M205 X10 Y10
G0 F3000 X115.699 Y87.98
M204 S1800
M205 X8 Y8
G1 F1200 X119.609 Y91.89 E62.02055
M204 S3000
M205 X10 Y10
G0 F3000 X119.609 Y92.682
M204 S1800
M205 X8 Y8
G1 F1200 X114.907 Y87.98 E62.33018
M204 S3000
M205 X10 Y10
G0 F3000 X114.115 Y87.98
M204 S1800
M205 X8 Y8
G1 F1200 X119.635 Y93.501 E62.69372
G1 X119.705 Y93.571
M204 S3000
M205 X10 Y10
G0 F3000 X119.971 Y95.42
M204 S1800
M205 X8 Y8
G1 F1200 X112.531 Y87.98 E63.18365
M204 S3000
M205 X10 Y10
G0 F3000 X111.739 Y87.98
M204 S1800
M205 X8 Y8
G1 F1200 X119.179 Y95.42 E63.67359
M204 S3000
M205 X10 Y10
G0 F3000 X118.387 Y95.42
M204 S1800
M205 X8 Y8
G1 F1200 X110.947 Y87.98 E64.16353
M204 S3000
M205 X10 Y10
G0 F3000 X110.155 Y87.98
M204 S1800
M205 X8 Y8
G1 F1200 X117.595 Y95.42 E64.65346
M204 S3000
M205 X10 Y10
G0 F3000 X116.803 Y95.42
M204 S1800
M205 X8 Y8
G1 F1200 X109.363 Y87.98 E65.1434
M204 S3000
M205 X10 Y10
G0 F3000 X108.571 Y87.98
M204 S1800
M205 X8 Y8
G1 F1200 X116.011 Y95.42 E65.63334
M204 S3000
M205 X10 Y10
G0 F3000 X115.219 Y95.42
M204 S1800
M205 X8 Y8
G1 F1200 X107.779 Y87.98 E66.12327
M204 S3000
M205 X10 Y10
G0 F3000 X107.103 Y88.096
M204 S1800
M205 X8 Y8
G1 F1200 X114.427 Y95.42 E66.60557
M204 S3000
M205 X10 Y10
G0 F3000 X113.635 Y95.42
M204 S1800
M205 X8 Y8
G1 F1200 X107.215 Y89 E67.02834
M204 S3000
M205 X10 Y10
G0 F3000 X107.215 Y89.792
M204 S1800
M205 X8 Y8
G1 F1200 X112.843 Y95.42 E67.39895
M204 S3000
M205 X10 Y10
G0 F3000 X112.051 Y95.42
M204 S1800
M205 X8 Y8
G1 F1200 X107.215 Y90.584 E67.71741
M204 S3000
M205 X10 Y10
G0 F3000 X107.215 Y91.376
M204 S1800
M205 X8 Y8
G1 F1200 X111.259 Y95.42 E67.98371
M204 S3000
M205 X10 Y10
G0 F3000 X110.467 Y95.42
M204 S1800
M205 X8 Y8
G1 F1200 X107.215 Y92.168 E68.19786
M204 S3000
