;FLAVOR:Marlin
;TIME:555
;Filament used: 0.459103m
;Layer height: 0.2
;MINX:77.36
;MINY:71.648
;MINZ:0.2
;MAXX:127.131
;MAXY:121.425
;MAXZ:2
;TARGET_MACHINE.NAME:Anycubic i3 Mega
;Generated with Cura_SteamEngine 5.10.0
M140 S60
M105
M190 S60
M104 S220
M105
M109 S220
G21 ;metric values
G90 ;absolute positioning
M82 ;set extruder to absolute mode
M107 ;start with the fan off
G28 X0 Y0 ;move X/Y to min endstops
G28 Z0 ;move Z to min endstops
G1 Z15.0 F100 ;move the platform down 15mm
G92 E0 ;zero the extruded length
G1 F200 E3 ;extrude 3mm of feed stock
G92 E0 ;zero the extruded length again
G1 F100
G0 Y20 F100
M117 Printing...
G5
M82 ;absolute extrusion mode
G92 E0
G92 E0
G1 F2400 E-6
;LAYER_COUNT:10
;LAYER:0
M107
M204 S3000
M205 X10 Y10
G1 F600 Z0.275
G0 F3000 X84.239 Y79.357 Z0.275
M204 S1800
M205 X8 Y8
;TYPE:SKIRT
G1 F600 Z0.2
G1 F2400 E0
G1 X84.812 Y78.776 E0.038
G1 X85.432 Y78.185 E0.07788
G1 X85.86 Y77.804 E0.10456
G1 X86.744 Y77.058 E0.15843
G1 X87.728 Y76.32 E0.2157
G1 X88.194 Y75.995 E0.24215
G1 X88.848 Y75.563 E0.27865
G1 X89.506 Y75.156 E0.31468
G1 X90.24 Y74.737 E0.35403
G1 X90.805 Y74.436 E0.38384
G1 X91.425 Y74.124 E0.41616
G1 X91.961 Y73.872 E0.44374
G1 X92.96 Y73.444 E0.49435
G1 X93.516 Y73.231 E0.52207
G1 X94.576 Y72.853 E0.57447
G1 X95.777 Y72.503 E0.63272
G1 X96.304 Y72.369 E0.65804
G1 X97.066 Y72.195 E0.69444
G1 X97.848 Y72.039 E0.73157
G1 X98.855 Y71.874 E0.77909
G1 X100.34 Y71.717 E0.84862
G1 X101.465 Y71.661 E0.90107
G1 X102.265 Y71.648 E0.93832
G1 X102.966 Y71.657 E0.97097
G1 X103.586 Y71.683 E0.99986
G1 X104.45 Y71.746 E1.0402
G1 X105.236 Y71.828 E1.077
G1 X106.075 Y71.945 E1.11645
G1 X106.71 Y72.053 E1.14644
G1 X107.53 Y72.215 E1.18536
G1 X108.158 Y72.36 E1.21537
G1 X109.029 Y72.59 E1.25732
G1 X109.608 Y72.762 E1.28544
G1 X110.262 Y72.975 E1.31747
G1 X111.025 Y73.25 E1.35524
G1 X111.997 Y73.633 E1.40388
G1 X113.199 Y74.188 E1.46553
G1 X113.718 Y74.452 E1.49265
G1 X114.374 Y74.805 E1.52733
G1 X115.047 Y75.194 E1.56353
G1 X115.697 Y75.597 E1.59914
G1 X116.281 Y75.984 E1.63176
G1 X116.999 Y76.493 E1.67275
G1 X117.479 Y76.855 E1.70074
G1 X118.191 Y77.425 E1.74321
G1 X118.617 Y77.789 E1.7693
G1 X119.145 Y78.264 E1.80237
G1 X119.73 Y78.824 E1.84008
G1 X120.508 Y79.618 E1.89184
G1 X121.321 Y80.549 E1.9494
G1 X121.7 Y81.013 E1.97729
G1 X122.256 Y81.735 E2.01973
G1 X122.585 Y82.193 E2.04599
G1 X123.012 Y82.816 E2.08115
G1 X123.332 Y83.312 E2.10864
G1 X123.783 Y84.064 E2.14947
G1 X124.08 Y84.592 E2.17768
G1 X124.508 Y85.411 E2.22071
G1 X124.839 Y86.098 E2.25622
G1 X125.188 Y86.887 E2.29639
G1 X125.409 Y87.43 E2.32369
G1 X125.72 Y88.266 E2.36522
G1 X125.931 Y88.897 E2.3962
G1 X126.24 Y89.908 E2.44543
G1 X126.601 Y91.392 E2.51655
G1 X126.819 Y92.59 E2.57325
G1 X126.914 Y93.235 E2.6036
G1 X127.013 Y94.074 E2.64294
G1 X127.065 Y94.681 E2.67131
G1 X127.128 Y95.789 E2.72299
G1 X127.131 Y96.903 E2.77486
G1 X127.114 Y97.533 E2.80421
G1 X127.067 Y98.369 E2.8432
G1 X127.012 Y99.001 E2.87274
G1 X126.914 Y99.841 E2.91211
G1 X126.825 Y100.444 E2.9405
G1 X126.639 Y101.483 E2.98965
G1 X126.504 Y102.109 E3.01947
G1 X126.335 Y102.797 E3.05245
G1 X126.15 Y103.464 E3.08468
G1 X125.92 Y104.213 E3.12117
G1 X125.652 Y104.996 E3.1597
G1 X125.375 Y105.727 E3.19611
G1 X125.128 Y106.328 E3.22636
G1 X124.84 Y106.973 E3.25925
G1 X124.561 Y107.557 E3.28939
G1 X124.167 Y108.321 E3.32942
G1 X123.786 Y109.006 E3.36592
G1 X123.345 Y109.737 E3.40567
G1 X123.02 Y110.241 E3.43359
G1 X122.508 Y110.99 E3.47584
G1 X122.163 Y111.459 E3.50295
G1 X121.708 Y112.049 E3.53764
G1 X121.316 Y112.527 E3.56643
G1 X120.771 Y113.157 E3.60522
G1 X120.251 Y113.72 E3.64091
G1 X119.689 Y114.29 E3.67818
G1 X119.299 Y114.666 E3.7034
G1 X118.638 Y115.263 E3.74488
G1 X118.044 Y115.767 E3.78115
G1 X117.507 Y116.197 E3.81319
G1 X116.878 Y116.668 E3.84978
G1 X116.133 Y117.19 E3.89213
G1 X115.594 Y117.543 E3.92214
G1 X114.91 Y117.962 E3.95949
G1 X114.372 Y118.269 E3.98833
G1 X113.368 Y118.807 E4.04137
G1 X112.209 Y119.344 E4.10085
G1 X111.668 Y119.573 E4.1282
G1 X110.877 Y119.881 E4.16773
G1 X110.285 Y120.09 E4.19696
G1 X109.415 Y120.37 E4.23952
G1 X108.847 Y120.533 E4.26704
G1 X107.788 Y120.805 E4.31795
G1 X106.498 Y121.06 E4.37918
G1 X105.956 Y121.147 E4.40474
G1 X105.225 Y121.246 E4.43909
G1 X104.452 Y121.328 E4.47528
G1 X103.418 Y121.403 E4.52356
G1 X102.249 Y121.425 E4.578
G1 X101.512 Y121.413 E4.61232
G1 X100.735 Y121.378 E4.64854
G1 X99.998 Y121.324 E4.68295
G1 X99.33 Y121.254 E4.71423
G1 X98.497 Y121.14 E4.75338
G1 X97.667 Y121.002 E4.79255
G1 X97.101 Y120.888 E4.81944
G1 X96.17 Y120.672 E4.86394
G1 X95.582 Y120.516 E4.89227
G1 X94.941 Y120.33 E4.92335
G1 X94.248 Y120.105 E4.95727
G1 X93.516 Y119.843 E4.99348
G1 X92.946 Y119.623 E5.02193
G1 X92.116 Y119.27 E5.06393
G1 X91.605 Y119.037 E5.09008
G1 X90.796 Y118.634 E5.13216
G1 X90.113 Y118.268 E5.16824
G1 X89.357 Y117.83 E5.20893
G1 X88.859 Y117.519 E5.23627
G1 X88.114 Y117.024 E5.27792
G1 X87.587 Y116.649 E5.30803
G1 X86.91 Y116.139 E5.3475
G1 X86.44 Y115.763 E5.37553
G1 X85.876 Y115.285 E5.40995
G1 X85.289 Y114.755 E5.44678
G1 X84.805 Y114.292 E5.47797
G1 X84.267 Y113.746 E5.51366
G1 X83.752 Y113.193 E5.54885
G1 X83.261 Y112.63 E5.58363
G1 X82.701 Y111.946 E5.6248
G1 X82.333 Y111.467 E5.65292
G1 X81.808 Y110.74 E5.69468
G1 X81.446 Y110.208 E5.72464
G1 X80.906 Y109.359 E5.77149
G1 X80.251 Y108.183 E5.83417
G1 X79.972 Y107.641 E5.86256
G1 X79.658 Y106.988 E5.8963
G1 X79.369 Y106.338 E5.92942
G1 X78.945 Y105.298 E5.98172
G1 X78.58 Y104.24 E6.03383
G1 X78.361 Y103.531 E6.06839
G1 X78.113 Y102.624 E6.11217
G1 X77.974 Y102.037 E6.14026
G1 X77.748 Y100.959 E6.19155
G1 X77.569 Y99.782 E6.24698
G1 X77.493 Y99.127 E6.27769
G1 X77.428 Y98.405 E6.31144
G1 X77.382 Y97.657 E6.34634
G1 X77.36 Y96.94 E6.37974
G1 X77.36 Y96.159 E6.41611
G1 X77.382 Y95.45 E6.44914
G1 X77.43 Y94.649 E6.4865
G1 X77.491 Y93.967 E6.51839
G1 X77.559 Y93.378 E6.54599
G1 X77.701 Y92.428 E6.59072
G1 X77.802 Y91.854 E6.61786
G1 X77.979 Y91.009 E6.65806
G1 X78.117 Y90.437 E6.68546
G1 X78.396 Y89.422 E6.73448
G1 X78.576 Y88.845 E6.76262
G1 X78.815 Y88.145 E6.79706
G1 X79.037 Y87.549 E6.82668
G1 X79.34 Y86.805 E6.86408
G1 X79.602 Y86.211 E6.89431
G1 X80.128 Y85.114 E6.95096
G1 X80.769 Y83.96 E7.01243
G1 X81.07 Y83.46 E7.03961
G1 X81.548 Y82.715 E7.08082
G1 X81.915 Y82.183 E7.11092
G1 X82.558 Y81.302 E7.16171
G1 X83.344 Y80.346 E7.21933
G1 X83.776 Y79.856 E7.24975
G1 X84.239 Y79.357 E7.28145
M204 S3000
M205 X10 Y10
G0 F3000 X84.638 Y79.75
M204 S1800
M205 X8 Y8
G1 F2400 X85.199 Y79.181 E7.31866
G1 X85.805 Y78.603 E7.35765
G1 X86.221 Y78.232 E7.38361
G1 X87.08 Y77.506 E7.43598
G1 X88.049 Y76.779 E7.49239
G1 X88.503 Y76.462 E7.51817
G1 X89.143 Y76.039 E7.55389
G1 X89.784 Y75.642 E7.589
G1 X90.503 Y75.231 E7.62756
G1 X91.057 Y74.936 E7.65679
G1 X91.663 Y74.631 E7.68838
G1 X92.182 Y74.387 E7.71508
G1 X93.161 Y73.967 E7.76469
G1 X93.704 Y73.758 E7.79178
G1 X94.733 Y73.391 E7.84265
G1 X95.915 Y73.046 E7.89999
G1 X96.429 Y72.915 E7.92469
G1 X97.175 Y72.744 E7.96032
G1 X97.939 Y72.592 E7.9966
G1 X98.946 Y72.427 E8.04411
G1 X100.399 Y72.274 E8.11214
G1 X101.474 Y72.221 E8.16226
G1 X102.258 Y72.208 E8.19877
G1 X102.943 Y72.217 E8.23067
G1 X103.546 Y72.242 E8.25877
G1 X104.392 Y72.303 E8.29827
G1 X105.159 Y72.383 E8.33418
G1 X105.981 Y72.497 E8.37282
G1 X106.601 Y72.602 E8.4021
G1 X107.404 Y72.761 E8.44022
G1 X108.015 Y72.902 E8.46942
G1 X108.87 Y73.127 E8.51058
G1 X109.434 Y73.294 E8.53797
G1 X110.072 Y73.502 E8.56922
G1 X110.82 Y73.771 E8.60623
G1 X111.763 Y74.142 E8.65342
G1 X112.945 Y74.687 E8.71403
G1 X113.453 Y74.945 E8.74056
G1 X114.094 Y75.29 E8.77445
G1 X114.752 Y75.67 E8.80984
G1 X115.388 Y76.064 E8.84467
G1 X115.957 Y76.441 E8.87646
G1 X116.662 Y76.94 E8.91667
G1 X117.129 Y77.292 E8.94391
G1 X117.827 Y77.851 E8.98555
G1 X118.253 Y78.215 E9.01164
G1 X118.758 Y78.669 E9.04326
G1 X119.33 Y79.216 E9.08011
G1 X120.086 Y79.987 E9.13039
G1 X120.887 Y80.903 E9.18705
G1 X121.256 Y81.355 E9.21422
G1 X121.801 Y82.062 E9.25579
G1 X122.123 Y82.51 E9.28148
G1 X122.541 Y83.12 E9.31591
G1 X122.861 Y83.616 E9.3434
G1 X123.295 Y84.339 E9.38266
G1 X123.584 Y84.852 E9.41008
G1 X124.004 Y85.654 E9.45223
G1 X124.327 Y86.324 E9.48687
G1 X124.669 Y87.098 E9.52627
G1 X124.884 Y87.626 E9.55282
G1 X125.189 Y88.444 E9.59347
G1 X125.396 Y89.061 E9.62377
G1 X125.696 Y90.041 E9.6715
G1 X126.05 Y91.492 E9.74104
G1 X126.265 Y92.672 E9.79689
G1 X126.358 Y93.301 E9.8265
G1 X126.455 Y94.122 E9.86499
G1 X126.506 Y94.713 E9.89262
G1 X126.568 Y95.791 E9.9429
G1 X126.571 Y96.888 E9.99398
G1 X126.555 Y97.502 E10.02258
G1 X126.509 Y98.321 E10.06077
G1 X126.456 Y98.936 E10.08952
G1 X126.36 Y99.76 E10.12814
G1 X126.274 Y100.345 E10.15568
G1 X126.091 Y101.365 E10.20393
G1 X125.96 Y101.975 E10.23298
G1 X125.795 Y102.647 E10.2652
G1 X125.61 Y103.314 E10.29743
G1 X125.39 Y104.032 E10.3324
G1 X125.128 Y104.798 E10.3701
G1 X124.857 Y105.514 E10.40575
G1 X124.616 Y106.1 E10.43525
G1 X124.335 Y106.731 E10.46741
G1 X124.063 Y107.3 E10.49678
G1 X123.677 Y108.049 E10.53602
G1 X123.306 Y108.717 E10.5716
G1 X122.874 Y109.434 E10.61057
G1 X122.558 Y109.925 E10.63776
G1 X122.056 Y110.659 E10.67917
G1 X121.72 Y111.117 E10.70562
G1 X121.275 Y111.694 E10.73955
G1 X120.893 Y112.161 E10.76764
G1 X120.36 Y112.777 E10.80557
G1 X119.852 Y113.327 E10.84044
G1 X119.3 Y113.887 E10.87705
G1 X118.91 Y114.263 E10.90228
G1 X118.276 Y114.836 E10.94207
G1 X117.694 Y115.33 E10.97762
G1 X117.171 Y115.749 E11.00882
G1 X116.556 Y116.21 E11.04461
G1 X115.826 Y116.722 E11.08613
G1 X115.301 Y117.066 E11.11536
G1 X114.633 Y117.476 E11.15185
G1 X114.107 Y117.776 E11.18005
G1 X113.133 Y118.299 E11.23153
G1 X111.991 Y118.828 E11.29013
G1 X111.464 Y119.051 E11.31678
G1 X110.69 Y119.353 E11.35546
G1 X110.113 Y119.557 E11.38396
G1 X109.261 Y119.832 E11.42565
G1 X108.707 Y119.991 E11.45249
G1 X107.679 Y120.256 E11.50192
G1 X106.409 Y120.507 E11.5622
G1 X105.881 Y120.592 E11.5871
G1 X105.166 Y120.689 E11.6207
G1 X104.411 Y120.769 E11.65605
G1 X103.377 Y120.844 E11.70433
G1 X102.258 Y120.865 E11.75644
G1 X101.537 Y120.854 E11.79002
G1 X100.776 Y120.82 E11.82549
G1 X100.056 Y120.767 E11.85911
G1 X99.405 Y120.699 E11.88958
G1 X98.589 Y120.588 E11.92793
G1 X97.778 Y120.453 E11.96621
G1 X97.227 Y120.342 E11.99239
G1 X96.314 Y120.131 E12.03602
G1 X95.738 Y119.978 E12.06377
G1 X95.114 Y119.797 E12.09403
G1 X94.421 Y119.572 E12.12795
G1 X93.718 Y119.321 E12.16271
G1 X93.165 Y119.107 E12.19032
G1 X92.349 Y118.761 E12.23159
G1 X91.854 Y118.535 E12.25693
G1 X91.061 Y118.141 E12.29816
G1 X90.394 Y117.783 E12.33341
G1 X89.638 Y117.345 E12.3741
G1 X89.169 Y117.053 E12.39982
G1 X88.438 Y116.567 E12.4407
G1 X87.924 Y116.202 E12.47005
G1 X87.26 Y115.702 E12.50875
G1 X86.802 Y115.336 E12.53605
G1 X86.251 Y114.869 E12.56969
G1 X85.676 Y114.35 E12.60575
G1 X85.204 Y113.899 E12.63615
G1 X84.677 Y113.365 E12.67109
G1 X84.174 Y112.824 E12.70549
G1 X83.694 Y112.275 E12.73944
G1 X83.145 Y111.605 E12.77978
G1 X82.787 Y111.139 E12.80714
G1 X82.271 Y110.426 E12.84812
G1 X81.919 Y109.907 E12.87732
G1 X81.379 Y109.058 E12.92417
G1 X80.749 Y107.927 E12.98446
G1 X80.477 Y107.398 E13.01216
G1 X80.17 Y106.76 E13.04512
G1 X79.888 Y106.127 E13.07739
G1 X79.464 Y105.087 E13.12969
G1 X79.115 Y104.075 E13.17953
G1 X78.901 Y103.383 E13.21326
G1 X78.658 Y102.495 E13.25613
G1 X78.522 Y101.922 E13.28355
G1 X78.302 Y100.875 E13.33337
G1 X78.123 Y99.698 E13.38881
G1 X78.051 Y99.076 E13.41796
G1 X77.987 Y98.371 E13.45093
G1 X77.942 Y97.64 E13.48503
G1 X77.92 Y96.923 E13.51843
G1 X77.92 Y96.176 E13.55322
G1 X77.941 Y95.483 E13.5855
G1 X77.988 Y94.698 E13.62212
G1 X78.047 Y94.031 E13.6533
G1 X78.113 Y93.46 E13.68006
G1 X78.252 Y92.525 E13.72408
G1 X78.35 Y91.969 E13.75037
G1 X78.524 Y91.14 E13.78981
G1 X78.657 Y90.585 E13.81639
G1 X78.93 Y89.589 E13.86447
G1 X79.106 Y89.026 E13.89194
G1 X79.34 Y88.34 E13.92569
G1 X79.556 Y87.76 E13.95451
G1 X79.852 Y87.031 E13.99115
G1 X80.107 Y86.453 E14.02056
G1 X80.633 Y85.356 E14.07721
G1 X81.249 Y84.249 E14.1362
G1 X81.542 Y83.762 E14.16267
G1 X82.009 Y83.033 E14.20298
G1 X82.367 Y82.513 E14.23238
G1 X82.991 Y81.658 E14.28167
G1 X83.777 Y80.702 E14.33929
G1 X84.186 Y80.237 E14.36813
G1 X84.638 Y79.75 E14.39907
M204 S3000
M205 X10 Y10
G0 F3000 X85.037 Y80.143
M204 S1800
M205 X8 Y8
G1 F2400 X85.585 Y79.586 E14.43545
G1 X86.178 Y79.021 E14.47359
G1 X86.583 Y78.659 E14.49889
G1 X87.416 Y77.954 E14.5497
G1 X88.369 Y77.238 E14.60521
G1 X88.812 Y76.929 E14.63036
G1 X89.437 Y76.515 E14.66527
G1 X90.063 Y76.128 E14.69953
G1 X90.766 Y75.725 E14.73727
G1 X91.308 Y75.436 E14.76587
G1 X91.901 Y75.138 E14.79677
G1 X92.403 Y74.902 E14.8226
G1 X93.382 Y74.482 E14.8722
G1 X93.892 Y74.285 E14.89766
G1 X94.89 Y73.929 E14.947
G1 X96.054 Y73.589 E15.00347
G1 X96.555 Y73.461 E15.02755
G1 X97.284 Y73.293 E15.06238
G1 X98.03 Y73.145 E15.09779
G1 X99.037 Y72.98 E15.14531
G1 X100.457 Y72.831 E15.21179
G1 X101.483 Y72.781 E15.25963
G1 X102.25 Y72.768 E15.29535
G1 X102.92 Y72.777 E15.32655
G1 X103.506 Y72.801 E15.35386
G1 X104.334 Y72.86 E15.39251
G1 X105.083 Y72.938 E15.42757
G1 X105.888 Y73.049 E15.46541
G1 X106.492 Y73.151 E15.49394
G1 X107.278 Y73.307 E15.53125
G1 X107.873 Y73.444 E15.55968
G1 X108.711 Y73.664 E15.60002
G1 X109.261 Y73.827 E15.62673
G1 X109.883 Y74.029 E15.65719
G1 X110.615 Y74.292 E15.6934
G1 X111.558 Y74.663 E15.74059
G1 X112.692 Y75.187 E15.79876
G1 X113.188 Y75.438 E15.82464
G1 X113.814 Y75.775 E15.85775
G1 X114.457 Y76.146 E15.89232
G1 X115.079 Y76.531 E15.92638
G1 X115.634 Y76.898 E15.95736
G1 X116.325 Y77.387 E15.99678
G1 X116.779 Y77.729 E16.02324
G1 X117.463 Y78.276 E16.06403
G1 X117.879 Y78.632 E16.08952
G1 X118.371 Y79.074 E16.12032
G1 X118.93 Y79.608 E16.15632
G1 X119.664 Y80.356 E16.20511
G1 X120.453 Y81.258 E16.26092
G1 X120.812 Y81.697 E16.28732
G1 X121.357 Y82.404 E16.32889
G1 X121.661 Y82.826 E16.35311
G1 X122.07 Y83.424 E16.38684
G1 X122.39 Y83.92 E16.41433
G1 X122.807 Y84.614 E16.45203
G1 X123.088 Y85.112 E16.47865
G1 X123.5 Y85.898 E16.51998
G1 X123.815 Y86.55 E16.55369
G1 X124.15 Y87.309 E16.59233
G1 X124.359 Y87.822 E16.61812
G1 X124.658 Y88.623 E16.65793
G1 X124.861 Y89.225 E16.68751
G1 X125.152 Y90.174 E16.73373
G1 X125.499 Y91.593 E16.80176
G1 X125.711 Y92.754 E16.85671
G1 X125.802 Y93.367 E16.88557
G1 X125.897 Y94.171 E16.92327
G1 X125.947 Y94.746 E16.95014
G1 X126.008 Y95.793 E16.99898
G1 X126.011 Y96.874 E17.04931
G1 X125.996 Y97.471 E17.07712
G1 X125.951 Y98.273 E17.11452
G1 X125.9 Y98.871 E17.14247
G1 X125.806 Y99.679 E17.18035
G1 X125.723 Y100.246 E17.20703
G1 X125.543 Y101.248 E17.25443
G1 X125.416 Y101.842 E17.28272
G1 X125.255 Y102.498 E17.31417
G1 X125.075 Y103.15 E17.34567
G1 X124.86 Y103.851 E17.37981
G1 X124.604 Y104.6 E17.41667
G1 X124.339 Y105.301 E17.45156
G1 X124.104 Y105.872 E17.48031
G1 X123.829 Y106.49 E17.51181
G1 X123.565 Y107.044 E17.54039
G1 X123.188 Y107.777 E17.57877
G1 X122.826 Y108.428 E17.61345
G1 X122.403 Y109.131 E17.65166
G1 X122.096 Y109.609 E17.67811
G1 X121.605 Y110.328 E17.71865
G1 X121.277 Y110.775 E17.74447
G1 X120.841 Y111.34 E17.7777
G1 X120.47 Y111.795 E17.80504
G1 X119.949 Y112.397 E17.84211
G1 X119.453 Y112.934 E17.87615
G1 X118.912 Y113.484 E17.91207
G1 X118.534 Y113.848 E17.93651
G1 X117.914 Y114.409 E17.97544
G1 X117.343 Y114.893 E18.01029
G1 X116.835 Y115.301 E18.04063
G1 X116.234 Y115.752 E18.07562
G1 X115.519 Y116.254 E18.1163
G1 X115.008 Y116.589 E18.14475
G1 X114.355 Y116.99 E18.18044
G1 X113.842 Y117.283 E18.20795
G1 X112.898 Y117.791 E18.25786
G1 X111.773 Y118.312 E18.31559
G1 X111.26 Y118.529 E18.34153
G1 X110.503 Y118.825 E18.37938
G1 X109.941 Y119.024 E18.40714
G1 X109.106 Y119.294 E18.448
G1 X108.567 Y119.449 E18.47412
G1 X107.57 Y119.707 E18.52207
G1 X106.32 Y119.954 E18.5814
G1 X105.805 Y120.037 E18.60569
G1 X105.107 Y120.132 E18.63849
G1 X104.37 Y120.21 E18.673
G1 X103.336 Y120.285 E18.72128
G1 X102.266 Y120.305 E18.77111
G1 X101.562 Y120.295 E18.80389
G1 X100.817 Y120.262 E18.83862
G1 X100.114 Y120.21 E18.87144
G1 X99.48 Y120.144 E18.90112
G1 X98.681 Y120.036 E18.93866
G1 X97.889 Y119.904 E18.97605
G1 X97.353 Y119.796 E19.00151
